P2
# A desert scene with clouds
480 480
255
231 231 231 232 233 234 234 235 236 236 236 236 237 236 237 237 238 238 239 239 240 240 240 238 238 238 238 238 238 238 238 238 237 236 234 232 232 233 232 227 224 222 220 221 221 221 222 222 219 216 219 220 220 220 216 206 203 204 208 213 217 218 220 223 225 228 229 227 225 225 225 227 227 227 227 227 227 227 227 227 228 229 229 230 230 230 230 229 230 230 229 229 229 229 229 229 229 227 226 223 221 221 222 223 224 225 225 225 225 225 225 226 226 226 226 225 224 223 222 221 222 224 225 227 227 227 228 229 227 227 226 225 224 224 222 220 219 217 217 216 213 210 208 207 207 207 207 207 207 207 206 206 203 203 203 203 201 203 203 200 198 193 196 197 197 197 197 198 197 197 199 199 200 200 203 206 206 204 206 208 212 217 220 218 218 220 222 227 230 232 234 234 235 235 238 241 241 242 242 241 238 236 234 234 233 232 232 231 229 227 223 214 200 183 185 197 196 188 183 180 186 193 193 189 189 193 199 206 203 204 207 210 211 211 214 217 219 217 212 216 220 223 222 220 219 213 207 196 193 193 160 151 169 186 188 193 191 186 183 187 160 61 24 27 27 28 29 29 31 32 32 33 33 35 32 33 36 39 41 44 44 40 44 45 40 34 33 37 42 45 48 51 54 58 59 59 57 60 60 61 60 61 61 61 61 64 65 70 71 70 71 71 73 71 70 68 71 79 79 79 77 73 67 65 68 71 73 74 74 73 71 73 71 71 74 79 79 75 75 75 75 77 80 80 79 80 79 80 82 82 85 87 89 90 90 86 86 85 85 85 86 85 83 83 86 91 91 91 93 95 97 97 96 97 97 98 98 102 109 111 114 111 104 98 95 95 90 88 88 87 88 88 88 88 88 90 90 90 91 91 93 93 93 93 92 91 95 97 95 98 100 99 98 103 104 105 104 102 102 104 105 105 107 111 112 112 113 112 112 112 112 112 109 108 109 111 111 109 107 109 109 109 111 112 114 114 114 112 111 109 109 109 109 109 107 111 114 114 112 111 111 112 112 112 114 112 112 112 116 119 118 114 116 118 120 120 118 116 118 120
231 230 230 232 232 233 233 234 236 236 237 236 236 236 237 238 237 238 238 238 240 239 240 238 238 238 238 237 237 238 238 238 236 236 236 234 232 232 232 230 227 222 220 220 221 220 221 222 220 219 221 221 221 221 220 212 207 207 208 213 216 218 221 222 226 228 230 229 227 227 227 226 226 226 226 226 226 226 226 227 227 227 229 230 230 232 231 229 230 230 229 228 228 228 228 228 230 228 225 224 221 221 222 223 224 225 225 225 225 225 225 225 225 225 225 224 224 223 222 222 222 223 224 226 226 227 229 229 227 225 224 223 224 224 223 220 219 218 218 216 213 211 210 208 207 206 206 206 207 208 207 206 204 204 204 204 204 204 203 201 199 196 196 199 199 199 199 199 199 199 200 200 203 203 207 210 208 210 212 214 218 221 223 223 223 224 227 230 232 233 233 234 234 235 238 239 238 240 241 241 240 237 236 236 236 234 232 231 229 228 223 216 213 206 201 201 201 200 197 196 196 194 193 191 192 194 201 206 208 207 210 212 212 208 217 222 223 221 217 217 217 217 217 218 216 212 208 200 186 181 164 151 173 188 168 160 152 144 164 176 175 80 25 26 28 29 29 29 30 33 34 35 34 35 36 37 39 40 41 43 43 44 46 50 48 46 43 44 47 47 48 48 52 58 60 58 59 59 59 61 61 61 60 62 63 64 64 71 73 74 77 75 74 74 70 70 74 79 79 79 77 71 67 67 71 71 73 74 74 73 71 73 71 68 73 75 75 76 74 75 75 75 77 79 77 79 81 80 83 83 88 90 90 90 90 88 86 83 83 83 82 82 80 80 86 91 91 90 91 91 91 93 95 91 91 97 97 102 109 111 111 108 102 98 95 93 90 90 88 88 88 88 88 88 88 90 90 90 90 90 91 93 93 93 93 91 95 96 95 97 98 100 100 104 104 105 105 104 101 103 105 105 109 112 114 112 111 111 110 112 112 112 109 107 109 112 111 107 105 109 111 111 112 114 114 114 114 111 107 107 109 109 109 107 109 112 114 112 111 111 111 111 112 114 112 114 114 114 116 120 120 120 120 120 118 118 120 120 120 120
230 230 229 231 232 232 232 233 234 236 237 236 236 236 236 237 238 238 238 239 240 240 240 239 239 238 238 238 238 238 238 238 238 237 236 236 234 232 232 231 228 224 221 222 221 221 221 221 221 222 222 222 222 222 220 214 208 206 206 212 216 218 220 222 225 228 230 230 229 228 227 227 228 227 227 227 227 227 227 227 227 228 229 231 231 232 232 231 230 230 230 230 230 231 230 230 230 228 226 225 223 222 222 222 223 224 224 224 224 224 224 224 224 224 222 222 222 222 222 222 222 222 222 226 227 227 228 229 227 225 224 224 223 222 221 219 219 218 218 217 214 211 211 210 209 207 208 209 210 210 208 207 206 206 206 206 207 204 203 201 200 199 199 199 199 199 199 199 199 199 201 204 204 204 208 211 213 214 216 219 222 225 226 226 227 229 232 233 233 234 234 234 235 236 238 238 238 238 239 240 240 238 237 236 236 235 233 231 229 228 224 218 217 213 208 204 201 201 200 199 197 197 199 197 196 197 201 207 210 210 211 213 212 212 217 222 225 225 219 216 216 212 212 212 210 204 204 191 174 176 171 171 179 186 146 140 136 135 136 161 164 72 26 30 31 30 31 33 33 34 35 35 34 35 37 39 39 40 41 41 43 45 48 48 52 53 53 53 51 51 51 52 54 58 59 59 59 58 60 61 61 61 60 61 63 63 67 70 77 77 75 74 71 70 70 70 74 75 75 74 74 71 70 70 71 71 71 73 74 74 74 73 71 71 71 73 74 75 75 74 74 75 77 79 77 78 82 82 83 83 88 91 91 90 91 89 86 83 82 83 82 80 77 78 88 92 90 87 90 88 88 88 88 86 93 98 98 104 109 111 107 105 104 100 97 91 88 88 87 88 88 88 88 87 90 90 90 90 91 90 91 93 93 95 93 93 98 98 97 98 100 100 102 104 104 105 105 104 104 105 107 107 109 112 112 111 109 107 104 107 107 107 107 109 109 109 109 111 109 111 112 111 111 111 111 112 114 112 107 107 109 110 111 111 111 112 112 111 111 111 111 111 114 114 114 114 116 116 116 120 118 120 120 119 120 122 122 122 120 120
230 230 230 231 232 232 231 233 233 234 236 236 236 236 236 236 237 237 238 238 239 240 239 239 239 238 238 238 238 238 238 238 238 238 238 236 234 233 233 233 231 225 221 222 221 220 221 223 223 224 223 222 222 222 218 211 207 204 206 210 213 217 220 222 225 228 230 230 229 229 227 227 226 226 226 226 226 226 226 227 227 227 229 231 231 232 231 231 230 230 230 230 230 230 230 230 230 229 227 225 223 222 222 221 222 223 223 223 223 223 223 223 223 222 222 221 222 222 221 222 222 222 222 224 224 225 226 227 226 224 222 223 222 221 220 220 219 218 217 217 214 210 210 211 210 208 210 210 210 210 208 207 206 205 206 206 205 204 204 203 201 200 200 200 200 200 200 200 201 203 203 207 207 208 213 216 219 219 218 221 225 228 229 231 230 232 234 234 235 235 236 236 237 238 239 238 237 236 238 240 239 239 239 238 236 234 232 232 232 230 225 218 219 216 214 207 201 200 199 199 196 197 200 197 197 197 201 208 212 212 213 216 214 214 214 220 224 221 213 212 212 208 207 210 208 204 199 189 183 180 181 189 185 171 135 129 123 111 102 102 80 33 29 33 33 32 33 33 35 34 33 33 34 35 37 39 39 41 44 45 43 44 50 50 51 52 54 54 53 54 55 55 55 58 60 59 58 59 61 61 61 61 60 61 63 63 65 68 79 79 75 75 71 71 69 73 75 77 75 74 73 71 71 70 71 73 71 73 74 74 73 73 71 71 71 74 74 75 75 74 75 75 77 79 82 82 83 83 84 85 88 91 93 93 93 91 88 83 82 83 82 83 83 85 90 90 91 88 90 88 89 85 84 85 93 98 98 105 108 111 107 105 105 102 98 90 88 88 88 88 88 88 88 90 93 95 96 93 93 96 93 93 95 97 97 97 102 100 98 100 100 100 100 104 104 105 105 105 105 108 109 109 109 111 112 110 107 105 104 103 104 105 105 107 107 107 109 111 111 111 111 111 109 109 111 111 112 114 111 107 107 109 111 111 109 109 111 111 111 111 111 111 112 112 111 115 116 116 116 120 116 118 118 118 120 122 122 122 120 118
230 230 230 231 231 232 232 232 234 234 235 236 236 237 236 236 237 238 238 238 239 239 239 239 239 238 238 238 238 237 238 239 239 239 238 237 235 234 234 234 232 228 224 221 221 222 223 225 225 225 225 225 224 221 216 212 208 206 207 208 211 214 217 220 224 227 231 230 230 230 229 227 227 226 225 225 227 226 225 226 226 227 228 229 229 230 231 231 229 228 228 228 229 230 230 230 230 230 228 226 224 223 222 220 222 222 222 222 222 222 222 222 222 222 221 221 222 222 222 222 222 221 222 224 223 224 225 225 224 223 222 222 222 221 220 220 218 217 217 216 214 212 211 211 211 210 211 211 211 211 210 210 208 207 206 206 206 206 206 204 203 201 201 200 201 204 203 204 203 204 204 204 208 214 218 219 220 221 221 224 227 229 232 234 234 233 234 235 237 237 238 238 238 238 238 237 236 236 236 236 238 239 240 239 236 232 233 232 233 231 226 223 219 217 216 210 199 198 200 200 200 199 200 197 197 197 201 208 212 212 213 216 216 214 213 217 219 216 210 210 208 206 207 210 210 207 200 197 201 194 193 197 186 171 151 122 75 69 79 61 36 29 33 35 32 32 35 35 35 34 34 35 34 35 37 39 39 41 44 47 46 47 48 51 55 60 61 59 56 58 61 60 59 59 59 59 59 59 60 60 60 60 60 61 61 61 63 64 74 75 75 77 75 75 74 74 74 75 76 75 73 71 71 71 73 73 73 71 73 71 70 71 71 71 71 74 74 75 75 74 75 74 77 80 80 81 83 83 83 86 88 90 91 91 91 88 85 83 83 82 83 85 88 91 88 88 89 88 90 91 90 85 83 90 97 100 102 107 109 109 106 105 102 100 97 90 90 90 88 90 90 88 88 95 95 95 98 97 97 98 98 98 100 100 100 104 104 103 100 100 100 100 102 104 105 105 102 104 105 106 109 109 109 111 110 107 108 107 105 104 102 106 105 104 105 107 109 109 109 107 107 107 107 111 111 114 114 117 113 111 112 111 109 111 109 109 109 111 111 111 108 111 112 111 109 111 112 112 114 116 118 118 118 116 116 118 121 118 118 118
230 230 230 229 229 231 231 232 234 234 235 236 236 236 236 236 238 238 238 238 239 239 239 240 240 239 239 238 238 239 240 240 240 240 241 238 236 235 234 234 233 230 227 224 224 225 226 227 228 225 225 225 224 221 216 213 211 207 207 207 211 213 216 217 221 225 229 230 230 230 230 228 227 225 225 225 226 226 225 226 226 227 227 228 229 231 231 229 228 228 229 229 230 230 230 231 229 230 228 227 224 224 223 222 222 222 222 222 222 222 222 222 222 221 221 221 222 222 222 222 223 222 222 224 224 225 225 224 224 223 222 221 222 222 221 220 219 218 218 217 215 213 212 212 212 210 212 212 212 212 211 211 208 208 207 207 207 207 207 206 204 203 202 204 204 204 204 204 204 204 207 208 211 218 220 220 221 222 222 223 226 229 232 234 235 233 235 235 238 238 238 238 238 238 237 236 236 236 235 236 236 237 239 238 234 232 232 232 232 230 226 224 223 220 219 212 201 200 200 201 200 200 199 197 197 197 201 208 211 213 213 216 216 216 214 214 214 210 206 206 206 206 208 211 211 209 206 203 206 206 201 197 189 169 168 107 54 61 47 29 29 34 38 37 35 37 36 36 36 36 36 35 36 36 36 38 39 41 44 46 47 50 51 53 59 64 67 64 59 60 61 63 64 61 59 60 60 59 59 58 59 59 60 61 59 58 59 60 65 70 71 74 75 74 74 75 74 71 71 70 68 68 71 71 70 70 70 71 70 70 71 70 71 71 71 73 74 75 76 77 77 77 79 78 80 80 82 82 82 85 86 87 90 90 90 86 83 82 82 80 80 85 86 90 88 88 89 88 90 91 90 90 91 98 104 105 105 108 109 109 107 105 102 100 93 88 90 91 90 90 90 88 88 93 95 95 98 100 97 97 98 98 100 100 97 100 104 102 100 100 100 100 100 102 104 104 102 102 102 100 105 109 111 111 107 107 107 107 105 103 104 104 104 105 107 109 107 107 107 109 109 109 111 114 112 116 116 116 112 112 112 111 112 111 111 111 111 111 111 111 111 111 110 109 107 107 109 111 112 113 114 119 118 116 116 118 120 120 120 118
230 230 230 229 229 230 230 232 232 234 234 236 236 236 236 236 237 238 238 238 237 238 237 240 240 240 240 240 240 240 241 241 241 240 241 240 238 236 235 235 235 232 228 226 226 227 229 229 228 227 226 225 223 221 218 214 212 210 210 209 211 213 217 219 219 223 226 228 228 229 228 227 227 224 225 225 225 225 225 225 225 226 227 227 227 228 228 228 226 227 227 228 229 229 229 228 227 227 227 226 225 225 223 222 222 222 221 221 221 221 221 221 221 221 221 221 222 222 222 222 222 223 224 224 224 224 223 222 222 222 222 222 222 223 221 220 219 218 218 218 217 214 213 214 213 212 212 212 212 213 211 211 211 210 208 207 207 207 207 207 206 206 207 207 207 206 207 207 207 206 207 211 214 219 221 221 223 224 223 223 226 229 232 233 234 236 238 238 238 238 239 240 239 237 236 236 235 236 236 236 236 236 236 235 232 231 231 232 230 227 224 224 225 224 221 214 201 201 200 201 200 199 199 199 199 199 200 204 208 212 213 215 214 214 212 208 206 203 203 204 204 207 213 216 214 213 212 208 206 199 190 189 185 178 169 119 65 63 38 33 34 37 39 40 40 40 38 38 37 38 40 40 40 41 38 38 40 44 47 46 46 50 53 55 60 61 64 65 65 65 64 65 68 65 60 59 59 59 59 58 59 59 60 61 58 56 56 56 61 65 68 73 74 74 74 74 73 71 71 67 68 68 70 70 68 67 67 67 70 70 71 71 71 73 73 74 77 75 75 75 77 80 80 80 80 80 80 80 82 85 84 87 88 88 86 83 82 80 80 81 83 85 85 85 88 90 91 91 93 93 93 93 97 99 102 105 105 109 109 109 107 106 104 102 93 91 92 91 93 91 91 91 95 97 97 97 98 100 98 97 97 98 98 97 96 100 102 100 100 100 100 100 100 98 98 104 102 98 98 100 104 104 108 108 104 104 105 104 104 104 104 102 102 107 109 109 107 107 109 111 111 114 114 114 114 114 114 112 111 109 110 110 109 109 107 105 107 109 111 111 111 112 109 107 106 105 105 109 111 111 114 116 117 120 120 120 120 121 120 120
231 230 230 230 229 230 230 232 233 235 234 235 236 236 236 236 237 238 238 238 238 238 238 240 240 241 241 241 241 241 241 241 241 241 241 239 239 237 236 236 235 233 231 229 228 230 231 229 229 229 228 225 222 220 220 218 214 212 212 211 211 212 214 218 218 220 225 226 227 227 227 227 226 224 225 225 224 224 224 225 225 226 226 227 227 226 226 226 226 226 226 226 227 227 228 228 227 226 226 225 224 224 223 222 222 221 221 221 220 220 220 220 220 220 220 220 221 221 221 221 222 222 223 223 223 223 222 222 221 221 221 221 221 222 221 220 219 218 218 218 218 214 214 214 213 212 212 212 212 212 211 211 211 210 208 207 207 207 207 207 207 207 207 207 206 207 207 206 207 208 211 213 216 219 221 221 222 223 224 225 226 229 233 233 234 236 238 238 238 237 240 240 239 238 237 236 236 236 237 236 236 236 235 233 230 230 230 230 230 227 226 225 225 225 223 218 203 200 200 199 199 197 197 197 199 199 199 200 204 207 207 208 208 207 206 203 200 200 200 203 205 213 219 220 220 220 213 208 201 191 183 185 183 186 173 112 74 47 39 39 39 39 41 42 42 43 42 42 41 42 46 47 48 48 43 40 41 48 51 48 47 50 53 55 58 59 63 64 65 65 65 65 65 64 60 58 60 59 59 59 59 59 60 61 59 58 58 60 64 65 70 71 71 73 74 74 74 73 71 70 70 70 70 68 67 65 66 67 70 71 73 73 73 74 75 75 77 75 75 77 79 79 81 80 80 80 80 80 82 85 85 86 88 88 88 83 82 79 80 80 83 85 86 86 88 91 95 93 93 93 94 93 97 98 101 105 105 109 109 109 105 105 106 102 93 93 95 95 95 95 97 97 100 100 100 98 100 100 100 100 98 98 98 98 97 98 98 98 100 100 100 100 100 98 98 100 98 98 100 100 100 102 102 102 100 102 104 104 102 104 104 105 105 107 107 109 109 109 111 111 111 115 114 114 114 114 114 112 111 109 107 105 105 107 105 104 104 104 107 109 109 107 109 107 105 105 105 107 111 111 116 116 116 120 118 118 120 120 123 125
230 229 228 229 229 230 230 232 233 234 234 233 235 235 236 237 237 238 238 238 238 238 238 238 240 241 241 241 241 242 242 241 241 241 241 240 237 238 237 236 235 233 233 232 232 232 232 231 228 228 227 223 222 222 219 218 214 212 212 211 210 208 211 214 217 218 222 224 225 227 225 225 224 224 226 225 223 223 223 224 225 225 225 225 225 225 225 225 225 225 225 225 226 227 225 226 225 225 225 224 223 223 223 222 222 220 220 221 219 218 219 219 219 219 219 219 220 220 220 220 220 222 222 222 222 222 222 222 221 220 220 220 220 220 220 220 220 219 219 217 217 216 216 216 214 212 213 213 213 213 211 212 210 210 208 208 208 207 206 207 208 208 208 208 208 208 208 207 208 210 212 214 217 219 220 221 222 223 225 227 226 229 231 232 234 236 237 238 239 240 240 240 240 240 238 237 237 236 235 236 236 236 234 232 230 230 229 229 231 229 227 226 226 227 223 217 206 199 200 199 197 196 196 196 197 199 199 199 200 200 200 200 200 199 199 197 196 197 199 202 206 213 219 221 219 218 211 207 202 191 180 180 181 185 139 74 48 38 42 42 41 39 40 42 43 43 44 45 46 47 51 54 55 54 52 47 50 55 54 52 51 50 51 55 56 58 59 60 61 61 63 63 63 62 60 60 61 59 59 60 59 60 60 60 60 60 58 64 64 65 70 70 70 71 71 73 74 73 70 70 70 70 68 67 65 65 68 71 73 75 74 74 74 74 74 75 75 75 77 79 80 80 80 80 79 79 79 79 80 83 85 86 88 90 86 83 80 80 80 80 82 83 85 85 85 89 95 95 91 91 91 97 98 100 100 106 107 109 110 109 104 102 104 98 95 95 98 98 98 98 97 100 100 98 98 100 100 100 100 98 97 98 98 97 95 95 98 98 98 100 100 100 100 100 95 95 95 98 98 98 98 102 100 100 100 100 100 100 100 102 104 105 105 105 105 109 112 114 112 112 112 112 112 112 112 114 111 111 111 111 107 102 102 102 104 104 105 108 107 107 109 109 110 107 105 104 105 104 109 118 120 117 116 118 120 120 120 118 123 127
231 230 229 229 229 229 229 231 232 234 234 234 234 236 236 236 237 238 238 238 239 239 239 239 240 241 241 241 241 242 242 242 241 241 241 240 238 238 239 239 236 235 234 234 234 232 232 231 227 224 222 220 222 223 221 218 214 213 213 212 211 212 212 214 216 217 220 221 223 225 225 225 223 223 224 224 224 224 224 224 224 224 224 225 225 224 224 224 224 224 225 225 225 225 225 225 224 224 224 224 224 223 223 222 221 221 220 220 219 219 219 219 219 218 218 218 221 221 221 221 221 221 221 222 222 222 222 222 221 221 221 221 221 221 220 220 221 220 220 219 218 217 217 217 217 216 216 214 214 214 213 213 211 211 210 210 210 210 208 210 210 208 208 210 210 210 210 211 212 212 214 215 216 220 221 221 222 224 226 228 230 229 231 232 234 235 237 238 240 240 241 241 241 240 239 238 236 236 236 236 235 236 234 229 228 228 227 227 232 232 228 227 224 222 218 214 208 201 199 196 196 197 196 196 195 197 197 197 197 197 197 197 196 195 194 193 194 196 196 199 203 208 213 217 216 211 208 207 200 183 171 180 180 181 102 53 42 41 42 43 42 40 40 43 45 46 46 45 47 52 53 54 54 58 60 58 56 58 58 56 55 52 56 59 58 58 58 58 58 61 61 60 60 63 61 60 60 59 59 60 61 60 61 63 63 63 63 65 68 68 71 70 70 73 73 74 74 73 70 70 70 70 68 68 65 65 70 69 74 75 74 74 74 74 74 75 76 75 77 78 79 80 80 80 77 77 77 77 80 84 83 86 88 86 85 85 83 82 80 80 82 83 83 83 84 88 94 93 91 93 93 95 97 100 101 102 104 107 106 107 105 107 102 100 98 98 98 98 98 97 98 98 98 98 98 100 100 100 98 97 97 97 97 97 97 97 98 98 98 98 98 100 102 98 97 98 97 98 98 98 97 98 100 99 100 100 100 100 100 102 104 106 105 107 107 109 111 112 112 112 112 112 114 114 112 109 104 107 109 107 104 104 104 104 104 107 110 114 112 112 112 114 111 109 105 104 105 105 111 116 118 116 115 114 125 127 125 125 127 127
230 230 230 229 229 229 228 229 232 234 234 234 235 236 236 236 237 238 238 239 240 240 240 240 240 241 241 241 241 242 242 241 241 241 241 241 240 239 238 238 238 236 235 234 234 233 232 231 227 222 219 218 222 224 222 219 216 216 216 213 212 213 214 214 213 217 219 220 222 224 223 223 222 222 223 223 223 224 223 223 223 223 223 225 225 223 223 223 223 223 224 225 224 224 223 223 223 223 223 223 223 222 222 221 220 220 220 219 219 219 219 219 217 217 217 218 221 221 220 220 220 220 221 222 222 222 222 222 221 220 220 220 220 220 219 219 220 220 220 221 220 218 217 217 216 218 217 216 216 216 214 213 212 211 210 210 210 210 210 212 212 210 211 212 212 212 213 214 213 213 216 216 218 220 220 221 222 224 227 229 229 230 230 232 234 235 238 240 240 240 241 241 240 239 238 238 236 234 236 236 236 236 232 227 225 225 225 227 232 231 227 224 220 218 216 211 208 204 201 196 197 196 196 196 196 196 196 196 196 196 196 194 194 193 191 191 191 193 193 194 197 201 206 208 207 206 207 200 193 171 168 176 181 148 68 41 40 42 42 42 43 42 41 43 48 48 46 47 54 56 55 56 58 60 61 59 56 56 58 58 56 58 60 61 58 58 58 56 59 65 65 61 63 65 63 61 61 60 63 67 71 68 68 67 67 67 67 67 70 70 70 71 71 74 75 75 75 73 70 70 70 71 70 70 70 71 74 74 73 75 75 75 75 75 75 75 75 75 79 79 79 80 80 80 79 79 74 77 82 83 83 86 88 85 85 83 83 84 82 80 83 83 83 83 86 90 86 88 90 91 93 91 97 99 100 100 100 102 104 104 107 109 105 104 100 100 100 100 98 98 97 98 98 98 98 98 98 99 97 95 95 94 94 95 98 98 98 98 98 98 98 100 100 98 98 98 97 98 97 98 97 97 100 99 100 100 100 100 100 102 104 105 105 105 104 109 109 111 111 111 111 111 111 111 109 105 102 105 109 105 105 102 104 109 109 111 112 116 116 116 114 112 111 111 109 105 105 107 112 115 116 116 116 120 127 130 131 132 129 125
230 230 230 229 229 229 229 229 229 233 234 234 235 236 236 237 237 238 238 239 240 240 240 240 240 241 241 241 241 241 241 241 241 241 241 241 240 240 239 239 238 236 236 235 234 232 232 229 226 223 221 220 221 223 221 221 221 219 217 214 213 212 213 214 214 216 218 219 221 222 223 221 221 222 222 222 222 222 222 223 224 224 224 224 224 224 223 222 223 224 224 224 224 223 222 222 222 222 222 222 222 222 222 221 221 221 220 219 219 219 219 219 218 218 218 219 219 220 220 221 221 220 220 222 224 224 222 222 221 221 221 221 221 220 220 219 219 219 219 219 219 218 218 218 218 218 217 217 216 216 216 214 212 212 211 211 211 211 211 213 213 213 213 212 212 214 214 214 214 214 216 216 218 219 221 223 223 225 227 229 229 230 231 232 235 237 239 240 240 241 241 240 238 238 237 238 235 234 234 235 235 233 229 225 223 224 223 225 228 226 222 220 219 218 216 211 208 206 203 199 197 196 196 196 196 196 196 196 196 195 194 193 193 191 190 189 189 189 189 191 193 194 196 197 199 197 185 180 175 166 169 173 175 140 91 56 43 43 43 41 41 41 42 46 50 51 53 56 60 61 61 61 60 60 60 60 58 56 55 56 58 59 60 59 58 58 57 60 64 68 70 68 64 63 63 62 63 63 67 68 70 73 74 74 71 71 71 71 71 71 71 73 73 74 75 73 73 71 70 70 70 70 71 71 73 75 77 77 74 77 79 79 79 79 79 77 75 75 77 79 79 79 79 79 79 79 79 80 85 86 83 85 86 86 83 80 80 83 80 80 82 82 83 83 86 86 83 83 85 85 86 90 97 98 98 100 100 102 104 105 104 104 102 102 102 100 100 100 100 97 97 97 97 97 97 93 93 93 93 93 95 95 95 95 98 98 98 98 98 98 98 97 97 98 98 98 98 98 98 98 98 101 100 100 100 100 100 100 100 102 104 104 104 104 104 109 109 109 109 111 111 111 107 107 109 107 105 107 109 105 105 107 107 111 114 114 116 120 120 116 114 112 109 109 111 107 105 104 109 114 116 120 120 123 129 131 131 131 129 126
230 230 230 229 229 229 229 229 229 232 233 234 234 236 236 236 238 238 238 239 240 240 240 240 240 241 241 241 241 241 241 241 241 241 241 241 240 240 240 240 238 236 236 235 234 231 232 229 227 226 223 223 223 225 226 226 224 221 218 217 213 212 212 213 215 213 218 219 220 221 220 220 220 221 222 222 222 222 222 223 224 224 224 224 224 224 223 222 223 224 224 224 224 223 222 222 222 222 222 222 222 222 222 221 221 221 220 219 219 219 219 219 218 219 219 219 219 220 221 221 221 221 221 223 225 224 222 222 221 221 221 221 221 220 220 219 219 219 219 219 219 219 219 219 219 218 218 218 217 216 216 216 213 212 212 213 212 212 212 213 214 213 214 213 214 214 215 214 216 216 216 216 218 221 222 222 224 225 227 228 229 229 231 233 236 238 239 239 240 240 240 240 238 239 238 238 235 233 234 232 231 228 225 223 224 224 224 223 221 222 220 218 220 219 216 210 208 206 203 199 196 196 196 196 196 196 196 196 196 196 194 193 191 191 191 189 189 189 189 188 188 186 186 185 183 176 168 153 157 166 168 173 169 149 120 58 43 42 45 43 42 43 51 54 53 53 59 63 63 65 71 67 64 63 61 63 60 56 54 56 58 58 59 59 58 56 58 60 65 70 73 71 67 64 63 63 63 64 67 67 67 70 73 73 71 71 71 71 71 71 71 73 74 73 73 68 69 68 70 70 70 69 70 71 71 74 75 75 75 77 79 80 79 80 80 77 74 75 75 79 79 79 80 79 80 80 80 82 85 83 82 82 85 85 82 79 80 80 80 80 80 80 80 79 79 80 79 79 79 80 86 88 91 97 98 100 100 104 104 105 107 102 97 97 98 95 93 91 93 88 91 91 91 91 91 91 93 93 94 91 93 95 95 95 98 98 98 98 98 98 98 93 91 98 98 98 98 98 97 97 100 100 97 97 97 97 97 98 100 103 104 105 107 107 105 104 105 104 105 108 111 110 109 109 109 107 104 107 109 107 111 112 111 113 117 119 122 122 121 112 112 114 109 108 109 107 105 105 109 114 118 122 122 123 127 131 131 131 127 127
230 230 230 229 229 229 229 229 229 230 232 234 235 236 237 237 238 238 238 239 240 240 240 240 240 240 241 241 241 242 242 242 241 240 241 240 240 240 240 238 238 236 236 234 234 233 232 228 227 227 226 225 226 227 227 227 225 222 221 218 216 213 212 214 216 217 218 219 219 219 219 219 220 221 221 222 222 222 221 222 223 222 222 222 222 222 222 222 223 224 224 224 223 222 222 222 222 222 222 222 222 222 222 222 222 221 221 220 220 219 219 219 219 219 220 220 220 221 223 222 222 222 222 224 225 224 223 222 222 222 221 221 221 221 220 220 219 219 219 219 219 219 219 219 219 219 218 217 217 216 216 216 212 212 212 211 212 214 214 216 216 216 216 216 216 216 216 216 216 216 216 218 220 223 222 223 224 225 227 229 229 230 232 233 234 236 238 238 238 238 238 238 238 238 237 236 235 234 232 232 228 225 223 224 223 222 220 219 219 219 218 218 218 218 216 212 208 206 203 199 195 196 196 196 194 194 194 194 194 194 192 191 191 190 189 189 189 189 189 186 186 186 185 181 178 168 161 159 164 168 169 173 160 131 89 55 51 48 48 46 44 47 56 60 61 61 64 65 65 67 67 67 65 63 61 61 61 60 59 59 58 59 59 58 58 55 56 61 61 67 74 74 73 69 65 63 63 63 65 67 65 67 71 73 71 71 70 69 70 70 70 71 74 73 71 70 68 70 70 71 72 71 73 73 74 77 75 75 78 79 79 79 81 81 80 79 75 75 75 75 77 79 79 80 83 83 80 82 88 85 83 82 82 83 82 80 80 80 80 79 77 75 75 75 75 75 79 77 77 80 83 85 85 88 93 97 101 100 100 100 102 98 91 91 90 88 88 88 88 86 85 85 85 88 87 90 90 88 90 90 91 93 95 95 98 98 98 98 98 95 92 90 90 95 95 95 95 95 97 98 97 95 95 95 96 95 95 98 100 102 107 109 109 109 105 102 104 106 105 105 107 107 108 109 109 109 107 109 109 109 112 116 116 118 120 122 120 120 118 113 111 111 109 107 107 107 105 107 111 115 116 120 120 123 127 127 129 131 131 129
230 230 230 229 229 229 229 229 230 230 232 233 235 235 237 237 238 238 238 239 240 240 240 240 240 240 241 241 242 242 242 242 242 241 241 240 241 240 240 238 238 236 235 234 234 233 231 227 227 226 226 226 226 227 226 225 224 222 221 220 218 216 214 216 217 218 218 218 218 218 218 218 220 220 220 220 221 221 221 221 221 221 221 221 221 221 221 221 222 223 223 223 222 221 221 221 220 221 221 221 221 221 221 222 221 220 220 220 220 219 219 219 219 219 220 220 220 221 222 222 222 221 222 224 224 223 223 222 222 222 221 220 220 220 220 220 219 219 218 218 218 218 218 218 218 219 218 217 216 216 216 214 214 214 214 214 214 216 216 216 216 216 216 216 216 214 216 216 216 217 219 221 222 224 225 226 226 227 229 229 229 232 232 232 233 235 237 238 238 238 237 238 239 238 235 234 234 232 230 229 227 227 225 225 223 222 220 219 218 218 217 217 217 217 214 212 208 205 203 199 196 196 196 196 194 194 194 194 194 193 191 191 191 189 189 189 190 189 188 186 186 186 186 181 178 166 164 166 171 171 167 168 151 129 110 98 77 65 58 55 53 54 56 60 64 66 67 67 67 67 68 67 66 65 64 63 61 64 61 60 59 58 58 59 58 55 56 61 60 68 74 74 74 74 70 67 67 65 68 68 67 68 70 70 71 71 70 70 70 70 69 71 74 73 73 74 74 74 74 73 74 71 74 74 74 77 75 77 79 79 79 79 80 80 80 80 77 75 77 78 77 79 79 82 86 87 85 85 88 88 88 86 85 86 82 82 80 81 80 79 77 75 75 76 75 75 77 77 77 81 82 85 85 88 91 94 97 97 95 90 90 90 90 88 86 86 86 86 86 85 85 85 85 86 86 88 88 86 88 89 91 93 95 96 98 99 98 98 98 95 93 91 90 90 91 91 93 95 95 95 91 91 95 97 97 97 100 102 106 107 111 109 109 109 105 104 104 105 105 105 104 104 107 107 106 107 107 107 107 107 112 120 120 118 120 121 120 118 118 114 111 109 109 109 111 109 109 109 111 116 116 118 118 123 125 125 127 129 129 129
232 231 230 229 229 229 229 230 230 229 229 232 236 236 236 237 238 238 238 239 240 240 240 240 240 240 241 241 242 242 242 242 242 241 241 240 240 240 239 238 238 236 235 234 234 233 229 228 227 227 226 226 225 225 224 223 222 223 222 219 218 217 217 217 218 218 218 219 219 219 219 219 220 220 220 220 220 221 222 222 222 222 222 222 222 221 221 222 222 223 222 222 222 221 220 220 220 221 222 222 222 222 222 222 223 222 221 220 220 221 220 220 220 220 221 222 221 222 222 222 222 221 222 223 223 223 223 223 222 221 220 220 220 220 220 220 220 219 218 218 218 218 218 219 219 219 218 217 217 217 216 214 214 216 218 217 216 217 217 217 217 217 217 217 217 216 217 218 218 218 220 220 224 227 227 227 227 228 229 229 230 230 231 231 233 234 236 236 236 236 238 238 239 237 233 232 231 230 228 228 227 228 227 227 226 223 221 218 217 217 217 217 216 216 213 212 208 204 201 199 197 196 196 194 194 194 194 194 194 193 191 191 191 189 186 188 189 185 186 186 185 186 185 181 180 178 180 176 173 173 166 164 153 136 140 131 95 74 67 68 63 61 59 60 63 63 64 65 67 67 70 70 68 67 63 61 61 64 65 65 61 59 56 55 57 55 56 59 60 67 74 72 73 73 71 70 71 67 68 68 67 67 67 67 65 64 65 67 70 70 70 71 72 74 75 77 77 77 75 74 73 71 73 74 75 74 73 75 77 78 79 79 79 79 79 79 79 75 77 79 79 79 82 82 83 86 83 85 86 86 90 90 86 83 83 82 78 79 79 77 74 74 77 79 79 79 77 79 79 80 80 82 85 90 91 93 93 95 91 88 86 86 86 85 85 85 85 85 86 86 86 86 86 86 86 86 88 88 88 91 95 95 98 98 98 98 97 97 97 95 93 91 90 91 91 90 91 93 93 93 93 98 98 98 98 99 100 105 107 107 107 107 107 107 105 104 102 101 102 104 103 104 105 105 107 107 107 107 109 112 116 120 120 118 118 118 118 118 116 112 109 109 111 114 114 112 112 112 112 114 116 117 120 125 125 128 127 128 127 127
232 231 230 229 229 229 229 230 230 228 227 230 234 234 234 236 237 238 238 239 240 240 240 240 240 240 240 241 241 242 242 242 241 241 241 240 240 239 238 238 238 236 236 234 234 232 229 228 228 228 227 227 226 225 224 223 222 222 222 219 217 217 216 218 219 217 218 219 219 219 219 219 220 221 221 221 221 221 222 222 222 222 222 222 222 222 222 222 223 223 223 222 222 222 221 221 221 221 222 222 222 222 222 222 222 222 222 221 221 221 221 221 221 221 222 222 222 222 222 222 222 222 222 224 224 224 224 224 223 222 221 221 221 221 221 221 221 220 219 219 219 219 219 219 219 219 218 218 218 218 216 217 216 217 219 218 218 219 218 218 218 218 218 218 219 219 221 221 221 221 221 222 225 227 226 227 229 228 228 228 228 230 230 231 231 232 235 234 236 236 238 238 236 233 231 229 229 228 227 227 228 227 227 226 226 224 221 219 219 219 218 217 216 216 214 212 207 204 201 199 198 196 194 194 194 194 194 194 194 194 191 191 191 188 186 188 189 188 186 186 186 186 185 181 185 186 194 193 177 171 162 160 146 125 121 116 104 86 88 85 73 67 65 67 65 65 65 65 67 67 70 70 71 68 63 61 61 64 67 68 64 63 56 53 54 54 55 58 59 63 68 70 71 73 71 70 70 67 68 68 64 64 63 64 61 61 63 65 68 68 71 71 71 73 71 74 74 75 75 74 73 71 73 74 74 74 73 74 75 75 79 79 79 79 79 79 79 75 77 79 79 77 77 77 79 80 80 83 85 88 93 91 86 83 83 82 80 79 79 77 74 74 77 80 82 82 79 79 80 79 79 80 83 88 90 91 91 92 88 86 85 83 85 85 85 85 85 85 86 88 88 88 88 88 88 88 88 90 90 93 95 95 97 98 97 97 95 95 95 93 91 90 90 88 88 90 90 91 93 93 97 100 98 98 98 98 100 104 105 104 105 105 105 104 104 102 102 100 102 104 104 103 105 104 109 109 107 111 114 114 116 123 122 120 120 120 120 118 116 112 107 107 107 111 114 114 114 114 116 116 116 120 119 122 123 127 127 128 127 127
232 231 230 229 229 229 229 230 230 230 230 230 232 234 234 236 238 237 237 238 240 240 240 240 240 240 240 241 241 242 242 242 241 241 240 241 240 239 238 238 238 237 236 234 234 233 231 231 231 229 231 228 227 227 225 223 222 222 222 221 221 219 218 218 219 219 219 219 219 219 219 219 220 221 221 221 220 221 222 222 222 222 222 222 222 223 223 222 222 222 222 222 222 222 221 221 221 221 222 222 222 222 222 221 222 222 223 224 223 222 222 222 222 222 222 222 222 222 222 222 222 222 222 223 224 224 224 224 223 222 221 221 221 221 221 221 221 221 221 221 221 221 220 219 219 219 218 217 218 218 216 216 217 218 218 218 219 219 219 219 220 218 219 220 221 222 222 222 223 224 224 225 227 227 228 228 229 228 228 227 227 229 229 230 231 232 234 234 234 236 238 236 234 231 230 229 229 227 227 228 227 225 225 225 225 225 224 219 217 218 218 217 216 216 212 210 206 204 201 199 197 194 193 194 194 194 194 194 194 193 191 192 191 191 192 189 188 189 189 189 188 186 185 186 196 203 206 203 188 176 183 178 129 112 116 127 138 112 105 89 78 71 66 67 67 67 64 63 64 66 70 70 71 71 70 68 64 65 67 68 65 61 55 52 50 53 54 56 61 64 67 70 70 71 72 70 70 70 70 65 63 62 63 65 63 64 64 65 67 68 74 73 71 71 70 73 74 75 75 75 74 74 74 74 74 74 74 74 75 75 77 79 79 79 80 79 79 79 79 79 77 73 73 74 77 79 77 79 84 90 93 91 90 86 85 81 79 80 82 83 80 79 82 84 83 82 80 76 79 79 77 80 82 86 88 90 91 91 86 85 85 85 85 85 85 85 85 85 85 86 88 89 88 88 88 88 88 90 91 94 91 93 93 97 95 95 93 93 93 91 90 88 88 88 86 86 86 88 91 95 100 100 98 98 100 100 104 105 105 105 102 105 104 104 102 100 102 105 104 104 104 104 102 104 107 111 109 112 116 116 116 116 118 120 120 120 120 116 111 111 109 107 109 112 114 114 112 114 116 118 120 118 120 122 123 127 127 127 127 127
234 232 230 230 229 229 229 230 229 230 230 230 232 233 234 235 236 237 238 238 240 240 240 240 240 240 240 241 241 242 242 242 241 241 240 241 240 239 238 238 238 237 236 235 235 234 233 233 232 231 230 228 226 227 224 223 222 223 223 221 220 219 220 220 219 220 220 220 219 219 219 220 220 221 221 221 221 221 222 222 222 222 222 222 222 223 222 222 222 222 222 222 222 222 221 220 221 221 221 220 221 222 222 222 222 223 223 223 223 223 222 222 222 222 222 222 222 222 222 222 222 222 222 223 223 224 224 224 222 222 221 221 221 220 221 221 221 221 221 221 221 220 220 219 219 219 219 218 218 218 217 217 218 218 218 218 219 219 219 220 220 221 221 222 222 222 223 223 224 225 226 227 227 227 227 227 228 227 227 227 227 228 228 229 231 232 234 234 234 236 236 233 232 230 230 228 228 227 227 227 227 224 223 224 224 224 223 219 218 218 219 217 214 213 210 210 206 204 201 199 197 194 193 194 194 194 194 194 194 194 194 193 193 194 193 190 191 191 189 189 189 188 188 196 203 207 208 206 194 188 197 194 135 134 155 168 173 153 116 86 77 68 65 65 65 65 61 63 64 67 70 71 71 73 74 74 71 71 70 67 64 61 55 52 50 52 55 57 60 63 67 67 67 67 68 67 67 67 68 64 64 63 64 65 67 67 67 67 67 71 74 74 73 70 71 73 73 75 75 74 74 75 75 74 74 74 74 75 77 77 79 79 79 79 79 79 79 77 79 78 77 74 73 72 75 79 80 80 84 86 88 88 90 86 85 82 80 80 82 83 85 83 81 82 83 82 79 77 79 79 79 77 79 84 88 90 90 86 84 84 85 85 84 85 86 85 85 85 85 85 86 86 86 86 86 86 86 88 90 93 93 91 93 96 97 95 95 93 90 90 86 85 85 86 88 90 91 95 95 97 100 100 100 100 102 102 104 105 105 104 104 104 105 104 103 102 102 104 102 102 104 104 105 105 109 112 115 114 116 116 116 114 114 116 116 120 118 114 110 111 109 109 109 114 114 112 114 116 116 118 120 120 120 120 123 127 127 126 127 126
234 233 232 231 230 230 230 230 230 230 229 230 230 232 233 234 234 237 238 238 240 240 240 240 240 240 240 240 241 241 241 241 241 241 240 240 240 239 238 238 238 237 236 236 236 234 234 234 233 231 231 230 229 227 226 223 223 226 227 224 222 222 222 222 222 220 220 221 220 219 220 221 219 220 220 221 221 222 222 222 222 222 222 222 222 221 221 222 222 222 222 222 222 221 221 220 220 220 220 220 221 222 222 221 222 223 224 224 224 223 222 222 222 222 222 222 222 222 222 222 222 222 222 222 222 223 223 223 222 222 221 220 220 219 220 220 220 220 220 220 220 219 219 219 219 219 218 217 217 217 217 219 219 219 219 219 219 219 219 220 221 221 221 222 222 222 223 224 225 225 227 227 226 227 227 227 227 227 227 227 227 228 227 227 230 232 233 234 234 234 234 232 231 230 229 228 227 227 227 227 224 223 221 220 221 222 222 220 219 219 218 217 214 211 211 211 206 204 201 199 196 194 194 194 193 194 194 193 193 193 193 193 193 194 196 196 195 194 189 188 189 191 191 199 202 204 208 211 204 200 205 204 151 166 185 188 189 168 112 86 74 68 63 64 64 61 59 61 64 65 68 71 71 74 74 75 74 72 70 64 60 58 53 52 51 52 55 55 60 59 61 61 60 60 60 60 60 63 67 65 64 62 64 65 67 67 67 67 68 71 74 74 74 73 74 74 74 74 73 71 74 74 73 74 74 73 75 78 79 79 79 79 79 79 79 78 77 74 74 75 74 74 73 74 74 77 80 80 80 82 83 85 85 85 85 80 80 80 80 80 85 82 80 80 82 82 80 80 77 77 77 79 80 80 83 85 85 85 85 85 85 85 85 85 85 85 85 85 85 85 85 85 85 85 85 85 85 86 88 90 91 90 91 93 93 91 93 90 86 87 83 83 85 88 90 93 98 101 100 99 100 100 100 100 100 100 104 104 104 102 102 104 104 104 104 104 104 104 102 100 104 105 107 109 112 114 116 116 116 116 116 114 115 115 117 117 114 112 111 111 111 111 112 116 114 111 112 116 116 118 120 122 120 120 125 127 127 127 129 125
234 234 232 231 230 230 230 230 230 230 230 231 231 232 233 234 234 237 237 238 239 239 240 240 240 240 240 240 241 241 241 241 240 240 240 239 239 239 238 238 238 237 235 236 236 235 235 234 233 233 232 231 231 229 227 227 226 227 227 227 227 227 225 224 223 223 222 221 220 220 221 220 221 221 221 221 222 222 222 222 222 223 223 222 222 222 222 222 222 222 222 222 222 222 222 221 220 221 221 221 221 222 222 223 223 224 225 227 225 224 223 223 222 222 222 222 222 222 222 222 222 222 222 222 222 224 224 224 223 223 222 221 222 221 221 221 221 221 221 220 220 219 219 219 219 219 218 218 218 218 218 219 220 220 220 220 220 219 220 220 221 221 222 222 222 223 224 225 225 225 226 226 226 226 227 227 227 227 227 227 227 227 227 227 228 229 230 232 232 232 231 231 229 229 228 227 227 227 226 223 222 220 218 218 219 219 220 219 219 219 218 217 215 212 211 210 206 203 201 199 197 196 194 194 194 194 194 196 197 197 197 197 199 199 199 199 199 194 193 191 193 193 196 199 202 206 211 218 217 216 216 213 189 185 194 186 186 153 102 91 85 88 85 75 67 63 59 59 61 65 68 68 70 71 73 73 73 71 67 63 60 58 54 53 51 53 55 55 59 58 55 58 59 59 59 60 60 60 63 66 63 61 61 64 64 64 67 67 70 73 73 73 74 75 75 75 75 74 74 73 73 74 74 75 75 75 75 75 75 79 79 79 80 80 80 80 79 75 74 74 73 73 71 74 77 79 79 79 79 79 80 82 82 83 83 82 82 79 79 79 80 79 79 79 80 79 79 79 79 79 79 80 80 80 82 83 83 85 85 86 86 86 85 85 85 84 83 83 82 83 83 85 85 85 85 85 86 88 88 86 90 89 94 93 90 89 90 90 91 90 86 88 88 93 97 98 98 100 100 100 100 100 100 100 102 104 104 105 102 104 105 104 104 104 104 104 104 104 102 102 105 105 107 109 114 114 114 115 114 116 116 114 114 114 114 111 112 112 112 112 112 112 111 112 112 110 111 114 116 118 120 122 122 122 125 127 127 127 127 125
234 233 232 231 230 230 230 230 230 230 231 232 232 232 232 232 234 235 236 238 238 239 240 240 240 240 240 240 240 240 240 240 240 240 240 240 238 238 238 238 238 237 236 237 237 237 236 235 235 235 235 235 235 232 231 231 231 231 231 232 231 230 227 226 224 223 223 220 220 220 220 220 220 220 220 221 221 222 222 222 222 223 223 222 222 222 223 222 222 222 222 222 222 222 222 221 220 220 220 220 220 221 222 223 224 225 225 226 225 225 224 223 222 222 222 222 222 222 222 222 222 222 222 222 222 223 223 223 223 223 222 222 222 221 220 220 220 220 220 219 219 219 219 219 219 219 218 216 217 217 219 220 221 221 221 221 221 221 221 221 221 222 222 222 224 224 226 225 225 225 225 225 225 226 227 227 227 227 227 227 227 227 227 227 228 229 229 229 230 230 230 230 229 229 227 226 226 224 223 222 222 219 217 217 218 218 219 219 219 219 217 217 214 212 211 210 206 204 201 199 198 199 197 196 196 196 197 199 199 199 199 199 200 199 199 200 199 197 196 196 196 197 201 203 204 211 217 222 223 223 219 216 204 191 186 186 183 156 133 122 125 133 135 118 98 68 58 59 60 66 67 67 68 70 71 70 71 71 67 63 63 60 58 55 54 54 55 56 59 58 54 56 59 60 60 60 60 60 61 64 63 60 60 63 64 65 67 67 72 72 71 73 74 75 75 76 75 74 74 74 74 75 75 75 75 75 75 75 75 79 79 79 82 82 80 80 80 77 74 74 73 71 75 77 80 80 79 79 79 77 77 77 75 75 77 82 81 77 77 77 77 77 77 77 79 75 77 77 77 77 77 79 80 82 82 82 83 85 85 85 86 86 85 85 85 85 85 84 82 82 83 83 85 85 85 85 85 85 85 86 88 90 91 91 90 90 90 90 93 90 90 91 93 95 100 102 98 100 100 100 100 100 100 100 104 104 102 104 105 105 105 104 104 104 104 102 104 104 104 107 109 109 111 111 112 112 112 112 112 112 112 112 112 112 112 111 111 111 112 112 116 115 111 111 111 111 114 116 116 118 118 123 125 127 127 127 127 127 125 123
232 232 231 230 230 230 229 229 229 230 230 230 231 232 232 231 232 234 235 238 238 238 239 240 240 240 240 240 240 240 240 240 240 240 240 240 238 238 238 238 238 238 237 238 238 238 237 236 236 236 236 236 236 235 235 235 234 234 234 234 233 232 230 228 226 224 222 221 220 221 221 220 220 220 221 222 222 222 222 222 223 223 223 223 223 222 222 223 223 223 222 222 222 221 222 221 220 220 220 220 221 223 223 223 224 225 225 226 225 225 224 223 223 223 223 222 222 222 222 222 222 222 222 223 223 223 223 223 223 224 222 222 222 221 220 220 221 220 219 219 219 219 219 219 219 219 218 217 219 218 219 219 221 221 222 221 221 222 222 222 222 222 223 224 224 224 225 225 225 225 225 225 225 226 227 227 227 227 227 227 227 227 227 227 227 228 228 227 228 227 227 227 227 228 227 224 223 221 221 222 220 219 218 218 219 219 219 219 220 219 218 218 214 211 208 208 207 204 203 199 199 200 200 200 200 201 199 199 200 200 200 200 200 200 200 200 199 200 200 199 199 201 206 210 211 217 221 225 227 227 224 218 213 201 183 189 194 185 176 168 144 135 140 138 136 95 58 60 64 65 67 68 71 70 70 70 70 68 67 65 64 60 59 56 55 54 55 55 55 55 54 58 59 60 62 61 61 60 59 59 59 60 63 65 65 67 68 71 74 74 71 73 74 75 75 75 75 74 74 75 75 75 75 75 75 75 75 75 74 75 75 77 79 79 80 79 79 77 75 73 74 73 77 79 77 77 74 77 77 77 77 73 71 70 73 79 80 79 79 79 79 79 77 75 77 74 77 76 74 75 77 77 79 79 82 85 85 85 85 85 86 88 88 85 85 85 86 86 85 82 83 84 83 85 85 85 86 88 86 85 88 89 90 90 90 90 90 90 90 90 90 91 93 95 97 98 98 98 100 100 100 100 98 100 104 104 105 107 109 109 107 104 104 104 108 106 105 107 109 111 112 111 112 112 112 112 112 111 114 111 111 111 111 112 113 112 112 112 112 114 114 114 114 111 109 111 116 118 118 118 122 129 129 127 127 125 125 125 125 123
232 232 231 230 230 230 229 229 229 230 231 230 231 232 232 231 231 234 235 236 237 238 238 240 240 240 240 240 240 239 240 239 240 240 240 239 238 238 238 238 239 238 238 238 238 238 237 237 236 236 236 236 236 236 236 236 235 235 234 234 234 232 231 228 227 226 224 223 221 221 221 221 222 221 222 222 222 222 222 223 224 224 224 225 223 222 222 224 224 224 223 223 222 222 222 222 221 221 222 221 222 224 224 224 224 225 226 227 226 225 224 224 224 224 223 223 222 222 222 222 222 222 222 224 224 224 224 224 224 224 222 222 222 222 221 221 221 220 219 219 219 219 219 219 219 219 218 218 218 218 218 219 221 221 221 221 221 221 222 222 222 222 222 224 224 224 224 225 225 225 225 225 225 226 227 227 227 227 227 227 227 227 227 227 227 227 227 227 227 227 226 224 225 226 224 222 222 221 221 221 219 219 219 219 219 219 219 219 219 219 218 217 214 211 208 207 207 204 204 201 201 200 200 200 200 200 199 199 200 200 200 200 200 200 200 200 200 200 200 204 204 208 211 213 216 218 225 226 227 227 226 221 222 216 197 197 200 193 189 191 178 159 140 142 137 123 70 60 63 67 67 68 70 70 70 70 70 67 67 65 64 64 64 64 61 60 56 55 55 55 58 61 63 61 62 60 60 59 59 57 58 60 64 65 67 66 68 71 72 74 74 74 74 75 75 75 74 74 75 75 75 75 75 75 75 75 75 75 73 73 73 73 74 72 71 74 74 75 74 73 74 74 77 79 75 74 73 75 75 74 74 73 71 70 73 75 79 79 79 77 79 79 75 75 77 74 74 74 73 75 79 79 78 79 82 85 85 85 85 85 86 88 88 86 85 85 82 85 85 83 83 83 84 85 85 85 86 88 87 88 86 86 90 90 90 90 90 90 90 90 90 91 93 96 95 98 98 98 98 100 104 104 105 105 107 107 105 107 109 109 109 104 103 104 107 109 109 112 112 112 112 114 114 114 113 114 114 114 114 111 111 111 111 114 112 112 114 114 114 114 112 114 114 111 109 111 116 118 120 122 127 131 129 127 125 125 125 125 125 125
234 232 232 230 230 229 229 229 229 229 229 230 231 232 232 232 232 233 235 236 236 237 239 240 240 240 240 240 239 238 238 238 238 238 238 238 238 238 238 237 238 238 238 237 238 239 238 238 238 237 236 237 236 236 236 236 236 235 234 234 234 232 231 228 227 227 226 224 223 222 221 221 220 221 222 222 223 222 222 223 224 224 224 224 224 223 223 223 224 224 223 223 223 224 222 222 222 222 222 222 221 223 225 225 225 225 226 227 226 225 224 224 224 224 224 224 223 223 223 223 223 223 223 224 224 224 225 224 224 224 222 222 221 221 221 222 221 220 219 219 219 219 219 219 219 219 219 219 219 219 218 219 221 221 221 221 221 221 222 222 222 222 222 224 225 225 225 225 225 225 225 226 226 227 227 227 227 227 227 227 227 227 227 227 227 227 227 227 227 227 225 224 226 225 224 223 222 221 221 221 220 219 219 219 219 219 220 220 219 219 217 214 213 211 209 207 206 206 204 204 204 201 201 203 201 200 200 199 199 200 200 200 200 200 200 200 200 203 204 204 205 208 211 214 219 224 228 229 227 227 225 222 223 219 208 203 203 197 200 199 201 189 162 159 146 114 74 61 64 67 70 70 70 70 71 70 70 70 68 67 67 70 71 73 69 67 61 59 64 63 65 67 67 65 61 61 61 60 58 57 59 61 60 65 67 67 68 70 73 73 75 75 75 74 73 74 74 74 75 74 74 74 74 74 74 73 74 74 71 71 73 71 71 71 71 71 71 70 70 71 74 75 75 75 74 74 74 77 75 73 71 71 71 73 77 79 80 79 76 75 77 77 75 74 74 74 74 74 74 74 75 77 79 79 82 85 85 85 85 85 86 88 86 84 85 85 86 85 83 83 85 86 86 86 86 86 86 88 88 90 88 88 90 91 88 88 89 88 91 91 90 93 95 98 100 100 100 100 100 100 104 109 110 109 109 109 109 107 107 107 109 107 108 107 109 109 111 112 111 111 111 112 112 112 114 114 114 115 114 111 111 112 114 114 112 112 112 114 115 114 111 111 111 111 112 118 122 122 122 123 127 131 128 127 125 123 125 129 129 129
234 232 232 230 230 229 229 229 229 229 229 230 231 232 232 232 232 232 234 236 236 236 238 240 240 240 240 240 239 238 238 238 239 238 238 238 238 238 238 238 239 239 239 238 238 238 238 238 238 238 237 237 236 236 236 236 236 236 235 234 234 233 231 228 227 226 225 224 223 222 220 220 221 221 221 222 222 222 222 223 223 223 223 223 223 224 224 224 225 224 223 223 223 223 222 222 222 222 222 221 222 223 224 224 225 225 226 227 226 225 224 223 223 223 223 223 223 223 223 223 223 223 223 223 223 223 223 223 223 223 222 221 220 220 220 220 220 219 219 219 219 219 219 219 219 219 219 219 219 219 219 219 220 221 221 221 221 222 222 222 222 223 223 224 225 225 225 225 225 225 225 226 227 227 227 227 227 227 227 227 227 227 227 227 227 227 227 227 227 226 225 224 224 224 224 223 222 221 220 220 221 219 220 221 221 221 220 220 219 218 216 214 212 211 208 207 207 207 207 206 204 202 202 203 201 200 200 200 200 200 200 200 200 200 199 203 204 204 204 204 204 207 212 217 223 228 229 229 227 227 225 221 221 219 207 204 206 201 203 203 204 196 173 175 176 122 67 65 70 69 70 70 70 70 71 71 70 70 71 71 71 73 74 75 78 75 68 65 67 67 68 68 69 67 63 60 60 59 59 61 61 61 63 67 68 68 70 71 75 75 74 75 75 75 74 74 74 74 74 74 74 74 75 74 74 74 73 73 70 70 68 70 71 71 71 70 70 68 70 70 73 75 75 77 78 77 75 77 78 73 71 73 74 74 77 80 79 77 77 75 74 73 72 73 73 73 73 73 73 74 75 77 79 79 82 85 85 83 85 85 85 86 85 83 84 83 83 82 82 83 85 86 88 88 88 86 86 86 88 90 90 91 87 86 85 85 86 88 91 93 96 97 97 100 100 100 100 100 104 105 105 110 109 109 109 109 106 108 109 109 109 111 111 109 109 109 108 109 111 111 110 110 109 111 112 112 112 112 112 111 110 112 112 112 114 114 114 112 112 111 111 109 111 111 112 118 122 122 122 125 131 129 129 128 125 125 127 131 136 136
234 233 231 230 230 229 229 229 229 229 229 230 231 232 233 232 232 232 234 235 236 236 237 238 238 239 239 238 238 238 238 238 238 238 238 238 238 238 238 238 238 239 240 239 239 238 238 238 238 238 238 238 236 236 236 236 236 236 236 235 234 231 230 228 226 225 225 225 224 223 222 222 222 222 222 222 223 223 223 223 223 223 223 223 224 225 225 225 225 225 224 223 222 222 222 222 222 222 221 223 223 224 225 225 225 226 226 226 226 226 225 225 223 223 223 223 223 223 223 223 223 223 223 222 222 223 223 223 223 223 222 221 220 220 220 220 220 219 219 219 219 219 219 219 219 219 219 219 219 219 219 219 219 220 221 221 221 222 222 222 222 224 223 224 224 225 225 225 225 225 225 225 227 227 227 227 227 227 227 227 227 227 227 227 227 227 226 225 224 223 223 223 223 223 224 223 222 222 222 220 220 220 221 222 221 221 219 218 217 214 213 213 211 210 208 208 208 208 208 207 206 204 205 204 203 203 200 200 200 200 200 200 203 203 204 204 204 204 204 206 206 210 216 221 227 228 227 228 227 224 221 221 223 219 210 211 216 211 204 203 206 197 173 175 181 127 67 67 70 70 70 68 68 70 70 68 70 74 74 73 73 73 73 75 79 79 74 73 73 73 70 71 70 68 64 59 59 60 63 64 64 64 64 68 71 71 73 73 74 74 75 75 74 75 75 74 74 71 71 71 71 70 71 73 73 73 71 71 68 68 68 70 71 71 71 68 68 68 68 70 71 75 80 80 80 80 77 74 75 75 75 75 75 77 77 77 77 76 77 75 74 73 71 71 73 73 74 74 77 76 79 79 80 82 82 85 83 82 82 83 83 83 82 82 83 82 82 82 79 82 88 90 90 89 88 86 86 86 86 88 88 88 85 85 83 87 86 86 90 95 97 98 98 98 98 99 100 100 107 109 110 109 108 109 109 107 105 107 109 109 109 107 107 109 109 109 111 111 113 114 111 111 112 112 111 111 111 112 112 114 111 111 112 113 112 112 112 112 112 112 112 112 114 114 118 122 125 129 127 127 131 130 127 127 127 130 135 138 142 142
234 233 231 230 230 229 229 228 228 229 229 230 231 231 232 232 232 233 234 235 236 236 236 237 237 237 237 238 238 238 238 238 237 237 237 237 238 238 238 238 239 239 240 238 238 238 238 238 238 238 238 238 237 237 236 236 236 236 236 235 234 232 230 228 227 226 225 225 225 224 223 223 223 223 223 223 224 224 224 225 224 224 224 224 224 225 225 225 225 225 224 224 223 222 222 222 222 222 223 223 224 224 225 226 226 227 227 227 227 227 225 225 224 224 224 224 224 224 224 224 224 224 224 224 224 224 224 225 224 224 222 222 221 220 221 221 220 219 219 219 219 219 219 219 219 219 219 219 219 220 219 219 220 220 221 221 221 222 222 222 222 224 224 224 224 225 225 225 225 225 225 226 227 227 227 227 227 227 227 227 227 227 227 227 227 226 225 225 224 224 224 224 224 224 224 223 222 222 222 221 221 221 221 222 220 219 217 217 217 214 213 213 212 211 209 210 210 210 210 207 207 206 206 204 203 203 201 201 201 201 200 201 203 203 205 203 204 206 206 207 208 213 219 224 227 227 227 227 224 221 220 224 227 225 222 220 220 216 210 207 207 197 173 173 178 110 64 67 68 68 67 70 70 68 68 71 71 74 75 79 79 77 77 79 80 80 78 77 77 75 73 71 70 68 64 60 60 65 67 67 67 67 67 67 71 73 74 74 74 74 75 75 75 75 75 74 74 70 70 71 70 67 68 70 70 70 71 71 69 70 70 70 71 71 71 70 70 70 70 70 74 79 82 82 83 85 83 80 77 77 75 75 75 79 80 77 78 77 77 75 75 73 71 73 74 74 77 79 80 82 83 82 82 83 83 85 85 83 82 80 80 80 82 82 82 82 83 83 82 83 86 88 90 90 88 88 88 87 86 84 85 85 84 83 83 86 90 91 97 98 98 98 98 98 98 100 100 105 109 109 107 107 109 109 109 109 107 107 109 109 109 109 109 109 109 112 111 111 112 112 111 111 112 112 111 111 109 111 112 114 114 114 116 114 114 112 114 115 112 114 114 116 119 120 118 123 129 133 133 129 131 133 133 127 129 135 136 140 146 148
234 233 231 230 230 229 228 227 227 229 229 228 229 230 232 233 234 234 233 234 236 237 236 237 238 236 236 238 238 238 238 239 237 236 235 235 237 238 238 239 240 239 239 238 238 238 238 238 238 238 238 238 238 238 236 236 236 236 236 235 234 233 231 229 227 226 226 225 225 225 224 223 224 224 224 224 224 223 223 223 223 223 223 223 224 225 225 225 225 225 225 225 224 223 222 222 222 223 224 224 225 224 226 226 226 226 225 226 226 226 225 225 225 225 225 224 224 223 223 223 223 224 225 225 224 223 223 223 224 224 221 222 221 220 221 220 219 219 219 219 219 219 219 219 219 219 220 219 220 221 221 221 221 221 221 221 222 222 222 222 222 223 224 225 225 225 225 225 225 225 226 227 227 227 227 227 227 227 227 227 227 227 227 227 226 225 224 223 223 223 223 224 224 223 222 222 222 222 222 221 220 220 220 220 220 219 218 217 216 216 214 213 212 211 210 211 211 210 210 208 208 208 207 204 204 201 203 203 204 204 204 204 201 203 204 204 204 206 207 210 212 213 221 225 225 225 224 224 221 220 222 228 229 229 227 224 219 217 213 208 208 191 168 173 168 102 64 68 67 66 68 70 71 68 68 73 74 79 82 85 86 85 83 83 83 83 82 79 76 77 77 73 72 71 68 64 66 68 70 71 71 71 70 70 73 74 74 74 75 74 74 74 74 74 74 74 73 71 71 71 70 67 68 68 68 68 71 71 71 70 68 68 68 71 71 71 71 68 70 75 79 80 83 82 86 88 85 85 82 79 75 74 75 77 79 77 77 79 82 80 80 77 73 73 74 75 80 80 83 83 84 85 85 85 85 85 85 85 83 80 80 80 80 80 80 80 83 83 85 85 85 86 88 86 86 86 86 85 83 82 85 85 81 83 86 87 95 98 98 98 98 98 98 99 98 98 98 105 107 105 105 105 107 109 108 109 109 109 109 109 108 109 109 109 109 111 111 111 111 111 111 111 113 110 111 111 107 108 111 114 116 116 115 116 116 116 116 116 114 117 118 118 122 127 125 129 132 135 136 136 138 136 135 133 138 140 141 144 146 148
235 234 232 230 230 229 229 228 228 229 229 229 230 230 232 233 234 235 234 234 236 236 236 237 237 236 236 237 237 237 237 237 236 236 236 236 238 238 238 239 240 240 240 239 238 238 238 238 238 238 238 238 238 238 236 236 236 236 236 236 234 232 230 228 227 227 226 225 225 225 224 224 224 224 224 224 224 224 224 224 224 224 224 224 224 224 225 226 225 225 225 225 224 224 223 223 223 223 224 225 225 226 226 227 227 227 227 227 227 227 225 225 225 225 225 225 224 224 224 224 224 225 225 225 224 223 224 224 223 223 222 222 221 221 221 220 219 219 219 219 219 219 219 219 219 219 220 220 220 221 221 221 221 221 222 223 223 223 223 223 223 225 225 226 226 226 226 226 226 226 227 227 227 227 227 227 227 227 227 227 227 227 227 226 226 224 224 224 224 224 224 223 224 222 222 222 222 222 222 221 221 221 221 221 220 219 218 218 217 217 214 214 213 213 212 211 211 211 211 210 210 208 207 206 204 203 203 203 204 204 206 204 203 204 204 204 204 207 207 210 212 217 221 225 224 225 223 222 220 222 227 230 230 228 225 223 219 214 210 210 204 178 169 168 129 90 68 68 70 70 71 71 71 70 73 74 75 80 84 85 87 88 86 86 83 82 80 79 77 77 75 73 73 73 71 70 70 70 70 71 73 73 74 74 74 74 74 74 74 74 73 74 74 74 74 75 74 74 73 71 70 65 67 71 71 70 71 70 70 70 68 68 70 71 70 71 71 70 71 77 80 82 85 84 86 85 83 82 80 79 75 75 77 78 80 80 80 85 86 83 85 82 77 75 79 79 82 81 82 85 85 85 85 85 85 85 85 83 82 80 80 82 80 80 80 80 82 82 83 83 83 85 85 86 86 88 85 82 83 82 82 82 80 80 86 90 94 97 97 97 97 98 98 100 98 98 98 102 104 104 105 105 106 107 107 107 109 107 107 108 109 109 109 109 109 107 110 111 112 110 109 109 111 109 109 110 109 111 112 114 116 118 118 116 116 120 120 118 118 120 122 122 123 129 133 133 135 136 138 142 142 140 140 144 144 144 144 144 146 148
236 235 232 230 229 229 229 229 229 229 229 229 230 230 232 233 234 234 234 234 236 236 236 236 236 236 236 236 236 236 236 236 236 236 236 236 238 237 238 240 240 240 240 238 238 238 238 238 238 238 238 238 238 238 236 236 236 236 236 235 233 232 229 227 227 226 226 225 225 225 225 225 224 223 223 223 223 224 225 225 225 223 223 224 223 223 225 227 226 225 225 225 224 224 224 224 224 224 225 225 225 226 227 226 226 226 226 226 226 226 225 225 225 225 225 225 225 225 225 225 225 225 225 225 224 223 223 224 222 222 222 222 222 222 221 220 219 219 219 219 219 219 219 219 219 219 220 221 221 221 221 221 221 221 222 223 224 224 224 224 224 225 225 225 226 227 227 227 227 227 227 227 227 227 227 227 227 227 227 227 227 227 226 225 224 224 224 224 224 224 223 223 222 222 222 222 222 222 222 221 220 221 222 221 220 219 218 217 218 217 216 216 214 214 214 213 212 212 212 211 211 210 207 207 206 205 204 204 204 204 203 204 204 204 204 204 204 207 208 211 214 219 222 224 224 225 224 223 220 224 229 228 227 225 223 220 218 212 204 203 194 153 138 127 80 79 74 70 71 73 75 75 75 75 80 82 82 83 86 88 86 86 86 88 85 83 79 77 79 79 77 74 74 74 74 71 71 71 71 73 76 74 74 74 74 74 74 74 74 73 70 73 74 74 74 74 74 74 73 71 70 67 68 68 71 71 71 72 68 68 67 68 70 68 68 68 68 68 68 73 77 80 83 83 82 79 77 80 80 79 79 78 77 79 82 83 83 85 83 85 88 85 82 80 80 80 83 82 85 86 85 86 85 85 85 85 84 83 82 80 80 81 80 80 80 80 80 80 83 81 82 82 82 86 85 85 82 83 83 80 79 80 80 80 90 93 96 97 95 95 95 97 98 99 100 98 97 100 102 104 105 105 105 105 105 105 109 107 105 107 109 109 109 109 107 105 107 111 109 107 107 109 107 109 107 109 111 112 114 114 116 118 118 116 116 120 119 118 120 123 125 125 125 131 133 133 135 136 138 142 140 144 144 148 146 143 144 144 146 146
236 235 233 231 229 230 229 229 229 228 228 228 228 229 232 233 234 234 234 234 234 236 236 236 236 236 236 236 236 236 236 236 236 236 236 236 239 238 238 238 239 239 239 238 238 238 238 238 238 238 238 238 238 238 236 236 236 236 236 234 232 231 230 230 228 227 227 226 225 225 225 226 225 225 225 225 225 225 225 224 224 224 224 224 224 223 224 226 226 226 226 226 225 225 225 224 224 224 225 225 225 226 227 227 227 227 227 227 226 227 227 225 226 225 225 225 225 225 225 225 224 225 225 225 225 225 224 224 223 222 222 222 222 222 221 220 219 219 219 219 219 219 219 220 220 220 221 222 222 222 222 222 222 222 223 223 224 224 224 224 224 225 225 226 226 227 228 227 227 227 227 227 227 227 227 227 227 227 227 227 227 227 226 225 224 224 224 224 223 223 223 222 222 222 222 221 221 221 221 220 221 221 219 220 219 219 219 219 218 218 216 216 216 216 216 214 213 212 212 212 212 210 208 208 206 206 204 204 204 204 204 204 204 204 204 204 206 208 212 216 218 221 224 225 225 225 225 224 224 226 228 227 226 223 221 219 214 210 204 197 185 125 89 83 80 85 80 75 75 75 79 83 85 86 88 88 86 86 90 91 91 92 90 90 88 86 83 82 80 79 79 77 75 78 77 74 73 75 75 77 79 77 75 74 73 71 73 74 74 74 71 71 71 71 73 73 73 71 71 70 70 70 71 71 71 71 71 71 71 71 68 67 68 70 70 67 67 67 67 70 71 77 82 85 80 77 77 79 80 80 82 82 80 80 82 85 85 85 86 88 87 85 85 86 83 83 84 85 86 86 85 85 86 86 83 83 83 82 80 80 79 79 79 80 80 80 80 82 83 83 83 83 83 83 83 83 83 85 82 80 80 79 80 88 91 93 95 95 95 95 96 95 97 98 98 98 98 100 103 106 105 106 105 105 106 107 109 109 107 109 109 107 106 105 105 105 105 107 107 107 108 109 107 107 109 111 112 114 116 116 116 120 120 118 120 120 122 122 122 123 127 127 130 131 133 135 136 140 142 143 144 144 144 146 144 144 144 144 146 148
237 235 233 232 228 229 229 229 228 227 228 229 228 229 232 233 234 234 234 234 234 236 236 236 236 236 236 236 236 236 236 236 236 236 237 237 238 238 238 238 238 238 238 238 238 238 238 238 238 238 238 238 238 238 237 236 236 236 234 234 232 231 230 229 228 227 227 226 226 225 225 225 225 225 225 225 225 225 225 224 223 223 223 223 223 223 224 225 225 226 226 226 224 225 225 224 223 224 225 225 225 226 226 226 226 227 227 227 227 227 227 226 226 226 225 225 225 225 225 225 225 225 224 225 225 225 224 223 222 222 222 222 222 221 220 220 219 219 218 218 219 219 219 220 220 220 221 222 222 222 222 222 222 223 224 224 224 224 224 224 224 225 225 225 226 227 227 227 227 227 227 227 227 227 227 227 227 227 226 227 227 227 227 225 225 224 223 223 223 223 223 222 222 222 222 221 220 220 220 220 220 220 220 218 218 219 219 219 219 217 216 216 216 216 216 214 213 212 212 212 212 211 210 207 208 206 204 205 204 204 204 204 204 204 204 204 207 208 212 219 221 222 224 225 225 226 225 226 225 224 223 224 223 218 218 216 207 200 203 188 129 90 86 82 83 85 82 85 82 82 85 90 91 90 90 88 86 88 91 91 91 91 90 90 88 86 85 85 85 82 82 80 79 79 79 77 77 79 80 79 79 79 75 73 71 71 73 73 73 71 71 71 71 71 71 70 70 67 68 68 71 71 71 71 71 71 71 71 71 70 68 68 70 70 68 67 65 66 67 68 68 73 75 79 79 77 77 79 80 80 83 85 83 86 85 85 85 85 86 88 86 84 88 89 85 85 85 83 83 83 85 85 85 85 83 82 82 80 80 80 79 77 77 77 79 80 80 80 82 82 82 83 83 82 83 82 82 82 80 80 80 86 91 92 91 91 95 93 90 93 95 95 93 93 93 97 97 100 104 105 105 105 105 105 109 109 109 109 109 109 109 107 103 105 105 105 105 105 106 109 109 109 109 109 112 112 114 114 117 114 116 118 118 118 120 120 122 120 125 129 127 127 129 129 131 136 136 140 144 144 144 144 144 142 143 144 144 144 146 146
235 234 233 231 230 229 229 227 226 227 227 227 227 229 231 232 234 234 234 234 234 236 236 236 236 236 236 236 236 236 236 236 236 236 236 237 238 238 238 238 238 238 238 238 238 238 238 238 239 238 238 237 237 237 236 236 235 235 234 233 232 230 230 229 228 227 227 227 227 226 225 224 225 225 225 225 225 224 223 223 223 223 223 223 223 223 224 225 226 226 226 226 226 226 225 224 224 224 224 225 226 226 226 226 227 227 227 227 227 227 227 227 227 227 226 226 224 225 225 225 225 225 225 225 225 225 224 223 223 222 222 222 222 222 221 221 220 219 218 219 219 220 220 220 221 221 221 222 222 222 224 224 223 224 224 225 225 225 225 224 225 225 226 227 227 227 227 227 227 227 227 227 227 227 227 227 227 227 227 227 227 227 227 225 225 224 224 223 222 222 222 222 222 221 220 220 220 220 220 220 219 219 219 219 219 219 219 219 218 217 216 216 216 214 213 213 213 213 213 212 212 211 210 208 207 204 204 203 204 204 204 205 204 204 204 204 204 207 213 219 219 221 225 226 225 224 224 225 223 220 218 220 217 211 211 204 189 188 185 140 91 90 92 91 91 91 88 90 85 85 90 91 90 91 91 90 90 90 91 93 93 91 90 88 88 88 88 86 88 88 85 82 80 80 79 79 79 80 82 82 80 77 74 73 73 73 72 71 71 71 71 71 71 70 68 68 68 68 68 68 70 71 71 71 71 71 73 73 72 71 70 70 71 71 70 68 68 68 68 68 71 71 74 75 77 79 79 80 79 82 83 82 82 83 83 83 85 85 86 86 86 88 88 88 86 86 85 85 83 84 82 83 83 83 84 80 80 79 79 77 78 78 77 77 79 80 79 80 80 82 81 83 83 83 85 83 80 77 78 79 83 90 93 91 90 89 90 90 88 91 93 91 92 93 93 95 98 104 104 105 105 105 105 105 105 105 105 105 105 107 109 105 105 105 105 105 105 105 105 105 107 109 109 111 114 114 116 116 114 114 116 122 122 122 122 122 122 120 127 131 129 128 128 129 133 135 136 136 144 145 142 144 144 144 142 140 142 144 146 149
232 234 233 231 230 229 228 227 227 227 227 227 228 229 231 233 233 233 234 234 234 234 234 236 236 236 236 236 236 236 236 236 235 234 236 236 237 237 238 238 238 238 238 238 237 237 238 238 238 237 237 237 236 236 236 235 234 234 233 232 232 230 230 229 228 227 227 227 227 227 226 225 225 225 225 225 225 225 224 224 225 224 224 224 224 223 224 225 226 227 227 227 227 227 225 225 225 225 225 226 227 227 227 227 227 227 227 227 227 227 227 227 227 227 227 226 225 225 225 224 225 225 225 225 225 225 224 224 224 224 222 222 222 222 222 221 221 220 219 219 219 220 221 221 221 222 221 222 222 222 223 224 224 224 224 225 225 225 225 225 224 224 225 227 227 227 227 227 227 227 227 227 227 227 227 227 227 227 227 227 227 227 226 225 224 223 224 223 222 222 222 222 222 221 221 221 221 221 221 220 220 219 219 219 219 219 219 219 218 219 216 216 216 214 214 214 214 214 214 212 212 211 210 208 207 204 204 204 204 205 204 203 204 204 204 204 204 206 213 219 219 220 223 225 225 222 224 222 218 216 216 216 210 199 189 180 172 169 138 97 91 94 95 97 95 93 92 90 89 90 93 93 93 93 93 93 95 93 93 95 93 93 91 90 90 90 88 88 86 86 85 82 80 79 79 79 79 79 80 79 79 75 73 71 70 70 70 71 71 71 71 71 71 68 68 67 68 70 70 70 70 72 71 71 71 71 73 73 74 73 71 71 71 71 71 73 73 71 70 72 74 74 75 75 77 79 80 80 79 82 83 80 80 82 83 83 83 85 85 85 86 88 88 88 88 86 85 85 85 83 83 83 82 82 81 80 79 77 79 79 79 79 79 79 80 80 80 80 80 82 83 83 83 85 85 83 80 79 79 80 85 91 91 91 90 90 90 90 90 91 91 93 93 95 93 93 98 104 103 105 106 105 105 105 105 106 105 105 105 107 109 105 105 105 105 105 105 105 105 105 107 109 112 112 114 114 116 117 116 118 123 125 125 125 125 127 125 122 127 132 130 131 131 131 135 138 140 142 145 143 144 144 144 144 142 143 142 144 146 151
231 233 232 232 229 229 228 227 227 226 227 227 228 229 230 232 232 232 233 234 233 234 234 235 236 236 236 236 236 236 236 236 235 234 235 236 236 237 238 238 238 238 238 236 236 236 235 238 237 236 236 236 236 236 236 235 234 234 232 232 232 230 230 229 228 227 227 227 227 227 227 227 226 225 225 225 225 225 225 224 224 224 224 224 224 225 225 225 226 227 227 227 227 227 227 227 227 227 227 227 227 227 227 227 227 227 228 228 228 228 228 228 228 228 227 227 226 227 226 225 225 225 225 225 225 225 225 225 224 224 222 222 222 222 224 223 222 221 220 219 220 220 221 222 222 222 223 224 224 224 224 224 224 224 225 225 225 225 225 226 227 227 227 227 227 227 227 227 227 227 227 227 227 227 227 227 227 228 229 229 228 227 227 225 224 224 223 222 222 222 222 221 221 221 221 221 221 221 221 220 219 219 219 219 219 219 219 219 218 217 216 216 214 214 214 214 214 214 213 212 212 211 210 208 207 207 207 207 204 204 203 203 204 204 204 206 206 210 213 217 217 220 224 225 224 224 224 217 212 213 211 207 207 185 157 140 125 112 100 95 96 97 98 98 98 95 91 91 90 90 93 93 93 93 95 93 93 93 93 91 91 91 90 90 90 91 88 86 85 85 85 85 82 80 80 79 79 79 79 75 74 74 73 72 71 71 70 70 71 71 71 71 70 68 67 67 67 69 70 70 70 70 70 70 71 72 71 71 71 71 70 70 71 71 71 71 71 71 71 74 74 75 75 75 74 75 79 78 79 80 80 80 81 82 83 83 83 85 85 88 88 88 91 90 91 88 86 83 83 82 83 82 80 79 79 79 77 75 77 79 79 79 80 80 80 80 79 79 79 82 83 83 83 82 83 83 83 82 80 83 88 90 90 90 90 90 90 90 90 90 90 91 93 95 93 97 100 100 103 104 105 105 105 106 105 106 104 104 105 107 109 105 105 105 105 109 106 107 107 109 111 111 116 116 118 116 116 120 122 123 129 129 129 129 129 131 131 133 133 129 129 131 135 135 138 140 142 142 142 142 142 142 142 142 142 144 141 142 148 155
231 232 232 231 229 230 228 227 227 226 227 227 228 229 230 232 232 233 234 234 234 234 234 236 236 236 236 236 236 236 236 236 235 234 236 236 236 236 238 238 238 238 238 236 236 236 236 238 236 236 236 236 236 236 235 235 234 234 232 232 232 231 230 229 228 227 227 227 227 226 227 227 226 225 225 225 225 225 224 223 224 224 224 224 224 225 225 225 226 227 226 227 227 227 227 227 227 227 227 227 227 227 227 227 227 227 228 229 230 229 229 229 229 229 228 227 227 227 227 226 225 225 225 225 225 225 225 225 224 224 223 222 222 222 224 223 222 221 221 220 219 220 221 222 222 222 223 224 224 224 224 224 224 225 225 226 226 226 226 227 227 227 227 226 226 227 227 227 227 227 227 227 227 227 227 227 228 229 229 229 228 227 226 225 224 224 222 222 222 222 222 221 221 221 221 221 220 220 220 219 219 218 218 218 218 218 218 218 218 217 216 214 215 214 214 214 214 213 213 212 212 211 210 208 207 207 207 207 204 204 203 203 204 204 206 207 208 211 213 214 214 220 224 225 224 223 223 212 206 206 201 193 186 146 109 100 99 100 103 100 100 99 98 97 95 91 87 88 90 91 91 91 93 93 95 91 90 90 88 88 88 86 86 88 88 88 86 87 85 85 85 85 82 81 80 79 77 77 75 75 75 74 73 71 71 69 70 70 69 70 70 68 67 67 67 67 68 68 68 68 69 70 70 70 70 70 70 70 70 70 69 70 70 70 70 70 70 71 70 74 75 75 75 75 75 74 75 75 79 79 81 82 82 82 83 84 83 86 86 88 87 86 88 90 91 88 85 83 82 82 83 82 79 79 79 79 77 75 77 77 77 79 79 79 79 80 82 83 83 83 82 83 85 85 84 86 86 85 85 86 88 90 90 90 90 88 88 88 88 90 90 91 93 95 97 97 100 100 102 104 105 105 105 105 105 105 104 105 107 108 109 105 105 105 105 109 109 109 109 109 111 112 115 116 120 122 123 123 122 125 129 131 131 131 131 131 131 133 133 128 131 133 136 138 138 138 142 140 139 142 142 142 142 140 141 144 148 149 155 160
232 232 232 230 230 230 227 227 227 225 226 227 227 228 230 232 233 232 234 235 234 234 234 235 236 236 236 236 236 236 235 235 234 234 236 236 236 236 236 236 236 236 236 236 236 236 236 236 236 236 236 236 236 236 235 234 235 233 232 232 232 231 230 229 228 227 227 227 227 226 227 226 226 226 225 225 226 225 224 224 223 223 223 225 225 225 225 226 226 226 226 226 226 226 226 226 226 226 226 226 226 227 227 227 227 227 228 229 230 230 230 230 229 230 229 228 227 227 226 226 226 225 225 225 225 225 225 225 225 225 224 224 223 224 223 222 222 221 220 220 220 220 221 222 222 223 223 224 224 224 225 225 225 225 225 226 227 227 227 227 227 227 227 227 227 227 227 227 227 227 227 227 227 227 227 227 229 229 229 228 227 227 226 225 224 223 222 222 222 222 222 221 220 220 220 220 219 219 219 219 219 218 217 217 217 217 217 217 217 217 217 214 213 213 213 213 212 212 211 211 211 211 210 208 207 207 207 206 203 203 203 203 204 206 210 211 211 211 211 211 211 216 219 222 221 220 219 207 200 196 194 185 157 111 104 104 105 107 102 100 100 100 95 90 86 85 85 88 90 93 95 95 95 95 95 91 88 84 85 85 84 85 82 83 85 85 86 84 83 83 85 86 80 79 79 77 75 75 75 76 74 71 71 71 70 69 68 68 67 67 67 67 67 67 67 67 67 67 67 67 67 68 68 68 68 68 68 68 68 68 68 68 68 68 68 68 68 72 71 73 75 75 73 74 74 73 73 73 73 75 80 83 83 82 80 85 88 90 91 90 86 85 85 88 91 88 85 82 82 83 84 83 78 79 80 80 79 77 77 77 76 77 77 76 77 82 85 85 88 85 83 88 90 91 91 90 88 86 86 86 88 90 89 90 90 88 86 86 89 91 91 92 91 95 98 99 100 100 104 104 105 105 105 105 105 105 105 107 109 109 109 105 105 105 105 110 109 111 111 111 112 118 118 118 124 127 127 128 129 133 133 132 129 129 129 129 129 129 131 133 133 136 138 138 138 138 140 140 140 142 144 146 146 144 148 151 153 155 159 162
232 232 232 231 230 230 227 227 227 226 226 227 227 227 230 232 232 233 234 234 234 234 234 235 236 236 236 236 236 236 235 234 234 234 235 235 236 236 236 236 236 236 236 236 236 235 235 236 236 236 236 236 236 236 234 234 234 233 232 232 232 231 230 230 229 228 228 227 227 227 227 227 227 227 226 225 225 225 225 225 224 224 224 224 225 225 225 226 226 227 227 227 226 226 227 227 228 227 227 227 227 227 227 227 227 227 228 229 230 231 231 231 230 230 229 228 227 227 227 227 227 226 226 225 225 225 225 225 225 225 224 224 224 224 224 223 223 222 221 221 221 221 221 222 223 224 224 224 224 224 225 225 225 225 226 226 227 227 227 227 227 227 227 227 227 227 227 227 227 227 227 227 227 227 228 228 229 228 228 227 227 227 226 225 225 224 223 222 222 222 221 221 221 220 220 219 219 219 219 219 218 218 218 218 218 218 218 218 217 217 217 214 214 214 213 213 214 212 212 211 211 210 210 208 207 207 207 205 203 203 203 203 204 208 212 211 210 208 208 208 208 211 216 216 216 217 214 208 200 193 193 171 123 102 106 105 105 107 104 100 97 91 88 83 82 83 86 90 90 93 95 95 93 95 95 93 88 85 85 85 85 82 83 80 82 83 85 83 82 82 85 83 77 75 77 75 74 74 74 74 73 71 71 70 70 68 68 68 67 67 67 67 67 68 67 69 68 68 68 68 68 70 70 70 70 69 70 70 70 69 70 70 69 70 70 70 70 71 70 71 74 73 70 71 75 74 73 70 70 77 80 80 82 80 82 90 93 93 93 91 88 88 88 90 90 86 85 85 85 82 82 83 80 80 80 82 80 80 80 82 79 79 83 83 85 86 85 86 88 88 88 91 91 93 93 90 88 86 88 88 88 89 91 92 90 90 90 93 91 91 91 92 93 97 100 100 101 102 104 104 105 104 107 107 105 105 105 107 109 109 109 107 107 107 107 109 111 114 112 111 114 120 122 122 123 127 129 131 133 134 133 131 131 131 131 131 130 133 135 135 136 136 138 142 140 142 144 144 144 146 146 145 148 151 153 153 153 155 157 160
232 232 232 232 231 231 228 226 226 227 227 226 227 227 227 231 232 233 234 234 234 234 234 235 236 236 236 236 236 236 235 234 234 234 234 234 236 236 236 236 236 236 236 237 236 234 234 236 236 236 236 236 236 236 234 234 234 233 233 232 232 231 230 230 230 229 228 227 227 226 226 226 226 226 226 226 225 225 225 225 225 224 223 223 224 225 225 226 226 226 226 226 225 225 226 227 227 227 227 227 227 227 227 228 227 228 229 230 231 232 232 232 230 230 229 228 227 227 227 227 228 227 227 225 225 225 225 225 225 225 224 223 223 223 223 223 224 223 222 222 222 222 222 222 223 224 224 224 225 225 225 225 225 226 227 227 227 227 227 227 227 227 227 227 227 227 227 227 227 227 227 227 227 228 229 229 229 228 228 227 227 227 226 225 225 224 223 222 223 222 220 221 220 220 219 219 219 219 219 218 217 217 217 217 217 217 217 217 216 216 213 213 213 213 212 213 214 212 212 211 210 208 208 208 207 207 204 204 203 203 203 201 203 210 212 210 208 209 208 208 208 213 213 212 213 213 213 216 207 186 178 124 105 105 105 105 105 104 100 95 91 91 88 82 82 84 88 90 90 90 90 90 90 92 93 90 86 84 83 83 82 80 80 80 80 80 80 80 80 82 83 80 75 73 74 74 74 74 74 71 70 71 70 68 70 68 67 67 67 67 67 67 67 68 69 67 68 67 68 68 68 68 68 68 68 68 68 68 68 68 68 68 68 68 68 71 71 71 70 71 73 71 68 68 73 73 68 68 70 74 77 79 83 83 86 91 95 93 93 90 86 86 89 90 88 85 85 85 85 82 80 81 80 80 80 85 85 85 85 85 83 86 89 88 90 89 86 88 89 91 93 91 91 92 91 90 88 90 91 90 92 92 91 91 93 91 95 98 95 93 95 97 97 100 100 100 100 104 104 105 105 105 107 107 105 105 105 107 109 109 109 109 109 109 108 107 111 114 112 112 114 120 123 123 125 129 129 130 133 133 133 131 129 129 131 133 133 136 138 138 138 138 142 146 144 144 147 144 144 146 148 149 149 151 151 151 151 155 159 162
232 232 233 231 230 229 229 228 228 228 227 227 227 227 227 228 231 232 234 234 236 235 234 235 235 236 236 236 236 237 235 233 234 234 234 234 236 236 236 237 236 235 235 235 235 234 234 235 235 236 235 235 235 235 234 234 234 233 232 232 232 232 232 230 231 229 229 227 227 227 227 227 227 227 227 226 226 225 225 225 225 224 224 224 224 224 224 225 226 227 227 227 225 224 227 227 227 227 227 227 227 228 228 228 228 229 230 231 232 232 232 232 231 231 230 229 229 228 227 227 227 227 226 226 226 225 225 225 227 226 224 224 224 224 224 224 224 223 223 222 222 223 223 223 223 225 225 225 225 225 225 225 225 226 227 227 227 227 227 227 227 227 227 227 228 228 228 228 228 228 228 228 228 229 229 229 229 228 227 227 227 227 227 225 225 224 224 223 222 222 221 221 221 220 220 219 219 218 218 217 218 218 218 218 218 218 217 216 216 216 214 214 214 213 213 213 213 212 211 210 210 208 208 207 207 207 206 204 203 203 203 203 204 208 212 211 207 207 207 208 208 212 213 212 214 216 216 220 211 181 133 95 103 104 103 102 102 100 97 93 91 91 88 83 83 83 86 90 90 89 88 88 86 88 86 85 83 80 80 77 77 76 79 81 77 77 79 79 80 80 80 77 74 74 74 73 73 73 73 71 70 71 70 70 68 67 67 67 68 68 68 68 68 68 69 70 70 70 70 69 68 67 68 70 70 69 70 70 70 70 70 70 70 70 70 70 71 71 71 71 71 71 70 70 71 73 73 71 71 78 79 83 88 90 91 93 92 93 93 88 86 84 88 88 86 85 84 85 84 82 80 80 80 82 82 88 88 86 87 86 88 90 90 88 90 90 91 91 91 93 93 90 90 91 91 90 90 92 93 93 95 95 95 97 98 100 101 102 102 102 104 102 102 100 100 98 102 104 105 105 105 105 109 109 105 105 105 107 109 109 109 109 110 109 109 109 111 116 116 118 121 123 127 127 130 130 131 133 134 131 131 131 131 131 131 133 133 135 135 138 140 140 142 142 146 146 148 148 148 148 148 149 151 153 153 153 155 157 160 164
232 232 232 230 230 229 229 229 229 229 228 227 227 226 227 227 231 232 234 234 236 235 234 234 234 235 236 236 236 236 235 234 234 234 234 234 236 236 236 236 236 235 234 234 234 234 234 234 233 234 234 234 235 234 234 234 234 233 232 232 232 232 232 230 230 229 228 227 227 226 227 227 227 227 227 227 227 226 225 225 225 224 224 224 224 224 224 225 227 227 227 227 225 225 226 227 226 227 227 227 227 228 229 230 229 229 230 232 232 232 232 232 231 232 231 229 229 228 226 227 227 227 227 227 227 227 227 227 227 227 225 225 225 225 224 224 224 225 224 222 222 223 224 223 224 225 225 225 225 225 225 225 225 225 227 227 227 227 227 227 227 227 227 227 228 229 229 229 229 229 229 229 229 229 229 230 229 228 227 227 227 227 226 225 224 223 224 224 222 222 222 221 221 221 221 220 219 218 218 218 217 218 218 218 218 218 216 216 216 216 214 214 214 214 214 213 212 212 212 209 208 208 208 207 207 206 204 204 203 203 203 202 204 207 210 208 206 207 206 208 208 211 214 214 216 216 216 220 212 159 100 95 95 97 100 97 97 95 93 95 95 93 90 85 85 84 88 91 90 89 90 88 88 85 85 82 81 79 77 75 75 74 77 79 75 75 77 79 80 80 79 74 73 74 74 71 70 71 72 71 71 71 70 70 66 67 67 68 73 71 70 70 70 70 70 70 71 70 70 70 68 67 68 70 70 71 70 71 70 69 68 70 71 70 68 70 73 71 71 71 70 68 70 70 71 70 74 73 75 80 80 85 88 90 90 93 93 93 91 88 85 85 86 88 85 85 85 85 83 82 80 80 80 82 83 90 90 86 88 88 88 90 89 90 93 93 93 93 93 92 93 90 90 91 93 93 93 95 97 98 97 98 97 98 98 102 104 104 104 104 104 104 104 101 100 102 105 105 105 105 105 105 107 107 105 105 106 107 109 109 109 109 109 111 111 111 112 116 118 119 123 125 127 127 131 131 133 133 133 131 129 131 131 133 133 133 135 136 136 138 140 142 140 142 148 148 147 148 149 148 150 149 149 155 155 155 157 159 162 164
232 231 230 229 229 229 229 229 229 229 229 228 228 228 228 229 230 231 232 234 234 235 234 233 235 234 234 234 234 234 234 234 234 234 234 234 234 234 235 234 234 234 233 234 234 234 234 234 234 234 234 234 234 234 234 234 234 233 232 232 232 232 232 230 231 229 228 227 227 227 227 227 227 227 227 228 227 227 226 226 225 225 225 224 224 224 224 225 225 225 225 225 225 225 227 227 227 227 227 227 227 228 229 229 229 230 230 232 232 232 231 232 232 232 232 230 229 229 229 228 228 228 228 228 228 227 227 227 227 227 227 227 226 226 224 224 224 224 224 224 224 223 224 225 225 225 225 225 225 225 226 226 226 226 227 228 227 227 227 227 227 227 227 228 229 229 229 229 229 229 229 229 230 230 230 229 229 228 228 227 227 227 226 225 225 225 224 224 223 223 222 222 221 220 219 219 218 218 218 217 216 216 217 217 217 216 214 214 214 214 214 214 212 212 212 212 212 211 211 208 207 208 208 207 206 203 204 204 203 203 201 201 201 204 206 204 203 204 207 210 211 212 213 216 216 215 216 210 166 102 90 93 91 93 95 93 93 93 91 95 95 91 88 86 86 90 90 93 93 91 90 90 88 85 83 83 83 80 79 75 75 75 75 75 75 75 77 79 80 80 79 75 74 73 72 71 70 71 71 70 68 70 68 66 67 67 68 70 74 73 71 70 70 70 71 71 71 70 70 70 70 69 70 70 70 70 70 70 68 68 71 71 71 70 70 67 68 70 70 71 73 74 71 71 71 74 77 77 75 82 83 85 86 86 91 91 91 88 87 86 85 83 85 85 86 86 83 82 80 82 80 79 79 83 86 90 90 90 90 91 91 91 94 97 97 97 95 95 95 93 90 90 93 97 98 96 98 102 100 100 99 98 100 100 100 102 104 104 104 104 104 104 103 104 105 105 107 105 105 105 107 107 109 109 109 107 107 109 109 109 111 111 111 112 112 116 116 118 120 122 122 125 127 127 127 129 131 131 131 129 127 129 133 134 135 135 136 138 140 140 142 141 144 144 148 148 149 149 149 148 149 149 149 155 155 155 157 160 163 164
232 231 230 229 229 229 229 229 229 229 229 229 229 229 229 229 230 230 230 232 233 234 234 234 234 234 234 234 234 234 234 234 234 234 233 233 234 234 234 234 234 234 234 234 234 234 234 234 234 234 234 234 234 234 234 234 233 233 232 232 232 232 232 231 230 229 229 227 227 227 227 226 226 226 226 226 226 226 226 226 225 225 225 223 223 223 224 225 224 224 224 224 224 225 226 226 226 227 227 227 227 228 229 230 231 231 231 232 232 233 233 233 232 233 232 231 231 230 229 229 229 229 229 229 229 229 230 230 230 230 228 227 227 227 226 226 225 225 225 226 226 224 224 226 226 226 226 226 226 226 227 227 227 227 227 227 228 227 227 228 228 228 229 229 229 229 229 229 229 229 229 229 230 230 230 230 229 229 229 228 227 227 227 225 225 225 224 223 223 223 222 222 220 220 218 218 217 217 217 216 214 214 214 214 214 214 213 214 213 213 213 213 212 211 211 212 212 211 209 208 208 208 207 207 206 204 204 204 203 201 199 199 199 199 200 199 199 201 206 208 212 212 211 210 213 216 213 151 85 88 93 93 93 91 90 91 91 90 93 93 93 90 86 86 86 90 86 90 91 91 91 90 88 85 83 83 83 82 80 77 76 77 77 77 77 77 77 80 82 82 78 75 74 73 71 71 70 70 71 68 67 68 67 65 67 67 68 70 73 73 70 71 72 72 71 70 70 68 68 68 68 68 68 68 68 68 68 68 70 70 71 71 71 70 68 67 68 68 70 70 71 73 71 70 71 74 80 79 77 80 80 82 83 83 86 85 83 83 83 83 82 82 81 80 82 83 83 80 80 80 78 79 80 90 95 95 95 95 95 93 97 98 98 98 98 98 97 97 95 95 95 95 98 102 104 102 104 104 102 102 102 102 105 105 105 105 104 104 104 103 104 104 104 105 107 107 105 105 105 105 107 106 109 109 110 109 113 112 112 111 111 114 114 115 116 116 118 120 122 122 123 123 125 125 125 126 129 129 129 127 127 128 131 135 135 135 136 138 140 140 140 140 144 144 146 148 149 149 149 149 149 149 149 153 155 154 155 160 162 162
230 230 230 229 229 229 229 229 229 229 229 229 229 229 229 229 229 229 229 229 232 232 234 234 234 234 234 234 234 234 234 235 234 232 231 232 233 234 235 234 234 234 234 234 234 234 234 234 234 233 233 233 233 233 233 233 233 233 232 232 232 232 232 231 230 229 228 227 227 227 227 227 226 226 226 226 226 226 226 226 226 226 226 225 224 224 224 225 225 225 225 225 224 225 226 226 226 226 227 227 227 228 230 232 232 232 232 232 233 234 234 234 233 232 232 232 232 231 230 230 230 230 230 230 230 231 232 232 231 230 229 228 227 227 227 227 227 227 227 227 227 226 226 227 227 227 226 227 227 227 227 227 227 227 227 227 228 227 227 229 229 229 229 229 229 229 230 230 230 230 230 230 230 230 230 230 230 230 229 228 227 227 227 226 225 224 224 223 223 223 222 221 220 221 218 218 217 216 216 213 213 213 213 213 212 212 212 212 212 212 212 211 210 210 211 211 211 210 208 207 208 207 206 204 203 203 203 200 199 199 197 197 197 196 193 194 194 197 200 203 210 212 207 204 207 212 205 114 82 90 91 91 90 86 88 88 88 91 91 88 88 86 86 87 90 86 86 85 86 86 90 88 85 83 83 83 83 82 80 79 79 79 79 79 79 79 77 79 80 78 74 74 74 73 71 71 71 70 71 68 67 67 68 65 68 68 70 70 71 71 70 71 73 73 73 71 71 70 70 70 70 68 68 68 69 68 70 70 71 71 70 71 73 73 70 68 68 68 70 70 71 71 71 71 74 75 77 77 75 75 77 80 83 82 82 83 80 82 82 80 82 82 82 82 83 83 83 80 82 79 75 80 88 97 97 97 97 97 97 95 98 98 97 97 97 98 97 98 97 97 99 99 102 104 104 104 104 102 104 105 105 104 104 104 107 105 104 105 105 105 105 105 105 105 107 105 105 104 107 108 107 107 109 109 111 112 114 114 114 115 116 116 116 118 118 119 122 122 123 125 127 127 125 125 125 127 129 129 129 129 129 129 135 136 136 136 138 140 140 140 142 144 148 148 148 149 148 149 151 152 151 151 151 153 155 159 159 159 162 163
230 230 230 229 229 229 229 229 229 228 229 229 229 229 228 228 229 229 229 229 231 232 234 234 234 234 234 234 234 234 234 234 234 232 230 230 233 234 234 234 234 234 234 234 234 234 234 233 233 232 232 232 232 232 232 232 232 232 232 232 232 232 232 232 230 229 228 227 227 227 227 227 227 227 227 227 227 227 227 227 227 227 227 225 225 225 225 225 225 225 225 225 225 225 227 227 227 227 227 226 227 228 230 232 232 232 232 231 233 234 234 234 232 232 232 232 232 231 230 231 230 231 231 231 231 232 232 232 231 231 230 228 228 228 227 228 228 227 227 227 227 226 226 227 227 227 227 227 227 227 227 227 228 227 227 227 227 227 227 228 229 229 229 229 229 229 230 230 230 230 230 230 230 230 230 230 230 230 229 228 227 227 227 227 226 225 224 224 224 224 221 222 221 221 220 218 217 216 214 214 213 213 213 213 212 211 211 211 211 211 211 211 210 210 210 211 210 208 208 208 208 207 205 204 203 203 201 199 197 197 194 194 194 193 193 193 191 186 191 196 201 207 210 204 206 213 208 116 83 88 90 89 85 85 86 86 85 86 87 85 84 88 86 86 86 85 82 83 83 83 85 82 80 82 83 83 83 80 80 79 79 79 79 79 79 77 74 73 71 73 74 74 75 73 71 71 72 71 71 70 70 71 71 68 68 70 71 71 72 71 71 73 74 74 74 74 75 74 74 72 72 70 70 70 70 70 70 71 71 71 71 73 73 73 70 70 70 70 71 71 71 71 71 70 74 75 79 79 75 75 77 80 83 83 83 83 82 82 80 79 80 82 85 85 86 85 87 86 83 86 85 86 94 98 101 100 100 100 97 95 97 97 95 95 95 95 98 100 100 100 102 100 99 104 105 104 104 105 105 105 104 104 104 104 105 105 104 104 105 105 105 105 105 105 105 106 105 105 107 109 111 120 120 111 111 112 114 114 114 116 116 117 116 120 118 118 122 122 123 125 127 127 126 127 127 127 129 131 131 131 131 131 136 138 140 140 140 142 142 142 145 144 149 149 151 151 149 151 153 153 153 153 153 155 157 160 160 160 162 164
230 230 230 229 229 229 229 229 229 229 229 229 229 229 227 227 229 229 229 229 230 232 233 234 234 234 234 235 236 236 235 234 234 232 229 230 232 232 232 233 234 234 234 234 234 234 233 232 232 231 232 232 231 232 232 232 232 232 232 232 232 232 232 232 230 230 229 229 228 227 227 227 227 227 227 227 227 227 227 227 227 227 226 225 225 225 225 225 225 225 225 225 224 225 226 227 227 227 227 227 227 228 231 233 231 231 232 234 234 235 234 233 232 231 232 232 232 232 232 232 232 232 232 232 232 232 232 232 232 232 231 231 231 231 231 231 231 230 230 229 228 228 227 227 227 228 229 229 229 229 228 228 230 229 229 229 228 229 229 229 229 229 230 230 230 230 230 230 230 230 231 231 230 230 230 230 230 229 230 229 228 227 227 227 226 225 225 225 224 223 222 222 221 220 219 218 216 214 214 214 213 212 212 212 211 211 211 211 212 211 211 211 211 210 208 208 208 207 207 207 207 206 203 203 201 201 199 196 194 192 189 186 186 186 189 188 172 160 177 191 197 203 200 194 197 204 176 98 86 88 90 85 82 82 83 83 85 85 85 83 82 82 80 79 80 82 79 79 79 80 79 79 80 82 84 83 83 80 80 79 76 74 74 74 74 74 70 71 68 70 70 73 75 73 71 70 70 73 73 73 72 74 74 75 71 71 71 71 71 71 74 74 74 74 74 74 77 79 77 74 71 71 70 68 71 71 71 71 71 71 71 71 71 70 71 71 71 71 74 74 74 71 70 70 73 77 79 82 79 77 77 82 83 82 82 82 82 82 80 79 80 83 85 87 88 86 86 86 88 93 95 96 98 100 100 105 104 102 98 98 97 95 95 98 97 97 99 100 100 100 101 100 103 104 104 104 104 105 105 105 105 105 105 105 105 105 105 105 105 104 105 105 105 107 107 107 109 107 109 111 116 123 125 129 120 111 112 118 122 120 118 120 120 118 120 122 123 125 125 125 125 125 127 127 127 127 127 129 131 131 135 135 138 140 142 147 146 146 145 148 148 148 148 151 153 153 153 153 153 155 155 155 155 159 159 160 160 160 160 160
230 230 230 229 229 229 229 229 230 229 230 229 229 229 227 227 228 228 228 228 230 231 232 234 234 235 235 236 236 236 235 234 234 232 231 231 233 232 232 234 233 233 233 233 233 234 234 233 232 232 232 232 231 231 232 232 232 232 232 232 232 232 232 232 232 231 231 229 227 227 227 227 227 227 227 227 227 227 227 227 227 227 227 226 225 225 224 225 225 225 225 225 225 225 227 227 227 227 227 227 228 229 231 232 232 232 231 234 234 234 234 234 233 233 232 232 232 232 232 232 232 232 232 233 233 232 232 232 232 232 232 232 232 232 232 233 233 232 232 230 229 228 228 228 229 231 230 229 229 229 230 230 229 229 229 229 229 230 229 229 229 229 230 230 230 230 230 230 231 231 232 232 231 231 230 230 230 230 230 230 229 227 227 227 226 225 225 225 224 223 222 221 222 220 219 218 216 214 214 213 213 211 212 212 211 210 209 210 210 210 210 210 210 210 208 208 208 206 206 206 206 204 201 200 200 198 196 191 189 185 181 175 173 176 178 162 120 122 140 175 183 188 148 133 149 118 88 85 88 88 88 85 85 83 82 86 86 85 83 83 80 77 77 75 77 76 75 75 77 78 75 78 80 82 82 82 82 80 80 79 74 73 73 73 71 71 71 71 71 71 70 73 74 73 71 74 74 77 77 75 74 73 72 74 71 71 70 71 71 74 74 74 74 74 74 74 75 77 77 74 71 71 70 70 71 71 73 71 71 71 70 71 71 71 71 72 73 74 75 73 73 71 73 73 74 79 79 81 79 79 79 80 83 85 85 86 86 86 85 85 86 90 91 91 90 88 90 91 91 97 98 97 98 102 102 102 102 100 98 98 97 97 100 102 102 102 100 100 100 101 100 98 98 102 104 104 104 105 107 107 105 105 105 105 107 107 107 108 107 107 107 107 107 109 109 109 111 109 111 111 114 123 133 136 127 118 116 120 122 120 120 120 120 122 122 122 123 125 123 123 125 125 125 125 127 127 127 129 129 131 136 136 138 142 144 147 148 149 148 148 151 151 148 151 153 151 151 153 153 154 155 156 155 159 159 160 160 161 159 157
230 230 230 229 229 229 229 229 229 229 229 229 229 229 227 227 227 227 227 227 228 230 232 233 233 236 236 236 236 236 235 234 233 232 231 232 231 231 232 232 232 233 232 232 232 234 234 234 233 232 232 232 230 230 231 231 231 231 231 232 232 232 232 232 232 232 231 229 227 227 227 226 226 226 226 226 226 226 226 226 226 226 226 227 225 225 225 225 225 225 225 225 224 225 226 226 227 226 226 227 229 229 231 232 232 232 233 234 234 234 234 234 234 234 232 232 232 232 232 232 232 232 232 234 233 232 232 232 232 232 233 232 232 232 232 233 234 234 232 231 231 231 230 230 231 232 232 232 232 232 232 233 232 231 230 229 229 230 230 230 230 230 230 230 230 230 230 231 231 232 232 232 232 231 230 230 230 230 230 229 229 227 227 227 226 225 225 225 225 222 222 222 220 220 219 218 214 214 214 212 212 212 212 211 210 208 208 208 209 208 208 208 208 208 208 207 207 204 204 204 204 203 201 200 199 196 191 189 183 180 175 166 159 151 146 122 92 86 86 102 107 123 100 86 88 88 86 88 90 90 90 90 90 87 86 88 90 85 83 80 80 79 78 75 75 75 74 74 75 74 75 75 79 80 80 80 80 80 80 80 76 79 77 75 73 72 74 74 76 75 74 74 74 74 74 77 79 79 77 75 75 73 73 73 72 71 71 71 73 73 73 74 75 74 72 75 75 74 75 74 73 71 71 71 71 71 70 71 71 70 68 70 71 71 71 73 75 75 75 74 74 73 73 73 79 83 85 85 83 80 80 82 88 91 91 96 93 91 93 93 92 93 92 93 95 94 98 97 95 97 98 98 98 102 104 100 100 97 98 99 101 100 102 104 104 102 100 100 100 100 100 98 98 100 104 104 104 105 107 109 107 105 105 105 109 109 109 109 109 109 109 109 108 109 109 111 111 111 112 114 111 123 132 136 133 125 126 123 122 120 118 120 122 123 125 122 123 123 125 127 127 127 127 127 127 127 126 129 133 135 140 142 140 142 146 146 148 150 149 149 151 151 149 149 153 151 149 151 152 153 155 155 155 157 157 157 157 157 155 154
230 230 230 230 229 229 229 229 228 229 229 229 229 229 227 227 227 227 227 227 227 229 232 233 234 234 235 235 236 237 235 234 234 232 231 231 231 231 232 232 232 232 232 232 232 234 234 234 232 232 232 232 230 230 231 231 230 230 231 232 232 233 233 232 232 232 231 229 227 227 227 227 227 227 227 227 226 227 227 227 227 227 227 227 226 226 226 225 224 224 225 225 225 226 227 227 227 228 227 228 229 230 231 232 232 232 233 234 234 234 234 234 234 234 233 232 232 232 232 232 232 232 232 233 233 233 232 232 232 232 232 232 232 232 232 233 234 234 234 233 233 232 231 231 231 232 232 232 233 233 233 233 232 232 231 230 229 230 231 231 231 230 230 231 231 231 231 231 232 232 232 232 232 231 230 230 230 229 230 229 229 227 227 227 226 225 225 225 224 223 222 222 221 220 218 219 216 214 213 211 211 210 210 210 209 208 208 207 207 205 207 207 207 207 208 207 205 204 203 203 203 201 200 197 197 193 189 185 181 176 168 162 160 149 120 100 90 86 86 85 88 93 93 91 93 88 88 89 90 90 90 90 91 90 90 90 91 88 86 82 80 82 79 75 79 82 77 74 74 74 79 77 79 79 80 82 82 80 80 79 79 79 77 75 76 75 75 75 79 77 75 75 77 75 75 77 77 77 77 75 74 74 73 75 71 70 71 71 74 74 74 74 74 74 74 75 74 73 73 73 71 71 71 70 71 71 71 72 70 70 69 70 71 70 72 74 75 77 79 82 77 74 74 79 83 95 95 86 83 82 82 85 93 98 98 100 100 98 98 97 95 95 95 95 97 98 100 100 98 98 98 98 102 104 104 102 102 102 100 98 100 102 104 104 104 104 102 102 100 101 102 98 99 102 105 104 105 105 108 109 107 108 107 107 110 109 109 109 109 109 109 109 112 109 111 111 111 111 112 114 112 125 136 139 133 127 125 122 122 122 123 122 122 123 123 126 125 125 129 132 127 125 129 131 129 131 133 135 136 138 140 142 142 142 146 148 149 149 149 149 151 151 149 149 151 151 151 152 151 153 155 157 157 157 157 157 155 155 153 153
230 230 230 230 230 229 229 229 229 229 229 229 229 229 227 227 227 227 227 227 227 228 230 232 232 234 234 235 236 236 236 236 235 232 229 230 230 231 231 231 231 232 232 232 232 233 233 233 233 232 231 232 230 230 230 229 228 229 229 230 233 234 234 233 232 232 231 228 227 227 227 226 226 226 226 226 226 226 226 226 226 226 226 226 226 226 226 225 224 223 224 225 225 225 226 226 226 227 227 227 229 232 232 233 232 232 233 234 234 234 234 234 234 234 234 233 232 232 232 232 232 233 232 232 233 234 233 232 232 232 232 232 232 232 233 233 235 234 234 234 234 233 232 233 232 232 232 232 233 234 234 235 234 234 233 232 232 232 232 232 232 231 230 232 232 232 232 233 232 232 232 232 232 231 230 230 230 230 230 229 229 227 227 226 226 226 225 225 224 223 222 221 220 219 217 216 214 212 212 211 210 208 208 208 208 209 207 207 204 204 204 204 204 204 206 204 204 203 203 203 200 200 199 196 194 189 188 186 181 176 169 166 162 153 118 102 94 90 90 90 94 97 97 98 95 91 90 90 90 90 90 91 93 93 93 95 95 91 90 90 86 88 85 82 83 83 82 78 79 80 80 80 79 79 82 83 83 80 80 79 75 76 75 75 74 75 75 75 79 79 79 79 79 77 74 75 75 75 75 75 74 73 73 73 74 70 70 71 73 73 73 73 73 73 72 73 68 69 68 71 71 71 70 68 70 71 71 70 68 68 68 70 71 71 74 75 75 80 82 84 79 82 85 88 93 100 97 85 84 83 86 90 98 104 104 104 104 100 100 98 97 95 98 98 98 97 100 100 98 98 98 100 104 104 104 104 104 104 100 100 100 99 102 104 104 105 104 102 100 102 103 102 102 105 105 105 105 105 107 109 109 109 109 109 109 109 109 110 108 109 108 111 111 111 112 111 111 111 110 112 114 131 141 138 135 129 125 122 121 123 125 122 122 122 122 123 124 127 129 129 127 127 129 129 129 130 136 136 138 138 138 140 142 144 146 149 149 149 150 148 149 148 149 149 149 149 150 151 151 153 155 157 157 155 155 159 157 155 155 155
230 230 230 230 229 229 229 229 230 229 228 228 228 228 227 227 227 227 227 227 227 227 229 230 232 232 233 234 235 236 235 235 234 232 230 230 229 230 230 231 232 232 232 232 232 232 232 232 232 232 232 232 230 230 230 230 229 228 227 229 231 232 233 232 232 232 232 229 229 227 226 227 227 227 227 226 226 226 227 227 227 227 227 227 227 227 226 225 225 225 225 226 225 225 225 226 227 227 227 228 229 230 232 232 232 232 233 234 235 234 234 234 234 234 234 233 232 232 232 232 232 232 232 232 233 235 233 232 232 232 232 232 231 232 234 234 234 234 234 234 234 234 234 233 234 234 234 234 234 234 235 235 236 235 234 234 233 233 232 232 232 232 232 232 232 232 232 232 232 232 232 232 232 231 230 230 230 230 229 229 229 227 227 227 226 225 225 225 224 223 222 221 221 220 217 217 216 212 210 208 208 207 207 206 206 207 206 206 204 204 201 201 201 201 201 203 203 201 200 201 200 200 199 196 194 189 186 183 180 175 171 171 168 157 122 100 93 92 93 95 97 101 103 102 99 93 92 90 90 90 91 95 98 97 95 95 96 97 97 97 97 95 90 86 86 85 82 82 85 85 83 80 80 79 82 86 85 83 80 79 76 75 75 77 77 79 79 79 80 80 80 80 79 77 75 75 75 75 75 75 75 74 74 74 74 72 73 70 71 70 71 71 70 71 71 71 70 67 68 71 71 71 71 70 72 72 71 70 70 70 70 70 70 70 73 74 74 77 80 82 83 86 90 93 98 98 97 91 88 90 90 93 100 104 105 105 105 104 101 100 100 98 98 102 100 100 100 100 98 96 98 102 105 105 105 105 105 104 102 100 104 105 105 104 104 104 105 104 100 102 104 105 105 107 107 105 107 109 109 109 109 109 109 109 109 109 109 109 109 111 111 111 111 111 111 111 111 112 114 114 118 133 138 135 133 127 127 123 122 123 125 123 123 123 123 125 125 127 129 131 131 129 131 131 131 133 135 136 136 138 140 140 142 144 144 146 146 144 146 148 149 151 149 149 149 149 153 154 153 157 157 155 155 156 155 155 153 153 153 155
230 230 230 229 229 229 229 229 229 228 228 227 227 227 227 227 227 227 227 227 227 226 227 228 230 232 232 233 233 234 234 234 234 231 230 230 230 230 230 231 232 232 232 232 232 232 232 232 231 232 232 232 230 230 230 230 229 228 227 227 228 230 231 231 232 231 231 230 229 227 227 227 227 227 227 226 225 226 227 228 227 227 227 228 227 226 226 225 225 225 225 225 225 225 225 225 227 227 227 228 229 229 231 232 232 232 233 234 235 234 234 234 234 234 234 234 232 232 232 232 232 232 232 232 232 234 233 232 232 232 232 232 232 232 234 234 234 234 234 234 234 234 234 234 234 234 234 234 234 234 234 234 236 235 234 234 235 234 234 233 232 232 232 232 232 232 232 232 232 232 232 232 232 231 230 230 230 230 230 229 228 227 227 227 227 225 225 225 224 223 223 222 221 220 217 217 216 212 210 208 208 207 206 204 204 203 204 204 200 201 199 199 199 199 200 201 203 200 200 200 199 197 196 193 191 185 181 179 178 175 171 173 171 164 144 105 93 93 98 98 100 104 104 104 102 98 93 93 91 91 93 95 98 97 95 95 95 100 102 102 100 95 91 86 88 86 83 83 85 86 83 80 80 80 85 89 88 85 82 82 80 79 80 79 80 82 82 82 80 80 80 79 79 77 75 75 75 74 75 75 75 75 75 75 74 74 75 73 71 71 71 70 68 70 71 71 71 70 70 71 71 71 71 71 71 71 71 71 70 70 68 71 73 71 71 73 75 77 78 79 83 88 90 93 97 98 100 97 93 93 93 93 98 104 104 105 106 104 102 100 100 100 98 102 100 100 100 100 98 98 102 104 105 106 105 102 102 104 102 100 104 105 104 104 104 104 105 104 99 101 97 104 105 109 109 109 112 111 111 108 109 109 109 109 109 109 109 109 109 111 111 111 111 112 111 111 111 112 116 116 122 135 135 129 131 127 127 127 125 125 125 125 125 125 125 123 125 127 130 131 131 131 135 135 133 133 135 138 140 140 142 142 142 144 144 142 143 144 146 148 147 149 149 149 149 151 152 153 154 157 158 151 151 153 153 155 153 153 155 155
229 229 229 229 229 229 229 230 228 227 227 227 227 227 227 227 227 227 227 227 227 227 226 227 228 230 232 233 233 234 234 234 233 232 231 231 230 231 231 232 232 232 232 232 232 232 232 232 232 232 232 232 230 230 230 230 229 228 227 227 227 228 229 231 232 230 230 229 229 228 227 227 227 227 227 227 225 225 225 225 225 226 227 227 227 227 226 225 225 225 225 225 225 225 225 225 227 227 227 228 229 230 230 232 232 232 233 234 234 234 234 234 234 234 234 233 233 233 233 233 233 233 233 233 233 234 234 233 232 232 232 232 233 233 234 234 234 234 234 234 234 235 235 235 235 235 235 235 235 235 235 235 236 236 235 235 236 236 235 234 233 233 233 232 232 232 232 232 232 232 232 232 232 231 230 230 230 229 229 229 229 227 227 227 227 225 224 224 223 221 221 220 219 219 218 217 214 212 210 208 206 204 203 201 201 200 202 203 201 200 197 194 196 197 197 199 200 200 200 196 196 194 193 189 186 182 181 178 175 173 171 173 171 164 153 112 98 102 104 106 105 105 106 105 104 104 97 95 95 95 95 99 104 100 98 99 100 103 104 104 100 98 93 91 91 91 86 85 86 86 85 85 83 86 90 90 90 83 82 83 83 83 82 83 83 83 83 83 83 82 80 80 79 75 75 75 75 75 75 75 75 75 74 74 73 74 75 75 75 71 71 71 71 71 71 72 71 71 71 70 71 71 71 71 71 74 74 73 73 73 71 73 73 74 75 75 77 79 78 79 82 88 93 95 95 97 102 100 95 93 93 95 98 100 100 103 104 101 100 100 100 100 100 100 100 99 100 100 100 100 100 104 105 105 105 103 102 104 104 105 105 105 104 104 104 104 104 104 102 102 98 104 109 109 109 111 111 111 110 109 109 109 111 111 111 111 111 112 112 112 112 111 111 111 111 111 112 116 118 118 125 133 133 131 131 129 127 127 127 127 131 133 131 129 127 123 125 129 129 131 131 135 136 136 134 136 136 140 142 142 142 142 142 144 144 141 142 142 144 144 144 144 147 148 149 151 153 153 153 155 153 149 148 148 153 155 156 158 157 157
229 229 229 229 229 229 229 229 228 227 227 227 227 227 227 227 227 227 227 227 227 227 227 227 227 228 230 233 232 233 233 233 233 232 231 231 232 232 232 232 231 231 231 231 231 231 231 231 231 231 231 231 229 229 229 229 228 229 227 227 227 228 228 231 231 230 230 230 229 228 227 227 227 226 226 226 225 225 225 225 224 225 226 226 226 226 226 225 225 225 225 225 225 225 225 226 226 227 228 228 229 230 231 232 232 233 234 234 234 234 235 235 235 234 234 234 234 234 234 234 234 234 234 234 234 235 235 234 233 233 233 233 234 234 234 234 234 234 234 235 235 236 236 235 236 236 236 236 236 236 235 235 235 235 236 235 235 235 236 236 233 234 234 232 232 233 233 232 232 232 232 232 232 232 231 231 230 230 229 229 229 227 227 226 225 223 224 223 223 221 220 220 219 219 218 216 213 212 211 207 205 201 200 199 199 200 201 201 200 200 197 194 191 193 193 194 196 200 200 197 196 194 193 188 186 182 181 180 176 175 171 172 170 160 149 112 100 102 101 105 106 105 105 105 104 102 100 98 98 98 98 100 104 102 100 100 100 102 102 102 100 97 93 93 93 93 90 90 88 88 90 88 88 90 90 90 90 85 83 83 83 83 82 83 83 83 83 83 83 82 80 80 77 75 74 74 74 75 75 75 75 74 74 73 73 74 74 76 73 71 71 71 71 71 71 71 71 71 71 71 71 71 71 70 71 73 73 73 73 74 75 74 74 75 75 79 79 82 82 80 82 86 95 95 95 95 98 97 97 95 97 98 98 100 100 104 104 102 102 100 100 100 102 102 102 102 100 100 101 102 100 104 105 105 105 104 105 109 107 105 105 105 105 104 104 104 104 104 104 104 100 105 111 109 109 111 111 111 111 108 109 109 111 112 112 112 116 116 114 114 114 112 112 112 112 114 116 120 122 120 125 131 133 134 131 129 127 127 127 127 131 133 133 133 131 125 129 132 131 129 131 135 135 135 135 136 138 140 140 140 140 140 140 143 142 138 138 140 142 143 142 144 146 146 148 149 151 151 153 151 148 149 149 148 153 155 155 157 157 157
228 228 229 229 229 229 229 229 228 227 227 226 227 227 227 227 226 227 227 227 227 227 227 227 227 227 228 231 231 232 232 232 232 232 231 231 231 232 232 232 232 232 232 231 231 231 231 231 231 231 230 230 229 228 228 228 228 229 227 227 226 227 227 227 230 230 229 228 228 228 227 228 227 227 226 226 226 226 226 226 225 225 225 225 225 226 225 225 225 225 225 225 226 225 226 227 227 228 228 228 230 231 232 232 233 234 234 234 234 234 235 236 236 236 234 234 234 234 234 234 234 234 233 234 234 234 234 234 234 234 234 234 234 234 234 235 234 234 234 235 235 236 236 236 236 236 236 236 236 236 235 235 236 236 236 236 236 236 236 236 236 235 233 233 233 234 233 232 232 232 232 232 232 232 232 231 230 229 229 229 230 228 227 225 224 223 222 222 221 220 219 219 219 219 217 213 211 211 207 204 204 200 196 194 196 199 200 201 200 198 195 193 191 189 186 188 191 194 194 194 194 193 191 189 185 181 180 180 176 175 171 171 168 144 129 107 102 104 104 104 105 105 105 105 105 102 100 100 100 100 100 100 100 100 100 100 100 100 100 100 101 97 92 95 93 94 91 90 90 90 90 90 90 90 90 88 88 86 85 83 83 79 80 80 80 80 80 80 79 80 80 78 77 75 73 73 74 77 77 76 77 74 76 74 74 75 75 74 73 73 71 71 72 71 72 71 71 71 71 73 73 74 73 71 73 75 74 74 75 75 77 79 79 79 80 80 80 82 82 82 83 86 91 93 94 93 97 98 95 95 95 97 98 98 98 100 102 103 102 100 100 100 102 105 104 105 100 102 104 104 105 105 105 106 105 105 107 109 107 105 105 105 106 105 105 105 105 105 102 102 104 109 109 111 111 111 111 111 111 109 109 109 112 114 115 114 114 114 117 114 114 111 111 114 114 116 122 122 125 127 130 131 131 129 127 127 127 127 127 127 127 129 131 133 132 131 135 133 129 129 133 135 136 136 138 138 138 138 137 140 140 140 140 138 138 138 138 138 140 140 141 145 144 144 146 148 151 153 155 151 149 153 155 153 155 155 155 155 158 157
225 227 228 229 229 229 229 229 229 228 227 227 227 227 227 227 227 227 227 227 227 227 227 227 227 227 227 228 229 231 232 232 232 232 232 232 232 232 232 233 232 232 232 232 232 232 232 232 232 231 230 229 229 229 229 229 228 228 227 227 226 225 225 228 228 230 229 229 229 229 229 229 228 227 226 227 227 227 227 226 225 225 225 224 225 225 225 226 226 226 226 226 225 225 227 227 227 228 229 229 229 231 232 232 232 234 234 234 234 234 235 236 236 236 235 235 235 235 235 235 235 235 235 235 235 235 234 234 234 234 234 234 234 234 234 234 234 234 234 235 236 236 236 236 236 236 236 236 236 236 236 236 236 236 237 237 237 237 237 237 237 236 234 234 234 234 233 232 233 232 231 232 232 232 232 231 230 229 229 229 229 227 227 225 225 224 222 221 221 220 219 218 217 217 214 212 210 208 207 203 201 196 193 191 194 197 199 200 199 196 193 189 191 188 185 185 186 189 189 191 191 191 189 188 183 181 178 176 175 175 172 174 164 127 112 105 105 107 107 107 105 105 105 105 104 102 100 100 100 100 98 98 97 98 100 100 100 100 100 100 101 98 97 98 95 93 91 90 92 91 91 90 90 90 90 88 88 85 85 83 82 82 80 80 80 79 80 80 80 80 80 80 79 77 73 74 74 79 79 79 79 77 77 75 75 75 74 75 73 73 72 71 71 71 71 71 72 71 71 73 75 77 75 75 75 76 79 77 75 77 80 79 80 80 82 79 80 83 83 83 85 88 92 93 93 93 97 98 97 97 95 97 99 97 97 100 100 104 102 102 102 103 102 103 104 104 102 102 104 105 109 107 107 107 107 107 107 108 105 105 105 107 105 105 107 107 105 102 97 98 104 107 107 111 111 111 111 110 109 109 111 111 112 113 114 114 114 112 111 113 114 112 112 112 114 118 123 127 127 127 129 131 129 129 127 127 127 127 127 130 129 129 131 134 133 135 136 135 133 133 135 136 140 140 138 138 138 138 138 140 140 141 140 136 136 138 139 138 140 140 142 144 144 144 148 149 153 155 157 155 154 155 155 155 155 156 155 155 157 159
225 226 227 227 227 228 229 229 229 229 228 227 227 227 227 227 227 227 227 227 227 227 227 227 227 228 227 227 229 230 231 232 231 231 231 231 231 232 232 232 232 232 232 232 232 232 231 231 231 230 230 230 229 229 229 228 227 227 227 226 225 225 225 225 227 229 229 229 229 228 228 228 229 228 227 227 227 228 227 226 225 225 225 225 225 225 225 227 227 227 227 226 225 225 226 227 227 228 228 229 230 232 232 232 232 233 234 234 234 234 235 236 236 236 236 236 236 236 236 236 236 236 236 236 236 236 235 234 234 234 234 234 234 234 234 234 234 234 234 235 236 236 236 236 236 236 236 236 236 236 235 236 236 236 237 237 237 237 237 237 238 237 236 234 234 233 234 234 234 234 232 232 232 232 231 231 230 229 229 229 229 227 227 225 225 224 220 221 220 219 217 216 214 213 211 210 208 206 201 197 196 191 191 191 193 195 197 196 196 196 191 191 189 188 186 185 185 183 185 186 186 187 186 185 181 178 176 176 175 175 173 171 157 111 108 109 109 109 109 109 107 104 104 104 102 100 100 100 98 98 98 97 96 97 97 100 100 100 100 98 97 97 98 98 95 92 93 93 93 93 93 91 90 90 90 88 86 85 85 85 83 83 82 80 80 80 80 80 80 80 80 79 79 77 75 75 75 80 79 80 80 80 79 79 75 75 75 75 73 73 73 73 71 72 71 71 71 71 73 76 75 75 75 75 77 79 79 77 75 77 79 79 80 83 83 80 80 84 83 83 83 88 91 93 91 93 97 98 98 98 98 98 98 97 98 100 100 104 104 104 104 104 104 104 104 104 104 104 105 107 109 109 109 109 108 110 107 105 105 105 107 109 106 105 105 105 104 102 98 100 105 105 109 111 111 111 111 111 109 111 114 114 114 114 114 115 114 111 111 111 114 116 115 118 123 123 125 126 126 128 129 132 127 127 127 127 127 125 127 131 129 129 131 133 133 136 136 136 136 135 136 136 138 139 138 138 138 138 138 138 138 138 138 138 138 135 136 138 138 138 140 142 144 144 146 148 151 157 159 155 155 155 155 155 156 155 155 155 157 159
224 225 225 226 227 228 228 229 229 229 229 228 227 227 227 227 227 227 227 227 226 226 226 226 226 225 225 226 228 230 231 231 231 232 232 232 232 232 232 232 232 232 232 232 232 232 231 231 230 229 229 229 228 228 228 228 227 227 227 227 226 225 224 224 226 228 228 229 228 229 229 229 229 229 228 227 227 227 227 226 226 225 225 225 225 225 225 225 226 227 227 227 226 226 227 227 227 228 229 230 231 232 232 232 234 234 234 234 235 235 236 236 236 236 237 236 235 236 236 238 237 236 235 236 236 236 236 235 235 235 234 234 234 234 234 234 234 235 235 236 236 235 235 236 236 235 236 236 236 236 236 236 237 237 238 238 238 238 238 238 238 238 236 235 234 233 234 234 234 234 233 232 232 232 232 232 231 230 229 228 228 227 227 225 226 223 223 221 219 217 213 212 212 210 206 207 206 201 197 193 193 191 191 190 193 196 196 196 196 194 191 191 189 188 186 186 186 185 185 183 183 185 185 185 184 180 178 175 175 174 173 169 146 111 110 109 110 109 107 105 102 98 97 98 98 97 97 97 95 95 97 95 95 97 98 98 98 100 100 97 98 98 98 97 93 93 93 92 93 93 93 93 91 90 88 90 89 88 88 88 86 83 83 83 82 82 80 80 80 80 80 80 79 75 75 77 79 79 80 80 80 81 80 79 77 77 77 75 74 73 73 73 71 70 71 71 71 73 73 74 75 77 74 75 77 79 77 77 75 75 77 79 80 82 83 82 82 83 82 83 85 88 91 95 97 97 98 98 98 97 97 98 100 98 102 104 104 104 104 104 104 104 104 105 103 104 104 104 105 105 107 109 108 109 109 107 107 105 107 107 109 109 107 107 105 105 106 105 105 107 109 111 112 111 110 109 112 112 112 114 114 114 114 114 116 114 114 114 112 112 115 122 122 126 129 127 127 127 125 127 127 127 125 125 125 127 127 127 128 131 131 129 131 133 133 135 135 136 136 136 136 136 135 138 140 138 136 136 136 136 135 136 136 138 138 136 136 138 139 138 140 142 142 144 148 148 151 155 158 157 157 155 155 154 155 155 155 155 155 157
224 225 225 227 227 227 227 229 229 229 228 229 228 227 227 227 227 227 227 226 226 225 225 225 225 225 225 226 227 229 229 230 231 232 231 231 232 232 232 232 232 232 232 232 232 232 232 232 230 229 228 229 227 227 227 227 227 227 226 227 227 224 222 224 226 227 228 227 228 229 228 228 228 228 229 228 227 227 226 226 227 225 225 225 225 225 225 225 226 227 226 226 227 227 226 227 227 228 228 230 232 232 232 233 234 234 234 235 235 236 236 236 236 236 238 238 238 238 238 239 238 236 236 236 236 236 236 236 236 235 234 234 234 234 235 234 234 235 236 236 235 234 234 236 235 234 235 236 236 236 236 236 237 238 238 238 238 238 238 238 238 238 236 235 235 234 234 234 234 233 232 232 231 232 232 232 232 230 228 227 227 227 227 225 224 224 221 221 219 217 213 211 211 207 204 204 201 197 191 191 191 191 191 191 193 194 194 196 194 193 191 191 189 188 187 186 186 186 183 181 180 185 185 185 181 180 178 176 175 175 175 160 120 107 107 109 109 105 105 102 97 97 97 97 97 98 96 94 96 95 95 95 95 97 98 98 98 100 100 98 98 98 99 96 91 93 93 93 93 93 93 93 93 89 90 90 90 90 90 89 86 83 83 83 83 83 80 80 80 79 80 79 76 75 75 75 79 81 80 80 80 80 79 76 79 79 79 77 75 74 73 73 71 70 71 71 71 73 74 73 74 74 75 75 77 79 75 75 75 75 75 79 80 82 83 80 80 82 82 83 83 88 91 97 98 98 98 98 98 98 98 100 104 105 107 105 105 104 104 104 104 104 104 102 104 104 104 104 102 104 104 107 109 109 107 105 105 105 107 109 110 109 109 110 104 104 104 107 109 109 109 111 111 111 111 111 112 114 115 114 115 114 114 114 116 116 114 114 114 114 122 125 125 127 127 127 127 126 127 127 125 123 123 125 123 125 127 127 127 131 133 130 131 133 133 133 135 136 136 136 136 135 135 136 138 136 135 135 136 135 135 135 136 138 138 139 138 138 138 138 140 140 142 146 146 150 153 153 155 156 159 155 155 155 154 154 155 155 153 151
223 223 225 225 227 227 228 228 228 228 228 229 228 227 227 227 226 226 226 225 225 225 225 224 224 223 224 225 227 228 229 230 230 231 232 232 232 232 232 232 232 232 232 232 232 232 232 232 231 229 228 227 227 227 227 227 227 227 227 227 227 225 224 224 225 226 226 227 227 228 228 229 229 229 229 229 228 228 227 227 227 227 226 225 225 225 225 225 227 227 227 227 227 227 227 227 227 227 229 231 232 232 232 233 234 234 234 235 236 236 236 236 237 237 238 238 238 238 238 239 238 238 237 237 237 236 236 236 236 236 235 235 235 235 235 235 235 235 236 236 236 235 235 236 235 234 235 236 236 236 235 236 238 238 238 238 238 239 239 239 239 238 238 239 237 237 235 236 234 234 232 232 232 232 232 232 232 231 229 228 228 227 227 225 225 224 223 220 219 216 213 211 210 208 206 204 201 196 189 189 189 189 188 191 191 193 194 196 194 194 194 191 189 187 188 186 186 185 185 181 181 183 184 183 180 178 176 176 173 171 162 127 108 107 111 109 107 102 100 99 98 98 98 97 97 97 95 95 97 93 91 91 93 95 95 95 95 98 98 97 97 95 95 93 91 91 93 93 93 93 93 93 93 91 90 90 90 88 88 86 85 85 85 85 85 85 82 79 80 80 80 80 79 78 77 80 83 85 85 85 86 83 80 77 79 79 77 75 75 75 74 71 70 70 71 71 71 74 74 74 73 74 74 75 75 75 74 74 75 75 75 77 78 79 82 79 79 82 85 85 85 90 95 97 98 98 97 98 100 102 102 100 105 105 106 105 105 105 105 105 102 102 100 100 100 102 104 104 105 105 107 109 109 109 109 107 106 107 107 109 109 109 109 109 105 102 105 105 107 107 109 111 111 111 111 115 114 114 114 114 114 114 114 114 114 114 112 111 114 118 125 125 125 124 125 125 125 125 123 123 123 123 125 125 123 122 127 127 127 131 133 133 133 133 133 133 133 135 135 135 136 136 135 135 135 135 133 135 136 136 136 135 136 136 136 138 136 138 140 140 142 144 146 148 149 149 153 153 153 155 156 156 155 153 153 155 153 153 153 153
222 223 224 223 225 225 227 227 227 227 228 229 228 227 227 226 225 225 225 225 225 225 225 224 224 224 223 224 226 227 229 230 230 230 231 231 232 232 231 232 232 232 232 232 232 232 231 231 230 228 226 225 227 227 227 227 227 227 228 227 226 225 225 223 223 223 226 226 228 228 228 228 228 228 228 228 228 228 227 227 227 227 226 225 225 225 225 225 225 226 226 226 226 226 226 227 227 227 228 231 232 232 232 234 234 234 235 236 236 236 236 236 238 238 238 238 238 238 238 238 238 238 237 237 237 236 236 236 236 236 236 236 236 236 236 236 236 236 236 236 236 236 235 236 235 234 235 235 235 235 235 236 237 238 238 238 238 239 239 239 239 237 238 237 237 236 236 236 235 234 233 232 232 232 232 232 232 231 230 229 229 228 227 225 224 223 222 219 218 216 213 211 211 210 207 206 201 197 188 187 189 189 189 191 190 191 194 196 194 194 194 191 189 189 189 188 186 185 185 183 181 181 181 181 180 175 175 175 171 166 155 120 111 107 107 102 100 100 98 98 97 97 97 95 95 95 95 97 97 93 90 91 93 94 91 91 92 93 92 91 91 91 91 93 91 90 94 93 94 93 93 93 93 93 93 92 90 88 88 85 85 85 85 85 85 85 83 80 79 80 80 79 79 80 82 83 86 88 90 91 91 90 81 77 75 77 75 75 75 75 73 70 68 70 72 71 71 73 73 73 74 74 74 74 74 74 74 74 75 75 75 77 77 79 80 77 77 80 83 85 86 93 97 98 102 102 98 101 100 104 104 100 104 105 105 105 105 105 105 104 100 100 100 100 100 101 104 104 105 107 109 109 109 109 109 109 109 109 109 109 109 108 109 109 109 105 105 105 105 107 109 113 111 111 112 113 114 115 114 114 114 114 114 114 112 114 117 122 125 127 129 125 125 125 125 125 125 125 123 122 122 122 123 125 125 125 127 127 127 131 133 133 133 133 133 133 134 133 133 131 134 135 132 131 131 131 127 131 135 135 135 135 135 135 136 138 138 142 144 144 144 144 145 148 149 149 151 152 150 154 155 155 153 151 151 151 151 151 153 155
222 222 222 223 224 225 225 227 227 227 227 228 227 227 226 225 224 224 224 224 224 224 224 224 224 224 224 227 226 227 228 229 229 230 231 231 232 232 231 232 232 232 232 232 232 232 231 231 231 228 225 224 224 226 227 227 226 227 227 226 226 224 223 223 223 223 224 225 226 227 227 227 228 228 228 228 228 228 228 227 227 227 226 226 226 225 225 225 225 225 226 226 225 226 226 227 227 227 228 231 232 232 233 234 234 234 235 236 238 238 238 238 238 238 238 238 238 238 238 238 238 238 238 237 237 237 236 236 236 236 236 236 236 236 236 236 236 237 236 236 236 236 236 236 236 234 234 235 235 235 236 237 238 238 238 238 239 240 240 240 240 239 239 238 238 238 237 236 236 236 234 234 232 232 232 232 232 231 230 229 229 227 227 226 225 223 220 218 218 217 214 212 211 210 208 208 204 199 193 190 189 189 188 186 188 191 195 194 196 196 194 194 191 191 191 189 189 188 186 185 185 181 180 181 180 176 174 171 168 164 157 125 104 102 100 98 97 98 98 97 97 95 97 98 97 97 98 100 99 96 93 93 93 90 90 90 88 88 88 88 88 90 90 91 90 90 91 91 91 91 93 93 93 95 97 91 90 88 88 85 86 88 88 88 86 85 82 82 79 80 79 82 83 85 85 86 91 91 96 98 95 90 82 75 75 74 74 74 74 73 71 71 70 71 71 71 71 73 73 71 74 71 71 71 73 74 75 74 74 75 75 75 75 77 79 78 79 82 82 83 88 93 98 97 102 102 105 105 104 104 102 100 102 104 104 105 105 103 105 104 99 99 102 104 100 101 104 104 105 107 109 109 109 111 111 111 111 109 109 109 109 109 109 109 109 109 109 105 105 109 109 111 112 114 115 114 111 112 112 114 115 113 116 112 112 116 123 127 129 131 131 127 127 125 125 125 125 125 123 122 125 128 129 129 129 129 127 128 129 131 133 133 132 133 132 133 133 133 133 133 131 131 131 128 129 129 130 133 136 135 135 135 136 137 138 138 138 142 146 146 143 144 146 146 146 148 149 152 152 153 153 155 153 151 151 151 149 151 157 157
222 222 222 223 224 225 225 226 227 227 227 227 226 226 226 224 223 223 223 223 223 222 223 223 223 223 223 224 225 226 227 229 229 230 231 232 232 232 232 232 232 232 232 232 232 232 232 232 232 229 227 225 224 225 226 226 227 226 226 226 226 224 223 224 224 223 225 225 226 226 227 227 228 229 229 229 229 229 229 228 227 227 227 228 226 225 225 225 225 225 226 226 226 226 227 228 228 228 229 230 232 232 232 233 234 234 234 236 237 238 238 238 238 238 238 238 238 238 238 238 238 238 238 238 238 238 237 235 236 236 237 236 236 236 236 237 236 237 236 235 236 236 236 236 235 234 235 236 236 236 237 238 238 238 238 239 240 240 240 240 240 240 239 238 238 238 237 236 236 236 234 233 232 232 232 232 232 231 230 229 229 227 227 226 225 224 220 219 219 218 216 213 211 210 208 207 204 199 194 189 189 189 188 186 186 191 194 194 196 196 194 193 191 191 191 189 190 186 186 185 182 181 181 181 178 176 175 169 168 164 159 133 102 102 100 98 98 98 98 98 97 95 97 98 98 100 100 101 98 98 97 97 93 90 90 88 86 87 86 87 88 90 90 90 90 90 90 90 90 90 91 93 93 93 95 91 90 88 86 85 85 89 88 88 86 85 85 83 83 84 80 82 83 85 85 86 91 91 95 98 93 82 74 74 75 75 73 74 73 73 71 71 71 71 71 71 71 73 73 71 72 71 71 71 74 74 74 74 75 75 75 76 75 77 79 79 79 83 83 85 89 91 97 98 104 104 105 106 104 104 100 98 100 102 102 100 102 104 104 104 100 100 102 104 100 100 104 104 105 107 109 110 109 111 111 111 112 109 109 109 109 109 109 109 109 109 109 104 105 109 109 111 111 112 112 109 109 111 111 109 113 114 114 112 112 116 125 125 125 129 131 130 127 125 125 125 125 125 123 122 125 127 131 131 131 129 127 129 131 133 133 133 133 133 134 133 133 133 133 133 131 131 131 131 132 131 133 135 136 137 136 136 136 138 138 138 138 142 142 142 144 145 148 148 148 148 149 151 151 151 151 155 155 153 153 153 151 153 157 159
222 222 222 222 222 223 223 224 225 225 225 225 225 225 224 224 222 222 222 222 222 222 222 222 222 222 222 222 223 225 226 227 228 229 231 232 232 232 232 231 232 232 233 232 232 232 232 232 231 228 226 223 224 224 225 225 225 225 225 225 224 224 224 224 224 223 224 224 224 225 225 227 227 227 229 229 229 229 229 229 229 227 227 227 227 226 226 227 226 225 225 225 225 226 227 227 227 228 229 230 230 231 232 232 233 234 235 236 235 238 238 238 239 239 239 239 239 239 239 240 239 238 238 238 238 238 237 235 236 236 236 236 236 236 236 236 236 236 236 236 236 236 236 236 235 234 235 236 236 236 237 238 239 238 238 239 240 240 240 240 240 240 240 240 239 237 237 237 236 236 234 232 232 232 232 232 232 231 229 230 230 227 227 227 224 224 222 220 220 218 218 214 212 210 208 206 201 199 194 191 191 191 191 193 196 203 197 196 196 196 194 191 191 191 191 189 190 189 189 185 185 183 186 181 178 176 171 168 166 160 159 126 107 105 104 102 102 100 100 100 100 102 102 102 104 104 102 102 98 97 98 98 98 95 89 88 86 85 84 85 85 88 88 90 87 88 90 90 90 90 90 91 93 93 93 93 91 90 85 85 85 85 86 88 88 85 85 85 83 83 82 85 86 90 91 90 93 95 95 97 85 75 74 73 74 74 74 73 71 71 71 71 71 71 71 73 73 74 73 73 73 73 74 74 74 74 74 74 74 74 75 77 78 80 80 80 83 85 85 85 86 90 95 105 105 104 104 104 104 103 100 100 100 100 100 98 100 104 104 105 103 100 102 107 104 104 108 109 111 111 111 108 109 111 111 111 111 111 111 111 111 111 109 109 109 107 105 105 105 107 109 112 110 110 112 110 109 111 112 112 114 116 114 114 116 118 122 122 127 131 131 131 131 131 129 127 125 125 125 123 129 131 131 131 131 131 131 131 131 131 131 131 131 131 131 131 131 132 129 127 129 131 131 131 131 131 133 135 136 136 136 136 136 138 138 138 140 142 142 140 145 144 146 148 148 148 149 149 149 149 149 150 153 153 154 153 153 155 157 159
222 222 222 222 222 221 221 222 223 225 225 224 225 225 224 223 222 222 222 222 222 222 222 222 222 222 222 222 223 225 225 224 227 229 231 231 231 231 232 232 232 232 232 232 232 232 232 231 230 228 226 223 223 223 225 224 225 225 225 226 225 224 224 224 224 223 224 223 224 224 225 226 227 226 228 228 228 228 228 228 229 227 227 227 227 227 227 228 226 225 225 225 226 225 226 227 226 227 228 229 230 231 232 232 233 234 235 236 236 237 238 238 239 240 240 240 240 240 240 240 240 238 238 238 239 238 237 236 236 236 236 236 236 236 236 236 236 237 236 236 236 236 236 235 235 234 234 235 235 236 237 237 238 238 238 239 240 240 240 240 240 240 240 241 239 238 238 238 237 236 234 233 232 232 232 232 232 231 230 230 230 227 227 227 225 224 222 220 220 218 217 214 213 211 208 206 201 199 196 193 192 191 193 203 214 220 201 194 196 196 194 193 191 191 191 188 189 189 189 188 188 185 185 180 179 176 173 168 166 160 151 118 109 107 107 105 104 100 98 101 100 104 105 104 104 102 98 98 95 97 98 98 98 97 95 90 86 86 86 85 86 88 90 90 90 88 90 90 90 90 90 91 93 93 93 93 93 90 86 86 86 86 87 88 87 88 86 86 83 83 84 85 88 93 95 94 97 97 95 91 80 74 74 74 74 73 74 73 71 71 71 71 71 71 71 74 74 74 74 74 74 74 74 74 74 74 74 74 74 74 75 77 79 79 80 82 83 85 85 85 86 90 93 100 104 104 104 104 104 102 102 100 100 102 102 104 104 104 104 104 102 102 102 107 109 109 109 109 111 111 111 112 113 111 111 111 110 111 111 111 111 112 109 109 109 109 105 105 105 107 109 111 111 111 111 111 111 112 114 114 116 116 116 117 120 122 122 123 129 131 131 131 131 131 131 129 127 125 125 125 129 131 131 131 131 131 131 131 131 131 131 131 129 129 129 129 129 127 127 127 129 129 129 129 129 131 133 135 136 136 135 134 135 136 136 138 140 142 141 140 142 144 148 148 148 148 149 150 149 149 149 153 153 153 153 153 153 155 157 159
222 221 221 221 221 222 222 222 222 224 224 224 225 224 222 221 222 222 221 221 221 221 221 221 220 222 222 220 222 224 224 225 226 228 230 230 230 230 231 232 232 232 232 232 233 232 232 230 229 227 225 223 222 222 223 224 224 224 225 224 223 224 224 224 223 222 222 222 222 223 223 225 226 226 227 227 227 227 228 228 228 227 227 227 227 226 226 226 225 225 225 225 225 225 226 226 226 227 227 228 229 229 231 232 233 234 234 236 237 238 238 238 239 240 240 240 240 240 240 240 239 238 238 238 238 238 237 236 235 236 236 236 236 236 236 236 236 236 236 235 236 236 236 234 234 234 234 234 234 236 236 236 237 238 239 240 240 241 241 240 241 240 240 239 240 239 238 238 238 236 235 233 232 232 232 232 232 231 230 230 230 227 227 227 227 225 222 222 221 219 217 217 214 210 206 206 201 200 200 196 191 191 193 201 212 219 203 196 200 189 191 193 194 191 188 189 189 189 189 189 189 186 185 181 180 176 173 168 164 161 133 111 112 106 107 105 105 102 98 100 100 97 100 100 97 97 93 93 93 92 95 95 95 95 95 93 88 88 88 86 86 88 88 88 89 90 90 90 90 90 92 93 93 93 93 93 93 91 91 88 88 88 88 88 88 88 88 89 86 86 88 88 91 93 93 93 93 95 91 85 75 75 74 73 73 73 73 73 71 71 71 71 71 71 71 73 74 74 74 75 74 74 74 74 74 74 74 74 74 74 75 77 79 79 80 82 83 86 86 86 88 90 91 97 98 97 100 100 100 102 104 104 102 104 104 104 104 102 104 106 104 104 104 107 111 111 111 110 110 111 111 113 114 111 111 111 111 109 109 109 109 109 109 110 109 109 105 105 105 107 109 109 109 111 111 109 111 113 114 114 116 116 119 120 120 120 123 129 131 130 131 131 131 131 132 131 129 127 129 131 130 131 131 131 131 131 131 131 131 131 131 129 125 127 127 128 127 127 125 127 129 129 129 129 131 133 133 135 135 135 135 135 134 135 135 136 140 140 140 140 142 144 148 149 149 149 149 149 149 151 151 153 155 153 156 157 157 157 159 160
222 220 219 220 220 221 222 222 222 222 223 223 223 223 222 222 222 222 221 221 220 220 220 220 220 221 220 221 222 223 223 225 224 226 228 228 229 230 232 232 232 232 232 232 233 233 232 229 228 227 224 222 222 222 223 223 224 224 225 224 224 224 224 224 224 222 222 222 223 223 224 225 227 227 227 227 227 227 227 227 228 227 227 227 227 227 227 227 226 225 225 225 225 225 227 227 227 227 227 228 229 230 231 232 233 233 234 235 236 237 237 238 239 240 240 240 241 240 239 240 240 238 238 238 238 238 237 237 236 236 236 236 236 236 236 236 236 236 236 236 236 235 235 234 234 234 235 234 235 236 236 236 237 238 239 240 240 241 241 241 241 242 241 240 240 240 238 238 238 236 235 234 233 232 232 232 232 231 231 230 230 228 227 227 227 226 223 223 222 220 219 218 216 212 207 206 203 201 201 196 193 193 193 199 208 214 211 208 197 166 180 194 196 191 189 189 189 189 189 190 189 186 183 181 180 178 175 172 169 162 127 111 109 107 107 103 104 104 100 97 97 95 93 91 92 90 90 90 91 93 93 95 95 97 97 95 93 90 90 91 90 88 88 86 90 91 91 91 91 91 95 92 93 93 93 93 93 93 93 88 88 88 88 88 88 88 88 88 89 90 90 91 95 92 93 91 91 87 86 83 75 75 73 74 74 74 74 73 71 71 71 71 71 71 71 74 74 74 74 74 74 74 74 74 74 74 74 74 75 74 75 78 80 80 80 82 85 89 88 88 91 90 91 95 93 93 100 100 100 102 105 104 104 104 104 104 104 107 109 107 107 105 107 109 114 114 114 112 112 112 112 112 114 112 112 111 111 109 109 109 109 109 110 109 109 109 107 107 107 108 109 109 109 111 111 109 111 114 114 114 116 118 118 118 120 119 122 127 129 129 131 129 129 129 130 128 129 127 129 131 131 131 129 129 131 131 129 129 129 127 127 128 125 127 127 127 127 127 127 129 133 133 131 131 133 135 135 135 136 136 136 136 136 136 136 140 142 142 142 143 144 146 149 149 151 152 151 151 151 151 153 157 157 159 160 162 160 159 162 162
221 220 219 220 220 219 219 221 221 220 222 223 222 222 222 222 222 222 221 220 219 219 219 219 219 220 220 221 221 222 223 224 224 226 227 227 229 229 231 232 233 232 232 231 232 232 231 228 227 225 223 222 221 222 222 222 224 225 224 224 225 224 224 224 224 222 222 222 222 222 224 225 226 226 226 226 226 226 226 227 227 227 227 227 227 227 227 226 226 225 224 225 225 225 226 226 226 227 227 228 228 229 231 232 232 232 233 234 235 236 237 237 238 238 239 240 240 240 241 240 241 239 238 238 238 238 238 238 237 236 236 236 236 236 236 236 236 236 236 236 236 234 234 234 234 234 234 234 235 236 236 236 236 237 238 240 240 241 241 241 241 241 241 240 240 239 239 238 238 236 235 235 234 233 232 232 232 232 232 230 230 229 228 227 228 227 224 224 223 221 219 219 217 213 211 208 206 203 200 196 191 189 188 192 197 201 199 185 153 140 151 186 193 191 189 189 189 189 189 189 188 185 181 181 180 180 178 178 171 146 118 105 102 104 103 100 100 104 102 100 98 93 90 90 88 86 86 86 90 93 91 91 95 98 98 97 95 95 91 93 91 90 90 90 91 93 93 93 95 95 95 95 93 93 93 93 93 93 91 90 90 90 88 86 90 90 90 90 90 91 93 93 93 93 93 90 90 85 85 80 76 74 74 74 74 74 74 73 71 71 70 71 71 71 71 74 74 74 74 74 74 74 74 75 74 74 74 74 73 74 75 77 79 81 80 80 85 86 88 90 90 90 93 95 95 95 97 98 101 102 104 104 104 105 105 109 109 111 112 111 111 114 112 112 116 117 114 114 115 114 114 114 114 114 114 111 111 111 111 111 111 111 109 109 109 109 109 109 109 110 111 111 111 109 109 111 112 114 114 116 118 120 120 120 122 122 122 125 127 127 127 127 127 126 127 127 127 127 129 131 131 131 127 127 131 129 126 127 127 127 127 127 127 127 127 127 127 129 131 133 133 133 133 133 133 133 136 136 135 135 135 135 135 138 138 142 140 140 142 144 144 148 149 149 151 151 151 151 151 151 157 160 160 164 164 164 164 162 162 164
221 220 218 218 218 218 219 221 220 221 221 221 221 221 221 221 221 221 221 220 219 219 219 219 218 220 220 220 220 221 222 224 224 225 227 227 228 230 232 232 232 232 232 231 230 230 229 227 226 224 223 222 222 222 222 222 223 223 224 223 223 224 224 224 224 222 222 222 222 223 223 224 226 227 227 227 227 227 227 227 227 227 227 227 227 227 227 227 226 226 226 226 225 226 226 227 227 227 227 228 228 229 230 231 231 232 232 233 234 235 236 236 237 238 238 238 239 239 240 240 240 239 238 238 238 238 238 237 237 236 236 236 236 236 236 236 235 235 235 235 235 234 234 234 234 234 234 234 234 235 235 236 236 237 238 240 240 240 241 241 241 241 241 242 240 240 240 239 238 236 236 235 234 234 233 234 232 232 232 230 229 229 227 226 226 225 224 223 222 221 219 218 217 216 213 212 210 204 201 196 189 176 173 168 162 170 159 141 136 135 133 163 186 189 186 187 186 188 188 188 188 185 183 181 180 178 176 171 155 122 104 102 100 100 98 98 101 103 104 102 100 95 91 88 88 88 88 88 90 91 90 93 93 97 96 97 97 97 95 95 95 93 93 93 93 93 93 93 95 95 93 93 93 91 92 93 93 93 93 90 90 90 90 90 90 90 90 90 90 91 93 93 93 91 93 91 88 84 82 80 75 75 74 74 74 74 75 74 71 71 71 71 71 71 71 73 73 74 74 74 74 74 75 75 74 74 74 74 75 75 77 79 80 80 81 81 83 88 88 90 90 91 93 95 95 95 97 98 98 100 102 104 105 107 109 111 111 112 114 117 116 118 118 118 120 118 116 116 116 114 114 114 116 114 114 112 112 111 111 111 111 111 111 111 108 109 111 111 109 111 111 109 109 109 109 111 110 112 112 114 118 121 122 122 122 122 122 123 125 125 125 125 125 125 125 125 127 127 129 131 131 131 127 127 129 129 127 126 127 127 127 127 127 129 130 129 131 133 133 133 133 133 133 133 133 133 135 135 137 135 136 137 136 138 138 142 143 142 143 144 146 148 149 153 153 153 151 153 153 157 160 164 164 166 166 166 166 164 164 164
221 218 217 219 218 218 218 218 219 221 221 221 221 221 221 221 221 221 221 220 219 219 219 219 219 219 219 219 219 221 221 221 224 225 226 227 228 229 231 231 231 231 232 230 230 229 228 227 225 224 223 222 222 222 222 222 222 222 224 223 222 224 224 224 223 222 222 222 222 222 223 224 226 227 227 227 228 227 227 227 226 227 227 226 227 227 227 226 227 227 227 227 225 225 226 227 226 227 227 227 227 228 229 230 230 232 232 233 233 234 235 236 237 238 237 237 238 238 239 239 240 238 238 238 239 238 237 236 236 236 236 236 236 236 236 236 234 234 234 234 234 234 234 234 234 234 234 234 234 234 234 236 236 236 238 239 241 240 240 241 241 241 241 241 241 240 240 240 240 238 236 237 236 234 235 233 232 232 232 229 229 228 226 225 224 223 222 221 221 220 219 219 218 217 214 212 210 206 201 197 183 171 160 149 144 140 135 135 135 129 127 155 181 183 185 185 185 186 186 186 186 185 183 180 178 175 171 150 133 109 102 102 100 98 98 98 102 104 102 100 100 97 93 90 86 86 85 86 86 87 88 91 93 93 95 97 98 99 99 95 95 93 93 93 93 93 93 93 91 91 90 91 91 88 86 88 90 90 91 90 90 89 90 90 90 90 88 89 90 90 93 93 93 90 90 88 85 80 81 82 77 75 74 74 74 73 74 73 71 71 71 71 71 71 71 71 71 73 74 74 74 74 74 74 74 74 74 74 75 77 79 79 80 80 80 82 83 86 88 90 91 93 91 93 95 95 98 98 98 98 100 103 107 107 108 111 111 114 114 116 116 120 120 120 121 118 116 118 120 118 116 116 116 114 114 114 112 111 111 111 111 111 111 111 109 109 111 111 108 109 111 109 107 109 109 111 111 111 111 114 116 121 122 122 122 122 122 123 125 124 124 125 125 125 123 123 127 127 128 131 131 131 128 127 127 127 127 126 127 127 127 127 127 131 131 131 131 133 133 133 133 133 133 133 133 133 133 135 136 136 136 136 135 138 138 142 142 140 142 144 146 148 151 155 155 154 155 159 159 160 166 166 166 166 166 166 166 166 164 164
219 219 218 218 218 218 218 218 218 220 220 219 220 220 221 221 220 221 221 220 219 218 218 218 218 218 218 218 219 220 219 221 222 223 224 226 227 229 230 230 230 231 231 230 230 229 229 227 224 222 222 222 222 221 221 221 221 223 225 224 223 223 222 222 222 222 222 222 222 222 223 224 225 227 226 227 227 225 225 225 225 225 225 225 226 227 227 227 227 227 227 228 226 226 225 225 225 226 227 227 227 228 229 230 230 232 232 232 232 234 234 235 236 236 236 236 237 237 238 239 238 238 238 237 236 236 236 236 236 236 236 236 235 234 234 234 234 234 234 234 234 234 234 234 234 234 234 234 234 234 234 236 236 236 237 238 240 239 240 241 241 242 242 241 241 241 240 240 239 238 238 238 237 236 235 234 233 232 232 230 229 228 225 224 223 221 219 218 218 218 218 218 218 217 216 212 209 204 199 188 173 162 149 151 151 140 133 133 135 133 127 135 168 178 181 185 183 181 183 185 186 186 183 180 175 173 164 131 120 114 109 105 102 103 97 97 98 97 97 98 98 93 91 91 90 89 88 88 85 85 86 91 93 93 95 95 95 95 95 95 94 93 93 93 90 88 88 88 84 85 85 85 85 85 85 85 85 87 88 88 88 90 88 88 88 88 88 88 86 86 90 93 89 86 83 83 83 83 80 79 75 75 74 73 73 73 73 73 72 73 73 73 72 73 73 74 73 74 74 75 74 74 74 74 75 75 75 75 75 78 79 79 79 80 80 83 83 85 86 90 91 93 93 93 95 95 95 97 98 98 100 102 105 107 109 111 114 116 116 116 118 120 120 120 120 120 118 120 122 120 120 118 116 114 116 116 116 115 114 114 114 111 109 109 109 109 109 111 113 112 111 108 109 109 109 109 109 109 108 110 117 120 120 120 120 120 120 123 122 123 125 123 121 122 123 125 126 126 131 135 129 127 127 127 127 127 125 125 127 127 127 127 127 127 129 131 131 131 133 135 133 133 131 132 131 131 131 133 133 133 133 136 136 138 137 137 140 142 142 142 146 148 148 151 154 159 163 162 162 164 164 166 166 166 165 166 168 166 164 164
219 218 218 218 218 218 218 218 218 219 219 219 220 221 221 221 221 221 221 220 219 218 218 218 218 218 217 216 219 220 219 221 222 222 224 226 225 227 228 229 228 229 230 228 228 229 228 227 224 222 222 222 221 220 221 221 221 223 224 224 224 222 222 222 223 222 222 222 222 222 223 223 224 225 227 226 226 225 224 224 225 223 222 224 225 226 226 226 226 226 226 226 226 226 225 225 224 225 226 227 228 228 229 230 231 232 232 233 232 234 234 235 235 235 236 236 235 237 238 238 238 237 237 236 236 236 236 236 236 236 236 236 234 234 234 234 234 234 234 234 234 234 234 234 234 234 234 234 234 234 234 234 235 235 237 238 240 240 241 241 241 241 242 242 242 242 241 240 240 240 240 240 239 237 235 234 234 232 232 230 228 227 225 223 222 220 218 218 218 218 218 217 217 218 216 212 211 206 191 172 159 168 186 155 142 140 131 131 134 133 127 125 127 142 146 158 173 181 183 185 185 185 180 176 171 162 148 123 118 114 109 105 104 102 98 97 98 97 95 95 93 93 93 93 95 95 91 91 91 88 86 91 93 95 95 95 95 96 95 95 96 93 93 91 88 86 83 83 80 82 83 83 83 83 83 83 85 86 86 86 86 86 88 88 88 88 88 88 85 86 90 91 86 83 82 82 82 83 80 77 75 74 74 73 72 73 73 73 73 73 74 73 71 73 74 73 74 74 74 75 74 74 75 74 75 75 75 75 75 77 79 79 79 80 80 82 83 83 86 91 91 92 93 94 95 95 95 97 98 98 101 104 107 107 111 112 116 116 116 116 118 120 120 120 120 120 120 122 122 122 120 117 116 116 118 118 118 118 118 116 114 111 109 109 109 109 109 111 114 112 111 108 107 107 107 107 109 107 108 112 118 120 119 120 120 120 120 122 122 122 125 122 120 120 122 125 125 127 129 131 130 127 127 126 125 125 123 125 127 127 127 127 127 126 127 129 129 129 129 131 129 127 129 130 129 129 129 131 133 133 133 135 135 136 136 136 138 140 140 140 146 146 148 151 157 161 164 164 164 166 168 166 166 166 164 166 168 164 165 162
218 218 218 218 218 218 218 216 216 216 217 218 219 219 220 220 219 219 219 219 218 218 218 218 218 216 216 216 217 218 218 219 220 221 223 224 225 225 225 226 226 227 227 226 226 228 228 227 225 222 221 221 221 221 221 221 221 222 223 224 224 222 222 222 222 222 222 222 221 221 222 222 222 222 225 225 225 225 225 223 223 222 221 222 223 226 226 226 226 225 226 226 226 226 225 224 224 225 226 227 227 227 228 229 230 231 231 232 232 233 234 234 234 235 236 236 235 236 236 236 236 236 236 235 235 236 236 236 235 235 235 235 234 234 234 234 234 234 234 234 234 234 234 234 234 234 234 234 234 234 234 234 235 236 236 237 238 239 240 242 241 241 242 243 243 242 241 241 241 241 240 241 240 238 236 235 235 233 232 230 228 227 225 224 224 222 221 221 227 231 229 221 216 214 214 212 207 200 189 207 212 221 232 212 201 188 135 127 122 125 126 122 118 122 125 132 160 171 178 180 178 176 175 171 166 160 135 116 116 112 111 109 104 104 104 97 97 95 95 95 95 95 93 95 97 93 93 95 90 90 92 95 95 95 95 95 95 95 95 95 95 95 95 91 88 88 83 82 82 82 82 82 81 79 80 82 82 83 84 83 83 85 85 84 85 85 85 86 86 90 91 90 85 82 82 82 82 82 77 75 76 73 73 73 73 73 74 74 74 75 75 74 73 73 73 73 74 75 74 75 75 75 75 75 75 75 75 75 77 78 79 79 80 79 83 85 83 85 90 93 93 93 93 93 95 95 95 97 98 101 100 104 107 109 109 114 114 116 116 116 118 118 120 120 120 120 120 120 120 121 120 118 116 116 118 120 119 121 118 114 112 111 109 109 109 109 109 111 114 113 110 109 109 107 107 107 107 107 112 116 116 118 118 118 120 120 122 122 123 123 123 122 120 122 125 125 125 127 127 127 125 125 125 123 123 123 123 123 124 125 127 126 127 128 129 128 127 127 127 127 125 125 127 127 127 127 127 129 133 135 135 135 136 135 135 136 138 140 142 142 146 146 151 153 157 160 162 164 164 166 166 165 166 166 166 164 164 162 161 162
218 219 217 217 217 217 217 216 216 216 215 216 218 218 218 218 219 219 219 218 218 218 217 217 217 216 216 216 217 218 218 219 220 221 221 223 224 225 225 224 224 225 226 227 227 227 227 226 224 222 220 221 220 220 221 221 221 222 223 224 224 223 223 222 222 222 222 222 222 221 221 222 222 222 224 224 225 225 225 224 224 223 222 220 222 223 224 226 226 226 227 227 226 226 226 225 225 226 227 227 227 227 227 228 228 229 230 231 232 233 234 233 234 234 235 235 234 235 236 235 234 235 235 235 235 235 235 235 234 234 234 234 233 233 233 233 233 233 233 233 233 233 233 233 233 233 233 233 233 233 234 234 235 236 236 237 239 240 240 241 240 242 244 243 243 242 242 241 241 241 241 241 240 239 237 236 234 232 232 229 227 227 225 225 227 226 222 225 234 237 237 231 221 213 214 213 211 211 201 231 234 233 233 233 233 230 217 213 180 123 120 116 138 129 131 133 148 159 164 171 170 166 169 168 164 146 123 111 112 114 109 111 107 105 104 97 95 93 91 91 95 95 97 100 102 97 97 97 97 97 98 98 95 95 95 95 95 95 95 95 95 95 95 91 88 86 83 83 83 83 83 82 80 79 80 82 82 80 80 81 82 80 80 82 82 82 83 85 86 88 91 88 85 82 82 82 82 82 79 75 74 73 73 73 73 73 74 74 75 75 75 74 74 74 74 73 75 75 75 75 75 75 75 75 75 75 75 75 80 79 79 79 80 80 83 85 85 86 90 93 93 93 93 93 95 95 95 95 98 98 101 104 105 107 109 112 114 116 116 116 116 116 118 118 118 118 120 120 118 120 120 118 116 116 116 120 120 118 118 112 111 111 109 109 109 109 109 111 114 112 111 112 112 109 109 109 107 107 112 116 116 116 117 118 120 120 122 122 122 123 122 122 122 122 125 125 125 127 126 127 125 125 125 125 125 125 125 125 125 127 127 127 127 131 129 127 127 127 127 127 127 127 127 127 127 127 127 132 133 135 135 136 136 136 136 138 140 140 144 144 148 148 153 153 157 158 157 160 164 164 165 166 167 166 164 164 165 164 164 164
218 217 216 216 216 216 216 214 215 216 216 216 216 216 217 218 218 218 218 218 218 217 216 215 216 216 216 216 217 218 218 218 218 220 222 222 222 222 224 224 223 225 226 226 225 224 224 224 223 220 220 221 220 219 220 221 222 222 222 223 224 224 224 224 223 222 222 222 222 222 220 221 220 221 222 222 224 224 224 224 224 222 222 221 221 222 223 225 225 225 226 226 225 225 225 225 225 226 227 227 227 227 227 228 228 229 229 230 230 230 232 232 232 233 232 233 234 234 234 234 234 235 234 234 234 234 234 234 234 234 234 234 232 232 232 232 231 232 232 232 232 232 232 232 232 232 232 232 232 232 233 234 234 235 236 237 238 239 240 241 242 242 244 244 244 243 243 243 243 243 241 242 241 240 238 236 235 233 233 232 229 227 227 227 230 231 230 234 238 238 239 238 227 213 212 226 231 232 219 226 231 234 234 234 234 235 236 236 234 175 111 146 188 149 127 125 131 149 152 161 169 181 194 189 155 127 127 148 129 123 127 116 114 105 105 98 95 104 111 126 109 97 102 102 104 104 104 104 104 104 102 97 95 91 93 95 95 97 97 95 95 95 95 93 86 85 85 85 83 81 83 82 80 80 80 80 80 80 80 79 80 80 82 83 83 82 83 83 89 88 88 88 84 80 80 80 80 79 77 75 74 74 74 74 74 74 73 74 75 76 75 75 75 75 75 76 75 79 77 75 75 75 77 77 77 77 75 75 79 79 79 79 80 80 80 83 86 88 88 93 93 95 95 95 95 95 95 95 98 98 100 102 104 105 111 114 114 116 116 116 116 116 116 116 116 116 119 118 116 116 118 118 120 120 120 120 118 116 114 114 112 111 109 109 111 111 112 111 112 111 111 111 111 111 111 108 107 111 116 116 116 120 122 122 122 122 122 123 125 123 123 120 123 123 122 123 125 127 125 125 126 125 125 125 125 125 125 125 127 127 127 127 127 127 123 125 124 127 127 127 125 123 125 125 123 127 131 131 133 134 133 135 136 138 138 138 138 140 146 148 149 149 151 152 153 153 151 149 159 162 164 164 164 164 164 164 165 164 164 164
218 217 217 216 216 216 216 214 214 216 216 216 216 216 217 217 217 217 217 217 217 217 216 215 216 216 216 216 215 217 217 216 217 219 221 221 222 222 223 223 224 223 223 224 224 222 222 222 222 221 220 220 220 220 221 221 222 222 222 223 224 224 224 224 224 223 223 222 222 222 221 221 220 220 221 222 223 223 224 224 224 222 222 221 221 221 222 224 224 225 226 226 225 225 225 225 225 225 226 226 227 227 227 227 227 228 229 229 230 230 230 230 232 233 232 232 234 233 232 232 232 232 232 232 232 232 233 233 233 233 232 232 232 232 232 232 232 232 232 232 232 232 232 231 232 232 232 232 232 232 233 234 234 235 236 237 238 239 240 241 242 243 244 244 244 244 244 244 244 245 243 243 242 241 240 238 236 234 235 235 234 232 232 233 234 234 235 237 238 239 240 240 235 220 210 232 234 235 235 235 233 235 236 236 236 238 238 238 239 185 123 181 203 180 159 135 118 120 131 133 164 219 221 204 167 159 178 201 178 175 204 166 138 116 116 129 135 165 199 197 142 100 100 102 104 104 104 104 104 102 100 97 95 93 93 95 95 97 97 95 94 95 93 90 86 85 85 86 83 80 82 80 80 80 80 80 80 80 80 80 80 80 82 83 82 82 82 83 85 86 86 86 83 80 80 80 80 79 79 77 74 74 74 74 74 74 74 74 75 75 75 75 77 77 77 77 77 79 79 77 78 78 79 80 79 79 75 75 77 77 79 80 80 80 80 82 85 88 90 93 93 93 94 95 95 95 95 98 98 100 99 102 104 105 109 112 114 116 116 116 116 116 116 115 116 116 117 118 116 114 114 118 120 121 120 120 120 116 116 113 112 112 109 109 112 112 111 109 106 109 108 111 111 111 111 109 111 116 115 116 117 122 122 122 122 122 122 122 122 122 123 126 129 129 127 127 127 125 127 124 124 123 123 123 124 123 124 125 125 127 127 125 122 122 120 122 125 125 125 125 125 125 125 125 126 127 131 133 133 133 131 136 136 138 138 138 138 144 148 148 148 149 153 151 149 148 146 144 149 160 164 162 162 162 162 164 164 165 164 164
216 216 216 216 216 214 214 216 216 216 216 217 217 216 216 216 216 216 216 216 216 216 216 216 216 216 216 216 216 216 216 216 217 218 219 220 220 221 222 222 222 221 220 222 222 221 220 220 221 221 220 219 220 222 221 221 222 222 222 223 223 224 224 225 225 225 225 224 223 222 221 220 219 219 220 221 223 222 224 224 224 222 223 221 220 220 221 222 223 224 225 225 225 225 225 225 225 225 225 226 226 226 226 226 227 227 227 227 228 229 230 230 231 231 232 232 232 232 232 232 232 232 232 232 232 232 232 232 232 232 232 232 232 232 232 232 232 232 232 232 232 232 231 231 231 232 232 232 232 232 232 232 234 235 236 236 237 238 240 241 243 244 244 245 245 245 245 245 245 245 244 244 244 243 242 241 238 237 238 239 239 238 235 236 238 238 238 238 241 241 240 240 236 226 213 234 235 236 237 237 239 239 239 238 239 240 241 240 234 168 152 191 227 226 222 214 168 144 111 104 155 232 225 221 226 227 227 230 227 224 230 213 191 168 193 211 199 201 221 218 201 171 117 104 100 100 100 99 104 100 98 95 95 95 93 93 93 93 93 93 93 91 86 86 86 86 85 85 83 80 80 80 80 80 80 80 80 79 80 82 83 82 82 82 79 80 82 82 82 85 85 83 83 80 80 80 80 79 77 77 75 74 74 74 75 75 76 75 75 75 75 77 79 79 79 79 79 79 79 79 79 79 79 79 79 77 75 75 75 76 79 79 80 82 82 83 84 86 88 93 91 91 95 95 95 95 95 97 98 98 100 103 104 104 104 109 112 114 114 115 114 114 116 116 116 116 116 116 114 114 114 116 116 118 120 120 118 116 116 114 115 114 109 112 114 112 111 109 107 106 107 109 111 110 110 111 116 116 118 118 120 122 122 122 120 120 122 120 118 120 129 135 135 131 128 131 129 127 129 127 122 122 122 122 122 122 125 122 123 127 127 123 120 122 120 122 127 126 127 127 126 127 127 127 127 127 129 131 133 133 133 136 136 135 136 138 140 146 148 146 148 149 153 150 147 144 144 142 148 159 160 160 160 160 160 162 162 162 162 162
212 213 214 216 216 216 216 216 216 216 216 217 217 217 217 217 216 216 216 216 216 216 216 216 216 216 216 216 216 216 216 216 217 217 218 219 221 221 222 221 221 221 221 221 221 221 221 220 219 220 219 219 220 221 221 221 222 222 222 223 223 224 224 225 225 226 225 225 223 221 220 219 219 219 219 220 222 221 222 222 222 222 221 220 220 221 220 220 222 222 224 224 224 225 225 225 225 225 225 225 226 226 226 226 226 227 227 226 227 227 228 229 228 229 230 230 230 230 229 230 229 229 229 229 230 231 231 232 231 230 230 230 229 229 230 230 230 231 231 231 231 231 231 230 230 231 231 232 232 232 232 231 234 235 236 236 238 239 240 241 242 243 244 245 245 245 245 245 245 245 245 245 244 245 243 243 242 241 242 243 243 240 236 236 238 240 240 241 243 243 242 241 234 221 224 237 237 236 237 238 240 242 241 240 241 241 242 241 239 233 197 200 234 236 235 233 227 226 178 118 135 227 235 234 236 237 238 239 238 237 236 234 227 218 223 226 221 221 225 221 219 213 171 110 104 97 95 105 112 104 97 93 93 93 91 91 91 90 90 88 86 86 86 86 85 88 85 84 82 80 80 80 80 80 80 82 82 82 82 83 83 83 84 83 82 80 82 82 80 83 83 83 83 82 80 80 80 79 77 75 74 74 74 74 75 75 77 77 77 77 76 77 80 78 79 77 77 79 79 79 79 80 79 79 79 79 77 77 77 77 79 80 80 83 85 86 86 88 88 91 91 93 93 93 95 95 95 95 97 98 100 102 104 104 104 107 110 112 112 113 114 114 114 114 114 114 116 116 114 114 113 116 116 120 120 118 116 114 114 114 114 114 112 114 114 112 111 111 109 109 109 109 109 111 112 114 116 116 118 120 120 120 121 120 120 119 120 122 122 123 133 138 138 135 133 133 131 132 129 127 123 123 122 122 122 122 123 123 125 125 125 123 120 120 125 135 135 133 131 131 129 129 127 127 127 129 131 135 135 137 136 136 136 136 136 136 138 140 144 148 148 149 149 148 146 144 144 144 148 155 160 160 160 162 162 164 164 164 162 162
207 210 211 216 216 216 216 216 216 216 217 218 218 218 218 217 216 216 216 216 216 216 216 216 216 216 216 216 216 216 217 216 216 216 217 218 221 221 220 220 221 221 221 221 221 221 220 220 219 219 219 220 220 221 221 221 222 222 222 222 222 223 223 225 225 225 224 223 223 220 219 220 218 218 218 219 221 220 221 220 220 221 220 219 219 219 219 219 221 221 223 224 224 225 225 225 226 226 225 225 225 225 225 225 225 226 226 226 228 227 228 227 228 227 228 228 228 228 228 230 229 229 229 229 230 230 230 231 230 230 229 229 229 229 229 229 228 230 230 230 230 230 230 230 230 230 231 232 232 232 232 232 233 235 236 236 237 239 240 242 242 243 244 245 245 245 245 245 245 246 245 245 245 245 245 244 244 244 244 244 244 243 240 239 241 241 242 242 243 243 243 241 233 230 234 237 236 236 238 238 240 242 241 242 243 243 242 242 240 241 239 234 236 238 238 237 237 235 231 203 199 227 234 235 238 240 241 242 241 241 241 239 236 232 231 231 229 230 229 225 222 213 180 111 113 118 120 125 122 98 93 91 93 91 90 90 90 90 90 85 85 85 85 85 85 83 83 82 80 81 80 80 80 80 80 82 82 82 82 82 82 82 82 82 80 80 80 80 81 80 82 82 82 80 80 80 80 79 77 73 73 74 75 74 75 75 77 79 79 79 79 79 80 80 80 79 79 79 80 80 80 80 79 77 79 79 79 79 79 79 77 80 80 83 85 85 86 88 88 90 90 92 91 92 96 95 95 96 95 97 100 102 102 104 104 107 111 111 112 111 112 114 113 114 114 113 116 117 114 114 116 116 117 120 120 116 116 114 114 114 114 114 114 114 114 113 111 111 111 109 107 108 107 109 112 114 114 115 117 118 118 120 120 120 120 120 120 118 118 118 129 136 135 136 136 135 131 131 129 127 125 124 122 122 122 122 122 123 125 123 123 120 116 122 136 142 142 138 136 136 135 133 131 129 129 131 133 136 136 136 136 136 136 136 135 136 136 138 142 144 146 148 146 146 144 144 144 146 146 151 160 159 160 162 162 162 162 162 160 160
204 207 210 214 214 214 217 216 217 218 218 219 218 219 218 218 216 216 214 214 216 216 216 216 216 214 215 216 216 216 216 216 216 216 216 217 219 219 219 219 220 220 220 219 220 219 219 219 219 219 219 219 220 221 221 221 223 222 223 224 224 224 224 225 225 225 224 224 222 220 220 219 217 217 218 218 220 220 219 219 219 219 220 219 220 217 218 219 220 221 223 224 223 223 224 224 225 225 225 225 225 225 225 225 225 224 225 225 225 226 226 226 226 226 227 227 227 227 227 227 228 227 227 228 228 228 228 228 228 228 228 228 228 228 229 229 228 228 228 228 228 229 229 229 230 230 231 231 232 232 232 232 234 235 236 236 237 239 240 242 242 243 244 245 245 245 245 245 246 246 246 246 245 245 245 245 245 245 245 245 245 245 243 242 243 243 243 243 244 244 245 240 232 234 235 236 235 236 238 238 241 242 242 244 243 243 242 243 242 242 242 241 241 241 242 241 241 240 238 234 234 234 234 234 236 240 244 244 243 243 244 243 240 236 234 235 234 233 233 232 227 220 160 123 149 140 133 136 120 105 125 95 91 91 88 88 89 91 88 85 85 85 83 83 84 82 82 80 82 82 82 82 82 82 82 82 83 83 83 83 83 83 83 84 79 80 82 82 82 82 80 82 83 82 82 82 80 79 77 74 74 74 75 75 77 77 80 80 80 80 80 80 80 80 80 82 82 80 80 80 80 80 80 80 79 79 80 80 79 79 80 82 83 83 84 86 86 88 88 90 91 94 93 93 95 95 95 96 95 97 98 100 100 104 104 105 109 109 111 111 111 112 114 114 114 114 113 114 114 117 116 116 116 120 120 118 114 114 115 112 114 114 114 113 114 114 112 112 112 111 109 109 109 112 114 114 114 118 120 122 122 122 122 122 120 120 118 118 118 118 127 135 133 131 131 131 129 130 127 125 122 123 125 125 120 118 120 120 123 122 122 120 116 123 140 146 146 140 138 138 136 136 134 135 131 133 135 136 136 136 136 137 136 136 136 138 138 138 138 138 140 144 146 146 142 142 143 144 148 153 159 160 160 164 162 160 160 160 160 160
204 208 211 212 214 214 217 218 218 219 219 219 219 219 218 217 216 216 214 214 216 216 216 216 216 214 215 216 216 216 215 216 216 216 216 216 218 218 219 219 219 219 219 219 219 219 219 219 219 219 219 219 220 221 221 220 222 223 224 224 225 225 225 226 225 225 225 224 221 221 220 218 216 217 218 217 219 219 219 219 219 219 219 219 219 218 218 219 220 221 221 221 222 222 223 224 225 225 225 225 225 225 225 225 225 225 225 225 225 225 225 226 225 225 225 226 226 226 226 226 226 226 227 227 227 227 227 228 226 227 227 227 227 227 227 227 227 227 227 227 227 228 229 228 228 230 230 231 231 232 232 232 234 235 236 236 237 239 240 242 243 243 245 245 246 246 246 246 246 246 247 247 247 246 246 245 245 245 245 245 245 246 245 244 244 244 244 244 245 245 245 234 232 234 236 235 234 235 236 238 240 242 242 242 242 242 242 243 243 244 243 243 244 245 245 245 242 243 243 243 242 242 240 236 235 236 242 244 246 245 244 243 238 236 236 236 234 232 231 232 227 224 164 162 206 181 153 166 164 176 175 120 83 90 107 95 86 86 85 85 85 85 83 83 84 83 80 80 83 83 83 83 83 83 83 83 84 85 85 83 83 83 83 83 80 80 82 83 83 82 80 82 83 83 83 83 82 79 77 74 74 74 75 74 77 79 80 80 80 80 80 80 81 80 80 83 83 81 80 80 80 80 80 80 79 79 80 80 79 79 80 82 83 85 85 85 85 88 88 90 91 93 93 93 95 96 95 95 95 97 98 98 100 102 104 104 107 109 109 111 111 111 112 114 114 114 114 114 114 114 116 116 116 118 120 118 114 114 112 112 112 114 113 114 114 112 114 114 114 111 109 109 109 112 114 112 114 118 122 122 122 122 122 122 120 120 120 118 120 122 131 136 135 127 127 125 127 127 125 125 120 122 127 127 123 120 120 118 117 120 122 120 116 123 140 148 146 140 138 139 136 136 136 135 134 135 136 136 136 136 136 136 136 136 136 138 138 137 138 138 138 142 142 142 140 140 140 142 148 155 159 161 160 164 162 160 160 160 160 160
204 208 211 213 217 217 218 218 220 221 220 219 219 219 219 219 216 216 214 214 216 216 217 216 217 214 214 214 214 214 214 216 214 214 216 216 216 216 216 216 216 217 218 219 219 218 219 218 218 218 219 219 221 222 221 221 221 223 224 224 225 226 226 225 225 224 223 223 222 221 219 218 216 216 216 216 216 217 218 218 218 219 219 219 219 218 218 218 219 219 219 219 221 221 222 223 224 224 224 224 224 224 224 224 224 224 223 224 224 224 224 224 224 224 224 225 225 225 225 225 224 225 225 225 225 225 226 227 227 227 227 227 227 227 227 227 228 227 227 227 227 227 227 227 228 229 229 230 231 232 232 232 234 235 235 236 237 239 240 242 243 243 245 245 246 246 246 246 247 246 247 247 247 247 246 246 246 246 246 245 246 246 245 244 244 245 245 245 245 246 245 230 232 234 235 236 234 232 234 238 240 242 242 242 240 240 242 243 245 245 245 245 245 245 245 245 245 245 245 244 243 243 242 241 239 236 238 243 246 245 245 242 239 238 238 238 236 234 234 232 230 227 188 186 222 206 188 197 204 199 187 164 142 164 196 171 127 88 83 88 85 85 83 83 83 83 82 82 82 83 83 83 83 83 83 83 83 83 83 83 83 83 83 83 80 80 80 80 83 83 83 82 83 86 83 83 82 79 76 75 75 75 77 79 79 79 80 80 80 80 83 82 82 82 82 83 84 83 82 80 80 80 80 80 80 80 80 80 80 80 80 82 83 85 85 85 85 90 90 90 92 93 92 93 93 93 95 95 95 95 95 95 97 102 104 104 104 105 107 109 109 109 111 111 111 111 114 114 114 114 116 118 118 118 118 114 112 110 111 111 112 114 116 116 117 116 116 114 115 112 109 107 104 107 111 114 114 114 116 118 117 117 118 118 118 118 117 116 120 125 133 133 131 135 135 136 136 136 135 131 125 120 123 125 120 116 118 122 120 121 120 120 125 133 146 148 146 142 140 138 136 136 136 136 135 136 136 136 136 136 136 136 136 135 135 138 138 138 138 138 137 138 140 140 140 142 144 146 149 155 160 160 159 160 160 160 160 160 159 159
204 208 211 212 216 218 218 218 220 221 220 219 219 219 219 219 216 216 214 214 216 216 216 216 216 214 214 214 214 214 214 216 214 214 215 216 216 216 216 216 216 217 217 219 219 218 218 217 218 218 218 219 220 220 220 220 221 223 224 224 225 226 226 225 224 223 223 222 222 220 218 218 216 216 216 216 216 216 217 218 218 219 218 218 219 218 218 218 218 219 219 219 220 221 222 223 223 223 223 223 223 223 223 223 223 223 224 224 223 223 224 225 224 224 223 224 225 225 224 224 224 225 225 225 225 225 226 227 227 227 227 227 227 227 227 227 227 227 227 227 227 227 227 227 228 229 230 230 232 232 232 233 234 234 235 236 237 239 240 242 243 243 245 245 246 247 246 247 247 247 247 247 247 247 247 246 245 246 245 246 246 246 246 245 245 245 245 245 245 247 245 230 231 234 235 236 234 231 234 238 241 242 242 241 238 240 244 242 245 246 246 246 247 245 244 244 244 243 242 242 242 243 245 243 242 239 238 240 245 247 245 241 240 239 239 239 238 238 236 237 236 232 221 206 221 220 211 214 222 218 210 206 208 207 208 200 189 142 95 88 86 85 82 82 82 82 82 82 82 82 82 82 82 82 82 82 82 82 82 82 82 82 82 82 80 79 80 80 83 83 82 83 86 86 83 83 80 77 77 75 75 74 77 79 79 80 80 80 80 82 83 83 83 83 83 83 83 83 82 80 80 80 80 80 80 81 80 80 80 80 80 82 83 85 85 85 86 90 90 88 90 91 91 92 91 92 93 95 95 95 93 95 98 104 104 104 104 105 107 109 109 109 111 111 112 112 114 114 114 115 116 118 120 116 114 114 114 112 111 112 114 114 116 116 116 116 116 114 112 108 105 105 105 105 109 112 112 115 116 116 116 116 116 114 115 114 112 112 118 122 125 129 131 137 136 138 138 135 132 133 125 120 123 126 122 120 123 125 128 133 135 133 138 142 144 146 144 140 138 138 136 136 136 135 136 136 135 136 136 136 136 136 136 136 138 138 138 138 138 138 138 138 142 142 144 144 144 149 155 159 162 160 160 160 160 160 160 160 159 157
204 208 210 211 214 219 219 219 220 221 221 221 220 220 218 218 216 216 214 214 217 217 216 215 214 214 214 214 214 214 214 215 214 214 214 214 214 215 216 216 216 216 216 217 218 218 218 216 217 218 218 218 218 218 219 219 221 221 222 223 224 225 225 225 224 223 223 222 221 218 218 218 216 216 214 214 215 214 216 217 218 218 217 219 218 218 218 218 218 218 218 220 220 221 221 221 222 222 222 222 223 223 223 223 223 222 222 222 222 222 222 221 221 222 222 222 222 222 222 224 223 224 224 224 224 224 224 225 225 225 226 226 226 226 226 226 226 225 225 227 227 227 227 228 228 229 230 230 232 232 232 233 234 234 235 236 237 239 240 242 243 244 245 246 246 247 247 248 247 247 248 248 248 248 247 246 245 246 246 246 246 246 247 246 245 246 245 245 246 247 247 235 229 234 236 238 234 229 233 237 241 242 242 241 236 240 242 243 244 246 246 246 246 244 242 244 242 242 243 244 245 246 247 246 245 242 240 239 243 246 244 241 241 241 241 242 241 240 238 239 240 234 227 224 225 226 223 225 226 225 220 219 219 217 212 208 208 189 159 109 90 85 85 85 85 85 82 82 82 82 82 82 82 82 82 83 85 85 83 82 82 82 82 82 82 82 80 80 82 82 82 83 85 85 85 80 79 77 77 77 77 74 77 80 80 80 80 80 83 83 83 83 83 83 82 83 84 83 83 83 83 83 82 81 80 80 79 79 78 79 82 85 85 85 85 86 88 90 90 90 90 91 91 91 93 96 95 96 95 95 93 97 97 100 102 104 104 104 105 107 107 109 111 111 114 114 114 115 114 114 114 116 118 114 114 114 114 114 114 114 114 114 114 114 116 116 112 114 112 109 107 107 107 109 111 111 111 111 112 114 114 114 114 114 114 118 114 114 113 120 125 125 131 138 138 136 135 133 131 135 130 129 131 132 136 133 131 131 135 142 144 141 142 142 144 146 146 140 138 140 138 138 133 134 133 133 133 135 136 136 136 136 136 138 138 138 138 138 140 140 140 144 148 146 148 145 144 154 159 160 160 160 160 160 160 160 160 160 160 160
204 208 210 212 214 218 219 219 219 220 220 220 218 218 217 217 216 216 214 214 216 216 216 214 214 214 213 213 213 213 213 213 213 213 213 213 213 213 214 214 216 216 216 217 217 217 217 216 216 217 217 217 217 217 219 219 220 221 221 222 222 222 223 224 224 224 223 222 221 219 218 217 216 216 214 214 214 215 216 217 217 218 217 218 219 218 218 218 219 218 219 219 220 220 222 221 221 221 221 222 223 223 223 223 223 222 222 222 222 223 222 222 222 222 222 222 222 222 221 222 223 224 223 223 223 223 223 223 224 224 224 224 224 224 225 225 225 225 225 226 226 227 227 227 227 229 229 230 231 232 232 232 234 234 235 236 237 239 240 242 243 244 245 246 246 247 247 247 247 248 248 248 248 248 248 246 246 246 246 245 245 245 245 246 246 247 246 246 245 245 247 239 231 232 233 237 234 229 228 233 237 241 242 241 236 237 240 241 243 244 245 244 243 242 242 243 243 243 244 246 247 248 249 247 247 246 240 239 237 239 234 237 241 242 243 243 242 242 240 240 240 238 232 227 229 230 231 229 227 227 225 222 221 219 216 210 207 200 194 146 100 83 86 85 85 85 83 83 83 83 83 83 83 82 83 84 85 85 85 83 83 83 83 83 82 83 82 82 82 83 83 83 83 83 82 80 80 79 79 79 77 75 79 79 80 80 80 80 82 83 83 83 83 83 83 83 83 83 83 83 83 83 82 82 80 80 79 79 79 80 83 85 85 86 86 88 88 90 90 90 90 93 93 93 95 95 95 95 95 95 95 96 98 98 100 104 104 104 104 105 105 109 111 111 114 114 114 114 113 114 114 114 116 114 114 114 114 114 114 114 114 114 114 114 114 113 112 112 112 110 109 109 109 111 111 111 111 111 112 114 114 114 114 112 114 120 121 122 122 125 126 123 127 136 138 136 136 133 136 138 138 138 142 144 142 138 136 136 138 142 144 142 142 144 146 148 146 142 140 142 138 138 133 133 133 133 132 135 136 136 136 135 136 140 138 138 138 139 140 142 144 148 148 148 148 149 151 157 159 160 160 160 160 160 160 160 160 160 160 160
204 207 208 210 213 216 216 216 216 216 216 217 216 216 216 216 215 216 214 214 214 214 216 214 213 212 212 212 212 212 212 212 212 212 212 212 212 213 212 213 214 214 215 216 216 216 216 216 216 216 216 217 216 216 217 218 219 219 219 220 222 223 224 224 225 224 222 222 222 219 216 216 216 215 214 214 214 214 213 214 217 217 218 217 218 219 219 219 218 217 219 219 219 219 221 221 221 221 221 221 222 222 222 222 222 222 222 222 221 221 221 221 222 221 221 221 221 221 221 221 221 222 222 222 222 222 222 222 223 223 222 222 222 223 224 224 224 224 224 225 225 227 227 227 228 229 229 230 231 232 232 232 234 234 234 236 237 239 240 242 242 244 245 246 246 246 246 247 248 248 248 248 247 248 247 246 246 245 245 245 245 245 245 246 246 246 246 244 236 236 240 231 227 227 231 234 232 227 227 231 234 236 240 242 236 236 237 240 241 241 242 242 243 242 242 242 243 245 246 247 248 250 248 248 248 247 241 238 234 233 231 230 236 243 244 244 243 243 242 240 240 240 236 226 223 232 229 228 227 227 226 223 223 221 219 213 210 204 201 178 118 83 85 85 85 85 85 85 85 85 82 83 83 83 83 83 83 82 83 85 85 83 83 83 83 83 83 83 83 83 83 82 80 80 79 80 79 80 80 79 79 76 80 80 80 80 80 80 80 80 83 83 83 83 83 83 83 83 83 83 83 83 83 83 80 80 80 80 80 82 83 83 85 90 90 88 86 86 88 90 91 93 93 95 93 91 91 91 91 93 95 97 98 98 102 105 104 105 105 105 106 111 114 114 114 114 114 114 114 114 114 114 114 114 114 114 114 114 112 116 118 116 114 114 114 112 111 109 107 109 109 111 111 111 111 111 112 111 112 114 114 114 114 114 122 131 131 133 135 136 136 135 136 140 140 138 135 135 136 138 140 142 144 144 142 142 142 142 140 142 144 144 144 146 149 148 146 144 142 142 137 139 133 133 132 133 132 135 136 136 138 138 138 140 142 144 143 144 144 143 144 144 144 149 154 157 159 158 160 159 159 160 160 160 160 160 159 157 157 159
203 207 207 207 210 213 214 213 213 213 213 214 214 214 216 217 216 214 214 213 213 214 216 214 214 212 212 212 212 212 211 212 212 212 212 212 211 212 211 212 213 214 214 214 216 217 216 216 216 217 216 216 216 216 217 217 219 219 218 219 220 222 223 223 223 223 222 222 221 219 216 216 217 214 214 214 214 214 214 216 216 217 217 218 218 219 219 219 219 218 218 219 218 220 220 220 220 220 220 221 222 222 222 222 222 222 221 222 221 221 222 221 221 221 220 220 220 220 220 220 220 221 222 222 222 223 223 222 222 222 221 222 222 222 223 223 224 224 224 225 225 227 227 227 229 229 230 230 231 232 232 232 234 234 234 236 237 239 240 242 244 244 245 245 245 246 246 247 248 248 248 248 248 248 247 245 245 245 245 245 245 246 245 245 246 246 246 236 232 233 227 223 221 220 226 232 228 226 225 227 231 232 235 239 236 234 236 237 239 239 240 240 241 242 241 242 244 245 248 249 249 249 249 249 249 247 240 238 237 234 235 232 237 245 245 245 243 243 243 241 240 239 238 225 194 218 227 229 227 226 226 225 224 222 221 218 214 208 204 196 136 85 85 86 85 85 85 85 83 83 83 83 83 83 83 83 83 83 83 83 83 83 83 83 83 83 83 83 84 83 83 80 80 80 80 80 80 80 79 77 79 79 80 80 80 80 80 80 80 82 84 83 83 83 83 83 83 83 83 83 83 83 83 83 80 80 82 82 82 83 84 83 85 90 90 88 87 88 88 90 91 93 93 95 93 93 93 93 93 93 95 95 98 98 102 104 104 106 105 105 107 110 112 112 114 114 112 114 114 114 114 114 114 112 112 114 114 114 114 116 118 117 114 114 112 112 111 109 109 109 108 109 108 109 111 112 112 111 112 114 111 112 111 114 129 140 140 139 142 142 146 148 148 146 146 144 141 138 138 138 140 142 144 142 138 139 140 142 142 142 144 144 142 147 148 148 146 142 142 142 138 138 135 135 131 133 135 136 135 140 142 142 142 142 142 146 146 147 146 144 146 146 148 149 157 159 159 159 159 159 159 159 159 160 160 159 160 159 159 159
199 203 204 204 208 208 211 212 212 210 212 212 212 212 213 214 214 212 211 212 212 213 214 214 214 213 212 212 212 211 211 211 211 211 211 211 211 211 211 211 212 213 214 214 214 213 214 214 214 214 214 214 216 216 216 216 217 218 218 217 219 221 220 222 221 222 222 221 221 219 216 216 214 213 214 214 214 214 214 214 216 216 216 217 218 219 219 219 219 219 218 217 217 218 219 219 219 220 221 221 220 220 221 221 222 221 220 220 221 220 221 221 221 220 219 219 219 219 219 219 219 220 220 220 221 221 221 221 221 221 220 221 222 222 223 222 222 223 224 225 225 226 227 227 228 229 228 230 231 232 232 232 233 234 234 235 237 239 240 242 243 244 245 245 245 246 246 247 248 248 248 248 248 248 247 246 245 245 245 245 245 245 245 244 246 247 244 232 227 222 219 218 217 218 221 226 225 225 225 227 228 230 232 233 234 234 234 234 235 235 236 236 238 241 242 243 245 247 249 249 248 249 248 248 249 246 240 238 238 236 234 234 236 241 246 246 244 242 241 240 238 237 237 228 189 189 227 229 227 227 227 227 226 221 218 219 217 211 210 196 125 87 85 85 85 85 85 85 82 82 83 82 82 82 82 82 82 82 82 82 83 85 85 85 83 82 82 83 85 85 83 80 80 79 80 80 80 80 80 80 80 80 80 80 80 80 80 80 80 80 83 83 83 83 83 85 85 85 84 83 83 83 83 83 83 83 82 83 85 85 85 83 85 90 90 91 90 90 90 90 91 91 93 95 95 95 91 91 91 93 95 95 95 98 100 104 104 106 105 105 105 110 111 111 112 112 111 111 114 114 114 114 114 111 111 114 115 114 114 116 116 116 114 112 111 111 111 109 107 107 107 107 107 109 112 114 112 112 112 114 111 112 111 116 131 144 144 145 144 146 148 150 149 148 148 146 140 138 138 138 138 138 140 136 133 133 135 138 138 140 142 142 140 144 144 144 144 142 138 138 138 138 136 135 133 135 136 136 138 140 142 146 148 144 144 144 146 148 145 144 146 148 149 149 153 159 157 157 157 157 157 157 159 160 159 157 157 157 157 157
196 200 200 201 203 206 207 207 207 207 207 207 209 208 210 212 212 211 211 211 211 212 212 213 213 211 211 211 211 210 210 210 210 210 210 210 210 210 210 210 211 212 213 213 213 213 213 214 214 215 214 214 214 214 214 216 218 217 217 217 218 219 219 221 221 220 220 221 220 218 217 216 215 213 213 213 213 213 213 214 214 216 216 217 217 217 217 218 218 218 218 218 218 218 218 218 219 219 220 220 220 221 221 221 221 221 221 221 220 219 220 220 220 220 219 219 219 219 219 219 219 220 220 220 220 220 220 220 220 220 221 221 222 222 222 222 222 223 224 226 225 227 227 227 228 229 229 230 231 232 232 232 234 234 236 236 237 239 240 242 243 244 245 245 245 245 246 247 248 248 248 248 247 247 246 245 245 245 245 244 244 244 244 245 245 248 243 227 223 219 216 216 218 218 219 222 224 225 225 225 227 229 231 230 232 234 233 232 232 233 234 234 237 238 241 244 245 248 249 245 246 245 247 250 249 244 240 239 239 238 237 238 238 236 246 247 244 242 240 239 238 238 236 232 200 176 227 229 227 227 228 227 224 220 217 219 219 213 210 176 101 86 85 85 85 85 86 85 85 83 83 83 83 83 83 83 85 85 85 85 85 85 85 85 83 83 84 85 83 85 85 82 82 82 82 82 82 80 80 82 82 81 80 80 80 80 80 80 80 82 83 83 83 83 83 85 85 85 85 83 83 85 85 85 85 85 85 85 85 85 85 85 86 90 90 90 90 90 90 91 93 95 95 95 95 95 95 95 95 95 95 95 95 98 100 104 104 104 105 105 107 110 110 111 114 114 112 112 112 112 114 112 112 111 111 114 114 114 114 116 116 116 112 111 111 111 111 111 111 109 111 112 112 112 114 116 114 114 112 112 112 112 114 118 135 144 144 144 144 146 148 148 148 148 148 144 140 138 138 136 131 131 129 129 131 131 133 133 134 138 142 142 140 140 140 142 142 142 138 136 138 139 136 136 135 136 139 138 138 140 144 148 148 148 148 146 147 148 148 148 148 149 151 155 155 157 159 158 159 159 159 159 159 159 160 160 159 159 159 160
196 200 200 201 202 204 204 205 204 204 204 204 204 206 208 211 210 211 211 211 211 210 212 212 212 211 211 211 210 208 208 208 208 208 208 208 208 208 208 209 211 211 212 212 212 212 212 214 214 214 213 213 214 214 214 214 214 216 216 217 218 218 219 220 220 219 219 218 218 218 217 216 214 213 212 212 212 213 213 213 214 216 216 216 216 216 216 218 218 218 218 218 218 218 217 218 219 219 219 219 219 220 221 221 221 220 221 221 220 219 219 219 219 219 219 219 219 219 219 219 219 219 219 219 219 219 219 219 219 219 220 220 221 222 221 221 222 223 224 225 225 227 227 227 228 229 230 230 231 232 232 232 233 234 235 236 237 239 240 242 243 244 244 245 245 245 246 246 248 247 247 247 247 247 246 245 244 245 245 244 244 244 244 245 245 246 244 227 221 217 216 216 217 218 219 221 224 227 228 227 229 229 231 230 231 232 232 232 232 232 232 232 234 235 239 242 245 247 245 245 246 244 245 246 244 240 240 240 240 240 241 241 241 238 245 248 243 240 238 237 238 238 238 236 228 224 229 229 227 227 227 227 226 220 214 214 214 211 200 147 93 86 86 85 85 85 85 85 85 83 82 82 82 82 83 83 85 85 85 85 86 85 85 85 84 85 85 85 82 83 85 82 82 82 82 82 82 80 80 80 80 80 80 80 80 80 80 80 80 82 83 83 83 82 83 85 85 85 85 83 82 85 85 85 85 85 85 84 85 85 85 86 88 90 90 90 90 90 90 92 93 95 95 95 94 95 95 95 95 95 95 95 95 98 100 102 104 105 105 105 107 109 109 112 115 114 114 112 111 112 113 112 111 111 111 114 114 114 114 116 115 116 111 111 111 111 111 111 111 109 111 113 112 116 116 116 115 113 111 109 112 112 114 116 123 135 144 144 144 146 149 148 148 144 144 146 140 138 138 135 127 125 127 127 131 131 129 127 129 135 135 136 136 136 138 140 138 138 137 136 138 138 136 136 136 136 138 137 138 140 146 148 148 149 149 151 149 146 150 149 149 149 153 157 155 157 159 159 159 159 159 159 159 157 159 160 159 157 159 160
194 200 199 200 200 199 199 200 200 201 201 201 203 203 205 208 210 208 207 208 210 211 212 212 211 210 208 208 209 207 207 207 207 207 208 208 207 207 208 208 208 210 211 211 211 212 212 213 211 212 212 212 212 212 212 213 214 214 214 216 217 217 217 219 219 217 217 218 217 216 216 216 214 214 212 212 212 212 212 212 212 214 214 214 214 214 214 216 217 218 218 218 218 218 216 217 218 219 218 219 219 219 220 221 221 219 219 219 219 219 218 218 218 218 218 218 218 218 218 218 218 218 218 218 218 219 219 219 219 219 219 220 221 221 221 221 221 222 223 224 225 227 227 227 228 229 230 230 231 232 232 232 234 234 235 236 237 239 241 242 243 243 243 244 244 245 245 245 246 246 246 246 246 246 245 245 244 245 244 243 244 244 244 244 244 245 245 232 221 217 216 216 217 218 219 220 221 225 228 228 230 231 232 230 230 231 232 232 232 232 231 231 232 234 238 241 244 244 244 245 245 243 244 243 240 239 240 240 240 241 243 243 242 240 244 244 241 239 237 235 234 236 236 236 235 230 229 229 227 227 227 227 227 226 221 219 211 207 187 140 98 88 86 85 85 85 86 86 86 86 83 83 82 83 85 86 86 86 86 86 86 85 85 86 85 85 86 86 85 85 85 83 83 83 83 83 82 80 81 82 82 80 80 80 80 80 80 80 82 83 83 83 83 82 80 80 82 83 83 83 84 83 85 85 86 85 86 85 85 83 85 88 88 90 90 90 90 90 90 93 97 97 97 97 96 95 93 93 93 93 93 92 95 97 100 102 104 105 105 104 107 109 109 112 116 116 117 116 116 114 114 112 112 111 111 111 116 114 114 114 114 114 112 112 111 111 111 111 111 111 112 114 114 116 116 116 117 114 114 112 114 114 118 118 122 128 144 144 142 144 146 146 146 146 140 142 140 135 130 127 126 127 129 127 129 129 127 127 129 133 133 129 134 133 133 135 136 136 136 136 136 136 136 136 138 138 138 140 141 142 145 148 148 149 149 149 149 149 149 149 151 151 153 153 155 157 159 159 159 157 155 159 159 157 159 160 160 159 162 162
193 196 194 196 196 194 194 196 197 199 199 199 201 204 203 206 208 208 207 207 207 208 209 210 210 208 208 209 208 207 207 207 207 207 208 208 207 207 208 207 209 211 211 211 211 212 212 212 212 212 212 212 212 212 212 212 214 215 213 215 216 216 216 216 218 217 217 218 217 216 216 216 214 214 212 212 212 212 212 212 212 214 214 214 214 214 214 216 217 218 217 217 218 217 216 216 218 218 219 219 219 219 219 220 220 219 219 219 219 219 218 218 218 218 218 217 217 217 217 217 217 217 217 217 218 219 219 219 219 219 219 219 220 221 221 221 220 221 222 223 225 226 227 227 226 229 229 230 231 232 232 232 234 234 235 236 237 239 241 242 243 243 243 244 244 245 245 245 245 245 245 245 245 244 244 244 244 244 244 243 243 243 243 243 243 245 242 231 221 218 218 217 218 218 219 218 218 220 224 227 230 232 232 230 231 232 232 232 232 232 231 232 232 233 236 240 242 244 243 244 243 244 244 241 240 240 240 241 240 241 243 244 242 242 244 243 241 239 238 236 235 235 236 235 230 227 228 228 227 227 227 227 227 228 227 225 218 206 180 149 100 91 91 88 90 90 88 88 88 86 85 85 86 88 90 87 88 88 88 88 88 88 88 88 86 85 86 86 85 85 85 85 85 86 86 83 83 83 83 82 83 83 83 83 82 80 80 80 82 83 83 83 83 80 79 81 80 82 83 83 83 82 84 85 85 85 85 85 85 85 84 90 91 90 90 90 90 90 91 95 98 98 98 97 94 95 91 91 93 93 93 93 95 97 101 104 104 105 105 107 107 109 109 112 116 116 116 116 117 114 115 111 111 111 111 112 114 114 114 114 112 112 114 114 111 111 111 111 111 111 114 116 116 116 116 116 116 116 116 119 116 116 120 120 125 128 133 140 142 145 144 144 144 143 136 136 135 127 123 122 123 129 127 127 128 127 127 128 131 131 127 127 131 133 133 135 136 136 136 136 136 136 136 136 138 138 138 140 142 144 145 146 148 149 149 149 149 149 149 149 151 152 153 153 155 157 159 160 159 155 156 157 159 159 159 160 160 160 162 164
188 194 194 194 194 194 194 196 196 199 197 196 199 200 201 201 204 207 206 206 206 206 206 207 208 207 207 207 206 206 207 207 207 207 207 207 207 207 207 207 208 208 208 210 210 211 211 211 211 212 212 212 212 212 212 212 212 212 212 212 212 213 214 214 214 214 214 215 217 216 216 216 214 214 214 213 212 212 211 211 211 212 212 212 212 212 213 214 216 217 216 216 216 216 216 216 218 218 218 219 219 219 219 219 219 219 219 219 219 219 218 218 218 217 217 216 216 216 216 216 216 216 216 217 218 218 218 218 219 219 219 219 219 219 221 221 221 222 222 222 224 225 226 227 227 229 230 232 232 232 233 234 234 234 236 237 238 240 241 242 242 242 243 243 243 244 244 244 245 244 244 244 244 244 243 243 243 243 244 243 243 242 242 242 241 241 238 231 223 218 218 219 219 219 219 219 219 219 221 224 228 233 232 228 229 230 231 232 232 232 232 232 233 234 235 238 241 243 243 243 243 243 243 241 240 240 241 242 240 242 243 243 242 244 245 242 241 240 239 238 238 239 238 234 228 227 229 228 229 229 228 228 227 228 227 226 223 210 185 142 93 95 93 91 90 91 90 90 90 89 88 88 90 91 93 91 91 90 88 90 90 90 90 90 88 88 88 88 86 86 86 86 86 88 88 85 85 86 85 83 83 83 83 83 85 84 83 82 80 82 83 83 83 80 79 79 79 83 83 85 85 83 83 83 86 88 88 88 86 88 90 91 93 93 91 88 90 90 95 98 99 98 97 95 95 95 92 91 93 93 93 93 95 98 102 105 105 109 109 109 109 109 109 112 116 116 116 116 116 116 112 111 111 111 111 111 111 114 114 114 112 111 112 114 112 114 115 111 111 114 116 116 117 116 118 118 120 120 118 118 116 120 123 125 127 129 135 140 144 144 142 142 142 138 133 131 129 123 123 122 125 127 127 128 127 126 125 125 125 125 125 127 127 131 130 133 133 133 133 133 133 133 135 136 138 138 138 140 142 144 144 144 144 149 148 148 148 149 149 149 149 149 153 153 155 155 155 157 159 155 155 157 159 160 160 160 162 164 164 164
183 189 193 193 194 195 194 196 196 199 197 196 196 196 197 199 200 203 203 202 203 203 201 204 204 204 204 206 206 206 206 207 206 206 207 207 207 207 208 207 208 209 208 210 210 210 210 211 211 211 212 212 212 212 212 212 212 212 212 213 212 213 214 214 214 214 213 212 213 217 216 216 214 214 214 213 212 212 211 211 211 212 211 212 212 212 212 213 214 215 216 216 216 216 216 216 217 218 218 218 219 219 219 219 219 219 219 219 219 219 218 218 218 217 216 216 216 216 216 216 216 216 216 217 217 217 217 218 218 219 219 220 219 219 221 221 220 221 222 223 225 225 226 227 228 229 231 231 232 231 233 234 234 234 236 238 238 240 241 242 242 242 243 243 243 243 244 244 244 244 244 244 243 243 243 243 243 242 242 242 242 242 242 240 237 234 232 231 225 221 219 219 219 220 218 219 219 220 221 224 228 233 231 227 229 230 231 232 232 232 232 232 233 234 236 238 241 242 242 242 242 243 241 242 241 240 241 241 242 244 244 244 244 245 244 243 241 240 240 239 239 240 238 231 230 229 231 232 231 231 230 231 229 231 230 228 227 201 162 118 93 98 95 95 95 93 91 90 90 90 92 91 90 91 91 93 93 96 91 90 91 90 90 90 90 91 91 91 88 86 88 86 86 86 86 85 85 88 88 86 86 86 86 86 85 85 83 82 80 81 83 83 83 82 82 80 79 83 83 85 86 86 86 86 87 88 88 88 88 88 90 91 91 93 93 91 89 90 95 97 97 98 96 95 95 92 91 91 91 91 91 93 95 100 104 105 105 109 109 109 109 109 109 112 117 116 116 116 116 116 114 112 112 111 111 112 112 114 114 112 112 111 112 112 112 114 114 113 114 114 116 116 116 120 122 120 122 123 122 121 120 121 125 125 127 129 135 140 144 140 138 138 137 136 132 131 129 125 123 123 125 127 126 127 127 127 125 125 123 125 125 127 129 131 131 133 133 134 133 133 133 133 135 136 138 138 138 140 142 144 145 144 144 148 149 148 147 149 149 149 149 149 151 153 154 155 154 156 159 157 157 157 160 160 160 160 162 164 164 164
180 185 188 189 189 193 193 193 193 193 193 194 193 193 194 194 196 197 200 200 200 200 201 201 201 200 201 204 204 204 204 204 204 204 206 207 207 207 208 207 207 207 207 208 208 208 208 211 211 211 211 211 212 212 211 210 210 211 211 210 209 210 212 214 214 214 214 214 214 214 214 214 214 214 214 213 211 211 211 211 211 211 211 211 211 211 211 212 213 214 216 216 216 216 216 216 216 217 218 218 218 219 219 219 219 219 219 219 218 217 218 218 218 217 216 216 216 216 216 216 216 216 216 216 216 216 217 218 218 218 219 219 219 219 219 220 220 221 222 223 224 225 225 227 230 230 231 231 233 233 233 235 235 236 237 238 239 241 241 242 242 242 242 243 243 243 244 244 243 243 243 243 243 243 243 242 242 242 242 242 241 241 241 238 233 232 231 229 228 222 220 220 220 220 219 219 219 220 221 223 227 230 230 228 229 230 231 231 232 233 234 236 236 237 238 241 241 242 242 242 242 243 242 241 242 242 242 243 244 244 245 246 246 245 245 243 241 240 240 238 238 237 235 232 231 231 231 231 231 231 231 231 231 232 231 231 225 180 133 120 98 98 98 100 102 98 97 97 95 95 93 93 95 93 92 95 95 95 95 93 93 93 93 94 94 93 93 93 91 87 90 88 88 88 88 88 88 90 90 89 88 90 90 90 88 86 83 82 82 83 83 83 83 83 83 83 84 83 83 86 90 90 88 88 88 90 90 90 90 90 90 90 90 91 93 93 95 95 95 95 95 97 98 100 97 91 90 91 88 91 93 95 97 100 104 105 105 109 109 111 111 111 111 111 113 114 116 116 116 116 116 114 114 111 111 114 113 114 112 112 114 116 112 112 113 112 116 116 116 116 116 118 118 120 120 122 122 122 122 122 123 125 123 122 123 127 135 135 135 135 135 133 133 131 129 127 127 125 125 125 125 125 125 125 126 125 124 125 125 125 125 129 130 131 131 131 131 132 133 133 135 135 135 136 138 138 138 140 144 144 144 144 144 146 148 149 148 149 149 149 151 153 153 155 157 157 157 157 159 160 160 160 160 160 160 165 164 164 163 164
175 180 183 188 189 188 189 188 188 186 188 191 189 189 193 194 196 196 199 199 199 199 199 199 199 201 200 203 203 204 204 204 204 205 206 206 207 207 207 207 207 207 207 207 208 208 208 210 210 210 210 210 211 211 210 210 211 211 211 210 207 208 210 212 212 213 213 213 213 214 214 214 214 214 214 213 212 212 211 211 211 210 210 211 211 211 211 212 213 213 214 216 216 216 216 216 216 217 218 218 218 219 219 219 219 219 219 219 218 218 218 217 217 217 216 215 216 216 216 216 216 216 217 216 216 216 216 217 219 218 218 219 219 219 219 220 221 221 222 223 224 225 225 227 228 230 231 232 234 234 234 235 236 236 238 239 241 241 241 242 242 242 242 243 243 243 243 243 244 243 243 244 243 243 243 242 241 241 241 241 241 241 241 238 233 232 232 227 225 223 223 222 222 221 219 219 219 220 221 222 227 229 229 229 229 231 231 231 234 236 237 237 238 240 240 241 241 241 242 242 242 243 243 243 243 243 243 245 246 246 246 246 246 246 245 243 241 240 240 238 237 235 234 232 232 232 233 232 232 232 233 232 232 232 232 231 217 162 158 153 111 102 105 104 105 102 102 100 97 95 97 97 97 98 100 97 97 95 97 98 98 98 98 98 98 98 98 98 97 93 91 91 93 93 93 93 93 91 91 91 91 91 91 91 88 86 85 86 83 83 84 83 83 83 83 82 82 85 86 88 91 90 88 87 91 93 90 90 89 90 90 88 90 93 93 95 94 97 95 95 97 98 98 100 97 93 91 92 91 95 98 98 98 100 104 107 107 109 108 111 111 111 111 112 114 114 116 116 116 115 118 116 115 111 112 114 114 114 114 113 116 118 116 116 114 114 116 115 118 118 118 120 120 120 120 122 122 122 123 125 125 125 123 123 125 127 131 129 127 126 127 129 129 128 127 127 127 124 125 125 125 125 123 123 125 125 125 125 125 125 125 131 131 130 131 131 133 133 133 133 135 137 136 136 138 138 140 142 144 144 144 144 146 148 147 150 149 149 149 151 153 153 157 159 159 160 160 160 160 160 160 160 160 162 163 164 164 165 164 164
173 176 180 181 181 180 182 185 185 185 185 186 186 189 194 194 194 194 196 197 199 198 199 199 199 199 200 200 201 203 203 203 204 204 204 204 207 207 207 207 207 207 207 207 207 206 207 208 208 208 208 208 210 211 208 208 211 211 211 210 208 210 211 212 212 212 212 212 213 214 214 213 214 214 214 213 212 211 210 211 211 209 208 210 211 211 211 212 213 212 213 214 214 215 216 216 215 217 218 218 218 219 219 219 219 219 219 219 218 217 218 217 216 216 216 216 216 216 216 214 213 213 215 216 216 216 216 216 217 218 218 219 219 219 219 220 221 221 222 223 224 225 225 227 229 230 231 234 234 234 234 236 236 236 238 239 240 241 241 242 242 242 242 242 242 242 242 242 242 242 243 242 242 242 242 241 240 241 240 240 240 239 240 237 233 232 232 228 224 224 224 224 224 223 222 221 221 221 223 223 226 229 229 229 229 230 230 230 235 239 237 238 238 239 240 240 240 241 242 243 244 245 245 245 245 245 246 247 248 248 248 248 247 247 246 243 241 240 240 238 236 236 234 232 232 232 232 232 232 232 233 233 233 234 233 231 210 148 200 193 178 162 106 102 102 104 104 104 100 100 100 100 100 102 104 100 100 100 101 100 100 100 100 100 100 100 100 100 98 95 96 95 95 95 95 95 95 93 93 91 91 93 93 91 90 90 90 90 86 86 85 85 85 83 82 82 82 86 88 86 88 90 90 90 91 91 90 88 90 90 90 88 90 93 93 95 94 98 97 95 97 98 97 97 95 95 91 93 94 97 98 97 97 99 104 107 109 108 110 111 111 111 111 114 114 114 116 116 116 118 120 118 116 114 114 114 114 116 116 116 118 120 120 120 116 116 116 116 120 118 120 122 122 122 122 123 122 122 123 125 126 125 125 125 126 127 127 127 127 127 127 129 131 127 127 127 127 125 125 125 125 125 125 125 125 125 126 124 125 125 129 131 131 133 133 133 133 133 133 133 135 136 138 138 138 140 142 143 144 144 144 144 149 149 149 148 149 149 151 153 155 155 158 159 157 159 160 160 160 160 160 160 160 164 164 166 166 166 166 166
169 173 175 173 174 175 178 181 181 183 183 185 185 186 191 194 193 193 196 196 197 197 197 197 197 197 199 199 200 201 201 201 203 205 203 204 206 205 206 206 206 207 207 207 207 207 208 207 208 208 208 209 210 210 208 208 210 210 211 211 210 211 211 211 211 212 212 213 213 213 213 213 213 213 213 213 212 212 211 211 211 208 209 210 210 210 210 210 211 211 212 213 213 213 214 216 216 216 217 217 217 218 218 218 218 218 218 218 218 218 219 218 217 216 216 216 216 216 214 214 214 214 214 214 214 214 214 214 217 217 217 217 218 218 220 219 221 221 222 223 224 225 225 227 229 231 232 234 234 235 235 236 236 238 239 240 240 241 241 242 242 242 242 243 243 243 243 243 243 243 243 242 241 241 240 240 240 240 240 239 239 239 239 237 234 233 232 228 225 226 224 224 225 225 225 224 223 222 223 225 227 229 229 229 229 230 230 230 234 238 236 238 238 238 239 239 240 241 243 243 244 245 245 246 246 247 248 249 248 248 248 248 249 248 246 244 242 240 239 238 236 237 234 232 233 233 233 233 232 233 234 234 235 235 236 231 199 172 218 226 219 208 146 123 141 133 103 105 104 102 102 102 103 105 104 102 102 104 103 102 102 102 102 100 103 102 100 100 99 97 95 95 97 97 97 98 98 95 96 98 97 97 97 95 93 91 92 91 91 90 86 89 88 87 85 85 86 86 88 90 91 91 93 93 93 91 90 90 90 90 88 88 90 93 94 95 95 98 97 97 96 98 99 98 95 95 93 92 95 97 98 97 98 100 104 108 109 109 109 111 111 111 111 114 116 116 115 116 115 118 120 120 118 114 114 116 115 116 118 118 120 120 119 120 118 118 118 118 120 120 122 122 122 122 122 123 123 123 125 125 125 125 127 127 127 128 125 127 127 129 129 128 129 127 127 127 125 125 125 127 125 125 127 127 127 127 127 127 127 127 131 130 131 133 133 133 135 135 134 135 136 136 140 139 140 140 140 144 146 146 146 148 149 151 151 149 149 151 153 155 155 155 159 159 160 160 160 162 162 162 162 162 162 164 166 166 166 166 166 166
168 171 171 169 171 174 178 180 180 181 182 185 185 185 186 189 191 191 193 193 194 194 196 196 196 196 195 198 199 200 200 200 201 203 203 204 204 203 203 204 203 206 207 207 206 207 208 206 207 208 208 208 208 208 208 209 208 208 211 211 211 211 211 211 211 212 212 214 214 214 213 212 212 212 212 212 212 211 211 211 211 209 209 208 207 208 208 208 210 210 211 212 212 212 213 214 216 216 216 216 216 217 217 218 218 218 218 218 218 218 219 218 216 216 216 216 216 214 213 214 214 214 214 214 214 214 215 214 214 216 216 216 216 218 219 220 221 221 222 223 224 225 225 227 229 231 233 234 235 236 236 236 237 239 240 240 240 241 241 242 242 242 242 243 243 243 243 242 243 242 243 242 241 240 240 240 239 239 239 238 238 238 238 236 234 234 231 228 226 225 224 224 225 225 225 224 224 224 223 225 227 229 229 229 229 229 230 230 231 234 236 237 238 238 238 240 241 242 243 243 243 243 244 245 245 247 248 250 249 249 249 249 249 248 246 244 242 240 238 238 236 236 236 234 234 233 234 234 234 233 234 236 238 238 239 228 208 210 228 234 233 229 206 188 212 178 105 105 107 104 104 104 105 104 102 104 104 104 104 104 105 107 105 105 104 104 104 104 100 100 98 97 98 98 98 100 100 97 98 101 100 97 98 98 98 95 95 95 95 95 93 93 92 91 90 90 89 90 91 93 93 93 93 95 96 95 90 88 90 88 86 86 90 95 95 95 95 97 98 98 98 97 96 97 95 95 95 95 95 97 98 98 97 100 104 107 109 111 111 111 111 111 111 114 116 116 116 118 120 120 120 120 120 116 116 119 120 120 120 119 120 120 120 120 121 118 120 120 118 120 122 122 122 122 122 126 125 125 124 126 125 125 127 127 126 127 127 127 128 129 131 128 127 127 127 126 125 125 125 127 125 125 127 127 127 127 127 127 127 129 131 131 131 133 134 133 135 135 136 136 138 138 140 142 142 142 143 144 148 148 149 149 149 153 151 149 151 153 155 155 155 155 157 159 160 160 160 162 164 164 164 164 165 166 166 166 166 166 166 166
162 164 166 168 170 171 175 178 178 180 181 181 181 183 183 185 186 188 189 189 191 194 194 194 194 196 196 199 199 199 199 199 200 201 200 201 203 203 204 204 204 204 206 207 207 208 207 207 207 207 207 207 207 207 207 207 208 209 210 210 211 211 211 211 211 212 212 213 213 213 212 212 212 212 212 212 212 212 211 211 211 208 208 208 208 208 208 208 210 211 212 212 212 212 213 214 214 214 214 214 214 216 217 218 218 218 218 218 217 217 217 217 216 215 214 214 214 213 214 213 212 213 213 213 213 213 213 212 214 214 216 216 218 218 218 219 221 221 221 222 222 224 224 227 229 231 233 234 235 236 236 236 239 239 240 240 241 241 241 242 242 242 242 242 242 243 243 243 243 243 243 243 241 240 240 240 238 238 238 238 238 238 238 237 234 234 232 229 227 224 224 225 226 227 227 226 225 226 226 227 227 229 229 229 229 229 229 228 227 232 236 237 238 238 238 241 241 242 242 243 243 243 244 244 246 247 247 249 250 250 249 249 248 248 247 246 243 241 240 238 238 236 236 235 234 234 234 233 234 235 236 239 242 241 240 238 234 236 235 236 236 236 228 211 227 211 149 111 109 109 107 109 109 107 107 107 107 105 106 105 108 109 109 107 105 105 105 105 102 101 102 100 100 100 99 102 102 100 100 102 102 100 100 100 102 102 98 97 97 98 100 98 98 95 95 91 91 91 93 93 93 95 97 97 98 97 92 91 91 91 88 88 90 93 98 97 97 98 97 98 98 99 98 100 97 97 97 97 95 94 95 97 98 100 105 111 111 109 109 111 112 112 112 117 118 118 118 118 122 123 123 122 120 120 119 122 122 122 122 122 122 122 122 122 122 120 120 120 122 122 122 122 122 123 123 125 124 125 125 125 126 126 127 127 125 125 127 127 127 127 129 125 125 127 127 125 125 125 125 127 127 127 126 125 127 127 127 129 129 131 133 133 133 131 133 135 136 138 138 138 140 140 142 142 144 145 146 148 149 149 149 149 149 153 153 151 153 155 154 155 157 157 159 160 160 159 160 164 164 166 166 166 166 166 166 166 166 166 168 168
159 162 166 168 168 169 171 175 175 176 179 180 181 181 181 181 186 188 189 189 188 189 191 194 194 196 197 199 199 199 199 199 200 200 200 200 203 203 202 203 205 204 204 206 207 207 207 207 207 207 207 207 207 207 207 207 208 208 208 210 211 211 211 211 211 212 212 212 212 212 212 212 212 212 212 212 212 211 211 211 211 208 208 208 208 208 208 209 209 211 212 212 212 212 213 214 214 214 215 214 214 216 216 217 218 218 218 218 217 216 216 216 216 216 214 214 214 214 214 212 212 212 212 212 212 212 212 212 213 214 216 216 217 218 218 219 221 221 221 222 222 223 225 227 230 232 233 234 236 237 238 238 238 238 240 240 241 241 241 241 242 242 242 242 242 242 243 243 243 242 243 242 241 240 240 238 238 238 238 237 237 237 237 236 234 233 233 232 229 227 225 226 227 227 228 227 227 227 227 227 228 229 229 229 229 229 230 228 226 227 234 236 237 238 240 240 242 242 241 241 241 243 244 245 246 246 246 248 250 249 249 249 248 247 247 246 244 241 240 238 238 236 236 236 236 236 235 235 235 237 238 241 242 242 240 241 241 239 238 238 239 239 236 227 231 227 213 176 122 109 109 109 109 109 109 109 109 109 111 111 109 108 109 109 107 105 105 107 107 104 103 103 100 100 100 104 104 105 105 107 107 105 105 105 104 104 102 102 102 103 105 104 102 100 100 98 98 97 97 97 95 95 97 97 97 97 95 95 95 97 93 91 93 93 95 97 97 97 97 97 98 99 100 99 98 97 97 96 93 93 94 95 97 102 107 111 109 107 107 109 112 112 112 116 120 120 120 120 122 125 125 125 123 123 123 122 122 122 123 123 123 121 122 122 123 123 123 123 123 123 123 122 123 125 125 125 125 125 125 125 127 127 127 127 125 125 127 127 127 127 127 125 125 127 127 126 125 125 127 127 127 127 125 125 127 126 127 131 131 133 135 135 135 135 135 136 138 138 140 140 140 142 142 142 144 144 145 149 149 149 149 149 149 151 154 153 153 155 155 154 157 159 159 159 160 159 160 164 163 166 166 166 166 166 167 166 167 166 168 169
160 162 162 164 166 168 167 169 171 173 175 176 181 180 180 180 183 183 188 188 189 189 189 191 193 195 196 197 197 197 197 197 199 199 199 199 201 201 200 201 203 203 203 204 204 204 204 204 204 204 203 204 204 204 207 207 207 207 206 208 208 208 208 211 211 211 211 211 211 212 212 212 211 211 210 211 211 211 211 210 208 208 208 208 208 207 207 207 208 208 209 211 212 212 212 212 212 213 214 214 214 216 216 216 217 218 218 218 217 216 216 216 216 216 214 213 212 212 212 212 212 212 212 211 211 211 211 211 212 212 214 214 216 217 218 219 219 220 221 223 223 224 224 226 229 232 233 235 236 238 238 240 240 240 241 241 241 241 241 242 242 241 241 242 243 244 244 244 244 244 243 243 242 241 240 238 238 238 237 237 237 237 237 236 236 235 234 234 232 231 229 227 229 229 229 229 230 228 227 227 228 229 229 229 227 227 228 227 225 225 231 233 236 237 239 240 241 242 241 241 241 241 244 245 246 246 247 248 249 249 249 248 248 247 245 245 245 243 238 238 238 237 236 236 236 236 236 236 237 240 241 242 243 242 241 242 243 241 240 239 240 240 239 237 237 234 227 212 151 107 114 112 112 112 113 111 109 111 111 111 112 111 111 110 109 107 109 109 109 107 104 104 104 104 104 105 105 109 109 111 111 108 107 105 105 105 105 105 106 105 105 105 105 104 103 105 106 104 104 100 97 97 97 97 97 96 97 97 97 97 98 97 96 97 97 98 98 98 98 97 98 102 102 102 102 98 98 97 93 91 93 95 100 105 109 110 107 107 107 109 114 114 116 118 120 120 122 123 125 127 127 127 125 125 125 122 123 125 125 125 123 122 122 122 125 124 125 125 125 125 127 127 127 127 127 131 131 131 129 129 129 127 127 127 127 127 127 127 127 127 127 127 127 127 127 127 126 127 127 127 127 127 131 131 129 130 133 133 134 135 136 136 136 136 136 136 138 137 140 142 142 142 144 144 146 148 149 149 149 149 149 149 150 151 151 153 153 155 157 159 159 159 159 160 160 160 162 164 166 166 166 166 167 168 168 167 168 168 168 171
160 162 162 164 166 163 165 166 168 169 169 171 176 178 179 180 181 183 186 186 188 189 189 191 192 193 194 196 196 196 196 196 197 197 199 199 200 200 200 201 202 203 203 204 204 204 204 204 204 204 204 204 204 204 206 206 206 206 206 207 208 208 207 210 210 211 211 211 211 213 212 212 211 211 211 211 212 210 211 210 208 208 208 208 208 207 207 207 206 209 210 211 212 212 212 212 212 213 214 214 214 216 216 216 216 217 217 217 217 216 216 216 216 216 214 213 212 212 213 212 212 212 212 210 210 211 212 212 212 212 213 214 216 216 217 218 219 220 220 222 222 223 224 226 227 231 234 236 236 238 240 240 241 242 242 242 242 242 242 242 242 242 242 243 243 244 244 244 244 244 243 244 244 242 241 239 239 238 238 237 237 237 236 236 236 236 235 235 234 234 233 231 231 230 228 229 229 228 228 227 227 229 228 228 225 225 224 223 224 225 229 232 234 236 238 240 241 242 241 241 241 242 244 245 245 245 247 248 249 248 248 246 245 243 238 241 242 243 240 238 238 238 238 237 237 236 238 238 240 241 242 243 244 244 244 244 244 244 242 240 241 241 240 239 238 239 234 228 189 125 114 114 114 116 117 114 112 112 112 111 111 111 111 111 111 110 109 109 109 109 107 107 107 107 107 107 107 110 109 111 111 109 107 105 105 105 105 107 111 110 107 107 104 105 104 105 105 104 104 104 100 98 98 98 98 98 98 98 98 98 100 100 98 98 98 101 100 100 102 102 102 104 105 104 105 104 102 102 97 95 97 97 102 105 109 109 109 109 109 111 114 116 118 121 121 120 122 122 125 125 127 125 125 125 125 122 123 125 125 125 123 123 122 122 125 125 123 125 125 127 127 127 127 127 127 131 130 131 132 133 129 127 127 127 127 127 128 127 127 127 127 128 127 127 127 127 127 127 127 127 127 127 131 131 131 133 133 133 133 135 136 136 136 136 136 136 136 139 140 142 142 142 143 146 148 148 149 149 149 149 149 149 151 153 155 157 157 155 157 159 159 159 160 160 160 162 164 166 166 166 166 165 168 169 169 169 169 169 171 171
159 159 160 162 164 166 166 166 166 166 168 171 175 176 178 180 181 181 185 185 186 188 189 189 189 192 191 194 194 196 195 196 196 196 197 199 199 199 200 200 200 201 204 203 203 203 202 204 204 204 204 204 204 204 204 204 204 204 203 206 207 208 208 208 208 208 210 212 211 211 211 211 212 211 211 211 211 211 211 210 208 209 208 209 208 207 207 207 207 208 210 211 212 212 212 211 212 214 214 214 214 214 214 216 216 217 216 216 217 216 216 216 216 217 214 213 212 211 211 211 212 211 211 208 210 211 211 211 211 211 212 213 214 214 216 217 218 218 219 221 223 223 223 226 227 231 234 236 236 237 239 241 241 242 242 243 243 242 242 242 242 242 242 243 244 244 244 245 244 244 244 244 245 244 241 238 238 238 238 236 235 236 236 237 237 236 236 236 235 234 234 232 230 230 229 229 229 229 229 230 229 229 227 224 223 223 222 223 222 224 227 232 233 233 235 236 240 242 242 242 242 241 243 245 244 245 246 245 244 246 245 242 240 238 238 239 240 242 240 239 239 238 238 238 238 238 239 240 241 243 244 244 245 246 245 245 245 245 244 242 243 242 240 238 240 241 238 234 222 191 133 114 114 118 120 118 118 116 116 115 114 116 116 114 114 112 112 112 112 112 112 111 108 109 109 112 112 112 114 114 112 110 109 107 111 111 111 111 114 112 109 111 111 109 107 109 108 105 105 105 104 102 102 102 100 100 102 102 102 101 105 102 102 102 102 102 102 105 103 105 107 109 111 107 104 104 105 105 102 98 97 98 104 109 109 111 111 111 111 114 114 116 120 120 122 122 122 122 125 125 125 125 125 125 125 127 126 127 126 127 125 123 123 125 127 127 125 125 127 129 131 131 131 130 131 131 131 133 133 133 133 129 127 127 129 129 127 127 127 127 127 127 127 127 127 131 131 131 131 131 131 131 133 133 133 133 137 136 136 136 136 136 136 136 136 138 138 136 140 144 146 146 146 148 149 149 149 149 149 149 149 153 157 155 156 160 159 159 159 159 160 160 162 162 162 164 166 166 166 168 169 170 169 171 169 168 169 171 172 171
159 159 159 160 162 164 164 164 164 164 166 169 175 176 178 179 181 180 184 185 186 188 191 189 189 190 191 193 194 196 196 196 196 196 197 198 199 200 200 200 200 201 203 203 203 203 203 203 204 204 204 204 204 204 204 204 204 205 204 206 207 207 208 208 208 208 208 209 210 210 211 211 211 211 211 211 211 211 212 210 208 209 208 208 208 207 207 207 207 207 210 210 211 212 212 211 212 213 213 213 213 214 214 216 216 216 216 216 216 216 216 216 216 217 214 213 212 211 211 210 210 210 210 207 209 209 210 210 210 210 211 212 213 213 214 216 218 219 219 221 222 223 225 226 227 230 234 236 236 238 240 241 242 243 243 243 243 242 242 242 242 242 243 243 244 244 244 245 244 244 244 243 245 244 241 238 237 237 237 236 236 236 236 236 236 237 236 236 235 234 234 233 230 230 229 230 229 229 229 229 229 229 227 223 221 221 222 222 220 221 225 229 231 232 232 233 236 240 241 242 242 242 243 242 243 244 244 244 244 243 238 234 235 235 236 237 238 240 240 240 240 239 238 238 238 239 240 242 243 244 245 245 245 245 245 245 245 245 246 244 244 243 240 238 236 236 237 235 232 222 182 120 118 120 122 122 120 116 116 116 116 116 118 118 116 114 117 116 114 114 114 114 112 112 112 114 114 114 114 114 112 111 109 109 108 111 112 111 112 112 114 112 113 112 111 109 109 107 107 107 105 104 105 104 102 102 105 105 105 104 103 106 105 107 107 105 107 109 109 107 110 114 112 109 109 109 105 105 107 102 101 98 104 107 109 111 111 111 112 114 114 116 122 123 122 122 122 123 125 125 123 125 125 125 125 127 127 129 129 129 127 127 127 127 130 129 131 130 129 131 131 131 131 131 131 131 133 135 135 134 133 131 128 129 131 131 129 129 127 129 130 129 129 129 129 131 131 131 131 131 131 131 133 133 135 135 136 136 136 136 135 136 136 136 136 141 142 142 142 146 148 148 148 148 149 150 149 148 149 151 151 153 157 157 157 159 159 159 159 159 160 162 164 164 164 166 165 166 166 168 169 169 168 171 171 169 171 171 171 171
156 157 157 159 160 162 161 162 162 163 165 168 173 175 176 176 181 180 181 183 185 188 189 189 189 189 189 192 193 196 197 196 196 196 196 196 199 199 200 200 200 201 203 203 203 204 204 203 203 203 203 203 203 202 202 202 204 204 204 206 207 207 207 208 208 208 207 208 208 208 210 210 211 211 211 211 211 211 211 210 208 208 208 208 208 207 207 207 207 208 208 208 210 211 212 212 212 212 212 212 213 213 214 214 214 213 214 216 216 215 216 216 216 216 214 212 210 211 211 210 208 208 208 207 207 206 207 208 208 208 210 211 211 211 213 216 217 219 219 221 222 222 225 227 229 232 234 236 236 238 239 241 241 243 243 243 243 243 243 242 242 242 243 243 243 244 244 245 245 245 245 245 245 244 243 238 236 236 236 236 236 236 236 236 236 236 236 236 237 236 233 232 230 230 229 229 229 229 229 229 229 228 227 224 222 222 221 221 219 219 223 228 231 232 232 232 234 236 238 242 242 242 241 241 242 242 242 243 243 240 235 232 233 234 234 234 237 240 242 240 240 240 239 238 239 240 242 243 244 245 245 245 245 245 245 245 245 245 244 244 244 242 241 235 229 232 235 236 234 230 216 148 118 123 123 123 123 122 119 120 120 120 120 120 120 118 118 118 118 118 116 116 118 116 114 118 118 118 112 111 112 112 111 111 111 110 112 114 114 116 116 116 116 116 112 110 111 111 111 111 111 107 107 109 107 107 107 111 111 109 107 107 109 111 111 111 111 111 111 111 112 114 112 111 112 112 111 109 107 107 107 105 104 105 109 111 111 113 112 112 114 120 123 122 122 122 122 124 125 125 123 127 127 127 127 127 127 131 131 131 131 131 131 131 131 131 131 131 133 133 133 131 131 133 133 135 136 136 135 133 133 133 130 131 131 131 131 129 127 129 131 131 131 131 131 131 131 131 133 133 134 133 133 133 136 135 136 136 136 138 138 138 138 138 138 143 144 148 148 148 146 146 146 147 149 150 149 149 149 153 155 155 155 159 159 157 159 160 160 160 162 164 167 167 162 164 166 166 166 168 169 169 169 171 171 171 171 171 171 171
159 159 159 159 159 162 162 165 164 164 165 169 173 173 175 175 178 178 181 181 183 185 186 188 188 188 188 189 194 197 196 197 196 196 197 197 199 199 200 200 200 201 201 203 203 204 204 203 203 203 203 203 203 203 203 203 203 204 203 204 206 207 207 208 208 208 208 208 208 208 210 210 210 210 210 210 210 210 209 208 208 208 208 208 207 207 207 207 206 208 208 208 211 211 211 212 212 212 212 212 212 213 213 213 213 214 214 216 214 214 216 216 216 216 213 211 211 210 210 208 207 207 207 207 207 207 207 207 208 208 209 210 210 210 212 214 218 218 219 222 223 224 226 228 231 233 234 235 236 238 239 240 241 242 243 243 244 243 244 244 243 243 243 243 244 244 244 245 245 245 245 245 245 245 244 240 236 236 237 237 237 237 237 237 237 237 237 237 238 238 234 232 230 229 229 229 229 229 229 230 229 227 227 224 223 223 222 221 220 220 221 225 231 232 232 232 232 234 236 239 240 241 242 242 241 240 240 240 239 237 234 232 233 235 234 234 236 240 241 241 240 241 240 240 240 242 244 244 245 246 246 245 245 244 244 245 245 244 242 243 243 241 239 234 231 233 235 235 235 232 226 193 123 125 124 125 125 125 125 126 127 125 127 128 125 123 124 123 122 122 120 122 124 122 120 122 122 118 116 114 114 114 111 113 112 112 114 116 120 118 118 118 118 116 114 112 110 112 115 114 114 112 111 111 112 112 111 113 114 112 111 109 109 111 112 114 114 112 113 112 112 116 114 112 116 116 114 112 110 111 111 109 107 109 111 112 112 114 114 114 115 120 122 122 122 122 122 122 123 125 125 127 127 130 129 129 131 131 131 131 131 131 131 131 131 131 131 133 133 133 133 133 131 135 134 136 136 135 135 135 133 133 133 131 130 131 131 128 129 129 131 130 131 131 131 131 131 131 131 131 133 135 135 135 135 136 136 137 136 138 138 140 141 142 142 142 144 148 148 148 148 148 148 149 149 149 149 149 151 153 155 155 155 159 159 158 160 160 160 160 164 164 164 164 164 166 166 168 168 170 169 169 169 171 171 171 171 171 174 173
157 157 158 158 157 159 160 162 162 162 164 168 171 171 173 173 176 176 178 181 181 183 183 186 186 186 186 189 196 199 199 199 197 196 197 200 200 200 200 200 200 200 200 201 203 204 204 202 203 203 203 203 203 203 203 203 201 203 204 204 204 206 207 208 208 208 208 208 208 208 208 208 208 208 208 208 208 208 208 208 208 208 208 207 206 207 207 206 207 208 208 208 210 211 210 211 212 212 212 212 212 212 212 212 212 214 215 214 214 213 216 216 214 214 213 211 211 210 208 207 206 207 207 207 207 207 207 207 207 208 208 208 208 208 211 213 216 217 219 222 224 227 227 229 230 233 234 234 236 238 239 240 241 243 243 244 244 243 244 244 243 242 243 243 243 244 244 245 245 245 245 245 245 245 245 241 238 238 239 238 237 237 236 237 237 237 237 237 238 238 236 233 231 229 229 229 229 229 229 230 229 227 227 225 224 224 222 221 221 221 222 222 227 232 233 235 233 234 235 236 236 236 238 239 238 237 238 238 236 236 235 233 234 234 234 235 240 241 241 240 240 241 241 241 242 243 244 245 246 246 246 246 245 244 243 244 243 243 242 241 241 240 237 235 233 234 234 234 235 232 227 221 166 120 127 127 127 127 127 127 129 132 131 131 129 127 125 125 125 125 125 125 127 125 125 122 122 122 122 118 118 120 118 116 116 116 118 120 118 120 120 120 120 118 116 114 114 116 116 116 115 114 114 114 114 113 114 114 114 112 111 111 111 112 115 114 114 116 116 116 114 116 118 116 116 116 115 112 111 112 112 112 111 112 113 112 112 112 114 116 118 120 122 122 122 122 121 122 122 123 125 127 126 131 131 133 133 133 133 133 131 131 133 134 133 132 133 133 134 133 133 133 133 137 136 136 136 138 138 136 135 133 135 131 131 131 131 131 131 131 131 131 131 133 133 133 133 133 135 133 135 136 136 136 136 136 136 137 138 138 138 140 142 144 144 144 146 147 148 149 149 149 149 149 149 149 149 151 153 155 155 155 155 157 159 161 160 159 161 160 162 164 162 164 166 166 166 168 169 170 169 170 171 171 171 171 171 171 173 175
159 157 155 157 159 160 160 160 162 164 166 169 169 171 173 175 175 175 176 180 180 180 181 185 185 185 186 189 194 199 200 200 199 199 200 200 201 201 200 200 200 201 200 203 204 204 204 203 203 203 203 203 203 203 203 203 203 203 203 204 204 206 207 207 207 208 208 208 208 208 208 208 208 208 208 208 208 208 209 208 208 208 208 208 208 208 208 208 208 208 208 208 210 210 211 211 211 212 212 212 212 212 212 212 212 213 213 213 213 214 214 214 213 214 213 211 211 209 208 208 207 207 207 206 206 206 206 207 207 208 207 207 208 208 211 212 215 218 219 221 224 226 227 227 230 233 234 235 236 238 239 240 242 242 243 243 244 244 244 244 244 243 243 243 243 244 244 245 245 245 245 245 246 246 246 244 241 240 240 238 238 239 238 238 238 237 237 238 238 237 236 234 232 230 230 230 230 229 229 229 228 227 227 227 225 224 223 221 221 221 223 223 225 229 234 236 234 234 234 234 234 234 234 235 236 236 237 239 236 236 236 237 235 235 236 240 242 242 241 241 241 241 242 242 243 244 245 245 246 246 246 245 244 244 244 244 243 242 241 241 241 239 237 235 234 235 235 235 235 234 230 228 197 123 125 127 127 129 129 129 130 133 131 131 129 129 127 127 127 127 129 129 131 130 127 123 123 125 125 123 122 122 120 118 119 120 120 120 120 121 122 122 122 120 120 116 116 116 118 120 118 115 116 116 115 116 116 116 116 115 112 114 114 116 118 118 118 118 118 118 118 118 120 118 118 118 118 114 115 114 116 114 114 116 116 114 111 114 114 116 118 120 122 122 123 123 122 123 124 125 127 127 127 131 131 133 133 134 135 136 135 133 133 133 133 135 135 135 135 135 133 133 133 138 138 138 138 139 138 138 136 135 135 131 133 133 133 134 133 131 130 133 133 135 135 133 135 136 135 136 136 136 138 138 138 138 138 140 140 142 142 142 144 148 149 148 148 149 149 149 151 151 151 151 151 149 149 153 155 157 157 155 155 160 160 160 161 160 160 160 164 164 167 166 166 166 168 169 169 169 169 171 172 171 173 171 173 173 175 175
159 157 155 157 158 160 160 160 160 162 166 169 169 171 173 176 175 173 171 175 175 178 181 185 185 185 185 187 193 197 200 200 200 200 200 201 203 201 199 200 200 201 203 204 204 204 203 202 203 203 203 203 203 203 203 204 203 203 203 203 203 206 207 207 207 208 208 208 208 208 208 208 208 208 208 208 208 209 209 208 208 208 208 208 209 208 208 208 208 208 208 208 208 208 211 211 211 211 212 212 212 212 212 212 212 212 211 211 213 214 214 214 214 214 213 211 211 210 208 208 207 207 206 204 204 204 204 204 206 207 207 207 208 208 210 211 216 217 219 221 223 225 227 227 230 233 235 236 236 238 238 240 242 242 242 243 244 244 244 244 244 243 243 243 243 244 245 245 245 245 245 245 247 247 245 245 243 242 241 240 239 240 239 238 238 237 237 238 237 235 234 234 233 231 230 230 230 229 229 227 227 227 227 227 225 223 223 222 220 221 223 224 226 227 232 234 234 234 233 233 234 234 234 234 235 235 236 238 237 237 238 240 238 237 238 242 242 241 241 241 241 242 242 243 243 245 245 245 246 246 245 244 244 244 244 243 243 242 241 241 241 241 240 238 237 237 238 238 236 236 234 230 197 121 123 125 127 129 130 131 131 133 131 131 131 131 127 127 126 127 131 131 131 130 127 129 129 127 127 129 127 125 123 122 125 125 123 122 122 122 122 122 122 122 123 120 120 120 120 122 120 116 116 116 116 116 116 116 116 116 118 118 118 118 120 119 120 120 120 120 122 123 125 122 122 123 122 118 116 118 120 121 120 120 120 118 116 112 114 116 118 119 122 122 123 122 122 121 125 125 127 127 127 129 131 133 133 133 135 136 135 132 133 133 136 136 136 135 136 136 136 136 136 138 137 138 138 138 138 138 136 136 134 131 133 133 133 133 133 132 135 133 133 136 135 133 135 136 136 136 136 136 138 138 138 138 138 140 142 144 144 144 144 149 149 149 149 149 149 149 151 153 153 153 153 151 153 156 155 157 159 159 160 160 160 160 160 160 160 160 162 164 166 166 166 168 169 169 169 169 169 171 171 169 173 171 174 175 175 175
155 155 155 155 155 160 160 160 160 160 164 166 168 168 171 171 171 171 171 173 176 178 181 185 185 185 185 188 191 196 200 201 200 200 201 201 203 203 202 201 200 201 203 204 204 204 203 200 200 200 200 200 200 200 200 200 199 201 203 203 204 204 204 207 207 208 208 208 208 208 209 208 208 208 210 210 210 210 210 210 210 210 208 210 210 208 208 208 210 210 210 210 210 210 211 211 211 211 211 212 212 212 212 212 212 212 212 212 212 212 212 212 212 212 211 210 208 208 207 207 207 206 204 204 204 203 203 203 204 204 204 204 207 207 208 210 214 217 218 220 221 223 226 228 230 234 236 236 237 237 238 240 241 243 243 243 244 244 244 244 244 243 243 243 243 244 244 245 245 245 245 245 247 247 246 246 245 245 243 241 240 240 240 240 238 237 236 236 236 235 235 234 233 231 230 229 229 230 229 227 228 227 227 227 226 225 224 223 222 222 224 225 226 226 229 230 231 233 232 232 232 234 233 234 234 234 236 237 238 238 240 241 240 240 240 241 241 241 241 242 241 242 242 244 244 244 245 245 245 245 244 244 244 244 243 243 243 243 242 241 241 241 241 241 240 240 241 240 237 237 235 233 206 142 136 125 127 129 131 131 131 133 130 131 131 132 129 129 129 131 131 131 133 131 129 131 132 129 129 131 129 127 127 127 125 125 125 125 123 123 122 123 123 122 122 123 123 122 122 120 118 119 118 119 118 118 118 118 118 120 122 122 122 122 122 120 120 122 122 123 125 125 129 129 127 127 125 122 122 123 123 123 122 123 123 122 120 116 116 118 121 122 123 123 127 127 125 127 129 129 129 129 127 131 132 135 135 135 135 136 136 135 135 135 138 138 138 138 138 138 138 138 138 140 140 140 140 138 138 136 138 140 138 136 135 135 133 135 135 136 136 135 135 135 136 135 136 136 136 135 136 138 140 140 140 140 140 142 144 144 144 146 148 148 148 149 151 151 151 151 153 154 153 153 155 155 155 157 157 159 159 159 160 160 160 160 162 162 163 162 166 166 168 168 168 169 171 169 169 169 169 171 171 172 175 173 175 175 175 175
153 153 153 153 155 158 159 159 159 159 162 167 164 164 166 166 166 168 169 173 176 178 183 185 185 185 186 189 191 194 197 200 200 200 201 201 201 201 201 200 200 201 201 201 201 201 201 200 201 200 200 200 200 200 200 200 200 200 203 203 204 204 204 207 207 208 208 208 208 208 208 208 208 207 211 211 211 210 211 211 210 211 211 211 211 208 208 208 210 211 211 211 211 211 211 211 211 211 212 212 212 212 212 212 212 212 212 212 212 212 212 212 212 212 211 210 208 207 207 207 206 204 204 204 204 204 203 203 203 204 204 204 207 207 208 210 213 217 218 220 220 221 224 227 232 234 236 236 237 239 239 240 241 242 243 243 244 244 244 244 244 242 243 243 243 243 244 245 245 245 244 245 247 246 246 246 245 245 244 242 241 241 240 240 238 237 236 236 235 235 235 234 233 232 230 230 229 229 229 227 227 227 227 228 227 225 226 226 225 225 225 225 226 227 228 229 229 231 232 232 232 233 233 232 232 233 234 237 238 238 240 241 240 241 242 242 241 242 242 242 242 242 243 243 244 244 245 245 244 244 244 243 244 243 243 243 243 244 242 241 241 241 241 241 241 242 241 240 239 239 236 235 229 206 189 146 127 130 129 131 129 127 129 129 129 129 129 129 132 131 131 131 133 131 131 131 131 131 130 131 131 131 129 127 129 129 129 127 125 125 125 125 125 123 121 125 125 125 125 123 120 118 120 120 120 120 119 121 118 119 122 122 122 122 122 122 124 123 123 125 127 131 131 131 129 129 127 125 127 127 125 127 127 125 125 123 123 122 120 120 121 123 125 125 129 129 129 129 131 131 131 133 133 135 135 136 136 136 136 136 136 136 136 136 140 140 141 140 138 138 138 140 141 142 142 142 142 144 142 140 142 142 140 138 138 138 138 138 136 136 135 136 136 136 136 136 136 136 136 136 138 140 140 140 140 142 142 144 143 144 144 146 148 149 150 149 151 153 153 153 153 153 153 153 155 155 155 157 159 159 159 159 158 160 160 159 163 164 164 163 166 166 169 170 169 169 171 169 169 169 169 171 171 175 174 175 175 174 175 175
151 150 151 152 155 157 157 157 159 160 160 162 162 162 162 162 164 166 168 169 175 178 183 185 185 185 189 189 188 189 191 193 194 199 199 200 200 200 200 200 200 200 199 199 198 199 200 199 199 199 199 200 200 201 200 200 200 201 203 203 204 204 204 207 207 207 206 208 208 208 208 208 210 211 211 211 211 211 211 211 212 212 212 212 212 212 212 212 212 212 212 212 211 211 211 211 211 211 211 211 212 212 212 212 212 212 212 212 212 212 212 212 211 211 211 210 208 207 207 206 204 204 204 203 203 203 203 203 203 203 204 204 208 207 207 210 212 216 218 219 219 221 223 227 232 235 236 238 237 238 239 240 241 243 243 244 245 245 245 245 244 243 243 243 243 243 243 244 245 245 245 245 245 246 246 245 245 245 244 242 242 242 241 240 240 237 236 236 236 235 235 234 233 232 230 230 230 229 229 227 226 227 227 227 228 226 225 226 227 227 227 227 227 227 227 228 228 229 230 231 232 232 231 230 232 233 234 236 236 238 241 241 241 241 243 242 242 243 242 243 243 244 244 243 244 244 244 244 244 243 241 241 242 242 243 243 243 243 243 243 243 242 242 242 242 242 240 240 240 241 240 238 235 228 220 194 153 144 136 127 129 129 129 129 129 129 129 129 131 131 131 131 133 133 133 131 130 134 133 133 133 131 131 131 131 131 129 129 127 127 131 129 125 125 127 129 129 127 127 127 123 120 122 122 122 122 122 122 120 122 123 123 123 123 125 127 127 124 125 129 132 131 133 133 131 131 131 129 127 126 127 127 127 127 127 127 127 125 122 122 123 125 127 129 131 131 131 131 131 133 133 135 136 136 136 136 136 138 138 138 138 138 138 138 142 142 142 140 138 138 138 140 142 144 144 144 144 144 144 144 144 144 142 138 142 142 142 140 138 137 138 138 138 138 138 136 138 138 138 139 140 144 140 140 142 144 146 146 146 148 149 149 149 151 152 151 153 153 153 153 151 155 155 155 159 159 157 159 159 159 159 160 160 160 160 164 164 164 164 166 166 166 169 169 169 168 171 170 171 171 171 170 171 175 175 175 175 175 174 176
151 151 151 153 153 157 158 158 159 160 162 162 162 162 164 164 166 166 168 169 171 176 181 185 185 186 188 189 189 189 189 191 191 194 196 197 200 200 200 199 197 197 196 197 199 197 197 197 197 199 199 200 200 200 200 200 199 201 203 203 204 204 204 206 206 207 207 208 208 208 208 208 210 211 211 211 211 211 211 211 212 212 212 212 212 213 212 212 212 212 212 212 211 211 211 211 211 211 211 212 212 212 212 212 212 212 212 212 212 212 212 212 211 210 210 210 208 207 206 204 204 204 204 203 203 203 203 203 203 203 204 204 206 206 207 210 212 214 217 219 219 219 223 227 232 235 237 238 238 240 241 242 242 242 243 244 245 245 245 245 244 243 243 244 245 243 243 244 245 245 245 245 246 246 246 245 245 245 244 243 242 242 242 242 240 240 237 237 236 235 234 234 232 231 229 230 230 229 229 227 227 227 227 227 227 226 225 225 226 227 227 227 227 227 227 228 229 230 230 231 232 232 232 232 232 233 234 235 236 238 241 242 242 242 242 242 243 244 244 244 244 244 244 242 243 244 244 245 243 242 241 241 242 242 243 242 243 243 243 244 244 245 243 242 242 242 240 240 240 241 240 240 236 233 230 226 204 193 182 135 127 131 130 130 129 129 129 129 131 130 131 131 133 133 133 131 131 133 133 133 133 131 131 132 131 131 133 132 129 129 131 131 129 127 129 131 131 129 127 128 125 123 123 122 122 122 123 125 123 126 125 125 125 129 129 129 127 125 127 133 133 131 133 133 133 132 133 131 127 129 131 129 129 129 128 129 129 127 123 123 123 125 125 127 130 131 131 131 131 133 133 135 135 136 136 136 136 138 139 138 138 138 139 140 142 142 142 140 140 140 140 142 144 144 144 144 143 147 146 146 147 144 146 142 142 142 142 140 140 140 138 138 138 138 138 136 138 140 138 138 138 142 142 142 144 146 148 147 148 149 148 149 149 153 153 153 153 153 153 153 155 157 157 157 159 159 159 159 159 159 159 160 160 160 162 164 164 164 166 166 166 169 169 169 169 169 171 171 171 171 171 171 173 175 175 175 175 175 175 179
151 148 148 151 151 152 153 157 159 160 160 160 161 160 162 164 162 164 166 166 168 173 178 181 186 188 188 191 191 188 189 189 191 191 196 195 199 197 196 196 194 194 194 194 194 196 196 196 197 199 199 199 199 199 199 199 199 201 203 203 204 204 204 204 204 207 207 207 207 208 207 208 210 211 211 211 211 211 210 211 212 212 212 213 213 214 213 212 212 212 212 212 211 211 211 211 211 211 211 211 212 212 212 213 212 211 211 210 211 211 211 211 211 210 209 208 207 206 204 204 204 203 203 203 203 203 203 203 203 203 203 203 204 204 207 207 210 213 216 218 218 219 222 226 231 236 237 237 240 240 242 243 243 243 244 245 245 244 245 245 245 245 245 245 245 244 243 244 244 246 245 245 245 245 246 245 245 245 244 243 242 242 242 241 241 240 238 236 236 235 234 233 232 230 230 230 230 230 230 227 227 227 227 227 227 227 227 226 226 227 227 227 227 227 227 228 229 230 230 230 230 231 232 232 232 232 232 234 234 236 240 242 242 242 242 243 244 245 246 246 246 245 247 246 244 243 243 243 242 241 241 241 242 243 243 242 243 241 241 244 246 245 244 242 242 241 240 240 240 240 239 240 238 235 232 228 219 213 206 155 125 131 131 131 127 127 127 127 130 131 131 131 133 133 133 133 133 133 133 133 131 129 131 131 133 133 133 133 133 133 133 132 131 131 131 131 131 131 131 131 129 125 125 127 123 123 127 126 129 129 129 129 129 130 131 129 129 129 132 133 135 136 136 136 136 136 136 135 133 133 133 133 133 133 133 133 133 129 129 127 127 125 129 129 129 131 133 133 135 138 138 136 140 138 138 138 138 142 142 142 142 142 142 142 140 142 144 144 144 144 144 146 148 144 144 146 148 148 148 148 148 148 143 144 144 144 143 143 144 143 142 138 138 140 141 142 142 142 139 140 140 140 144 144 144 146 149 149 149 149 149 151 151 151 153 155 155 155 155 155 155 155 157 159 159 159 160 160 160 160 160 160 160 164 164 166 166 166 167 166 168 169 169 171 171 171 171 171 171 173 175 173 175 176 176 176 176 176 178 180
157 157 155 155 149 151 153 155 157 159 160 160 160 160 162 164 164 163 165 166 168 169 173 178 182 185 185 189 189 188 188 188 191 191 194 196 196 196 194 194 193 194 193 191 191 193 193 196 196 197 197 197 197 197 199 199 199 200 202 203 204 204 204 204 204 207 207 206 206 207 207 209 210 210 211 211 211 211 211 212 212 213 213 214 215 214 214 213 212 213 212 212 211 211 211 211 211 210 211 212 212 212 212 212 212 211 211 211 211 211 210 210 210 210 208 207 207 206 204 204 204 203 203 203 203 201 201 201 201 201 203 203 204 204 206 207 210 212 214 217 216 219 221 226 231 235 236 238 240 241 242 243 244 244 245 246 245 245 244 244 245 245 245 245 245 245 245 244 242 243 245 245 245 245 245 245 245 243 244 243 242 241 241 241 241 240 239 238 236 235 234 233 232 231 231 231 230 230 230 228 227 227 227 227 227 227 227 227 227 227 227 227 227 227 227 228 228 229 230 230 230 231 232 232 232 233 234 233 234 236 238 241 241 242 242 244 245 246 247 247 247 246 248 249 248 247 245 243 242 241 241 242 242 242 243 243 242 238 238 241 245 245 244 243 242 240 240 241 240 240 240 239 236 234 232 228 221 221 217 171 125 131 131 131 129 129 128 130 131 131 131 131 133 133 133 133 133 134 133 133 133 131 131 131 133 133 133 133 133 133 133 133 131 131 131 131 131 131 131 131 133 133 131 129 127 126 129 129 131 131 133 133 135 133 131 133 133 133 134 135 136 136 136 136 136 136 136 136 136 135 135 135 135 135 135 133 133 135 133 129 131 131 133 133 133 133 135 135 135 138 138 138 140 140 140 142 142 142 142 142 142 142 142 142 142 142 144 144 146 146 146 146 148 144 144 148 148 149 149 148 148 148 146 146 146 144 144 144 146 144 142 142 140 140 142 142 142 142 142 144 144 144 146 146 144 145 151 151 151 150 151 155 155 152 153 155 155 155 155 155 155 157 159 159 159 159 160 160 162 162 162 160 160 162 164 164 166 168 168 168 169 171 174 173 171 171 171 171 171 173 175 175 175 176 176 176 176 178 180 180
166 171 171 171 166 164 164 166 157 157 159 160 160 160 162 162 163 164 165 166 168 168 171 175 178 181 182 183 186 186 186 186 188 189 191 191 194 194 194 193 191 191 191 191 191 191 191 194 194 196 196 196 196 197 199 200 199 199 200 201 203 203 203 204 205 204 204 204 206 207 207 207 208 208 211 211 210 211 212 212 212 213 214 213 214 214 214 214 214 214 212 212 211 210 211 211 211 211 211 211 212 212 212 212 212 210 211 211 211 211 208 208 207 208 208 208 207 206 204 204 203 203 203 203 201 201 200 200 200 200 201 203 204 204 204 204 208 210 212 216 216 218 220 223 230 234 236 238 239 241 242 243 244 245 245 247 245 245 244 244 245 245 246 245 245 246 247 243 240 240 240 243 243 241 241 241 243 243 243 243 242 241 241 241 241 240 238 238 237 236 234 232 232 232 232 231 230 230 230 228 226 227 227 227 227 227 227 227 226 227 227 227 227 227 227 228 227 228 229 230 230 231 231 232 234 234 233 233 234 236 239 239 241 242 246 246 246 247 247 247 246 247 248 248 249 248 245 244 243 243 243 242 242 241 243 242 241 240 238 241 243 245 245 244 242 240 239 239 239 239 239 236 234 233 231 226 220 220 216 169 127 130 128 129 131 131 131 131 131 131 129 131 133 132 134 133 133 133 133 133 133 133 133 133 133 133 133 133 133 133 133 133 133 133 133 131 131 133 133 133 135 136 136 131 134 133 131 131 133 134 133 135 136 133 133 135 136 133 135 138 138 138 138 138 138 138 138 138 135 136 137 138 138 136 135 136 135 136 136 136 135 133 135 136 136 136 136 135 135 136 138 140 142 142 142 142 141 142 142 142 142 142 142 140 144 144 144 144 146 146 146 146 146 146 148 149 149 149 149 149 149 150 148 148 146 148 149 148 148 146 145 144 144 142 142 144 144 143 146 148 146 146 149 148 149 149 153 153 153 155 155 155 155 155 155 155 155 155 155 155 155 158 159 159 160 160 160 162 164 164 164 160 160 163 168 166 168 169 169 169 171 171 175 173 171 171 171 172 175 173 175 176 176 176 175 176 178 181 180 178
168 169 166 168 169 171 175 176 164 157 159 159 160 160 162 164 164 164 166 168 169 169 169 171 173 176 178 180 183 185 185 185 185 185 188 188 189 189 192 189 186 188 188 189 189 191 191 194 194 194 194 194 196 196 197 197 199 199 199 200 201 201 202 203 203 203 204 203 204 206 207 207 207 207 209 211 211 212 212 213 213 214 215 214 214 214 214 216 216 216 214 213 212 211 211 211 211 211 211 211 211 212 212 211 211 211 211 211 211 210 208 208 208 208 208 208 207 206 204 204 203 204 203 201 201 200 200 200 200 200 201 201 203 203 204 204 207 210 212 214 214 218 219 223 228 235 235 236 238 238 241 242 244 245 245 245 245 244 243 243 245 245 244 243 244 245 243 240 243 245 245 245 247 248 247 246 245 247 247 246 242 240 240 240 240 240 239 238 238 236 234 233 232 232 232 231 230 230 229 228 227 227 227 227 227 227 227 227 227 227 227 227 227 227 227 227 227 228 229 230 230 231 231 232 232 233 234 234 234 236 238 241 242 244 247 247 247 247 246 247 248 247 248 248 249 248 246 245 245 246 244 243 242 242 243 242 241 241 242 243 244 244 244 244 242 241 236 236 238 236 236 234 233 232 228 221 218 216 203 160 129 131 131 131 129 129 131 131 131 131 133 133 133 133 131 131 131 131 131 133 133 133 133 133 135 134 133 133 135 136 135 135 134 133 133 133 133 135 135 135 135 136 136 136 136 136 135 135 136 136 135 136 138 135 136 138 136 136 136 140 140 143 142 142 140 136 136 136 138 138 138 140 142 140 140 137 138 138 138 138 136 135 138 139 136 136 136 136 140 140 140 141 143 142 144 144 144 144 142 142 144 146 146 146 146 146 146 148 149 148 148 149 149 149 149 153 153 153 153 153 153 153 149 149 149 151 151 149 147 146 146 144 144 148 148 146 147 148 148 149 149 149 151 151 153 152 153 153 155 155 155 155 155 157 157 157 157 157 154 155 156 160 160 160 163 162 162 164 164 164 166 161 162 168 170 169 169 169 169 169 171 170 175 173 171 171 173 175 176 176 177 176 176 178 178 178 178 180 180 181
162 164 162 161 162 164 173 175 171 162 157 159 159 160 163 162 161 164 166 166 168 168 169 171 171 176 176 178 180 181 183 185 185 185 186 186 186 186 188 188 186 186 186 188 189 191 193 194 194 194 194 194 196 196 196 196 199 199 199 199 200 200 200 201 203 203 203 201 203 204 206 207 207 206 207 210 210 211 212 213 214 214 214 214 214 214 214 216 216 216 215 214 213 212 211 211 211 211 211 211 211 212 212 211 211 211 211 211 210 208 208 208 208 208 208 208 207 206 204 203 201 203 201 199 200 200 200 200 200 200 200 200 201 203 205 204 206 210 212 214 214 216 219 222 228 234 234 235 237 237 240 242 244 244 244 242 243 242 242 242 244 245 235 234 237 242 244 243 245 247 245 249 248 246 250 251 251 248 247 248 246 243 243 242 240 240 239 238 238 237 235 233 232 232 232 231 230 230 230 229 229 227 227 227 227 227 227 227 227 227 227 227 227 227 227 227 227 228 230 230 230 230 230 231 231 232 234 234 234 236 240 242 242 245 247 248 247 247 247 248 249 248 248 248 248 247 246 246 246 246 246 245 244 242 241 241 241 243 244 244 244 243 243 243 242 240 236 236 237 235 234 234 232 229 224 217 213 212 191 142 127 131 131 131 127 127 129 131 131 131 133 134 133 131 129 131 131 129 131 133 133 133 132 133 135 136 132 133 136 136 136 136 136 135 134 133 133 136 137 136 136 136 136 136 136 136 136 136 136 136 136 136 138 138 138 138 138 138 140 142 142 144 144 144 144 140 138 140 142 142 141 144 144 142 142 142 143 142 140 138 138 138 138 138 138 138 138 140 142 142 142 142 142 144 144 144 144 145 144 144 146 148 148 146 146 146 146 148 149 149 149 151 153 153 153 155 155 155 155 155 155 156 152 153 155 155 153 151 149 148 148 147 148 149 149 148 149 149 151 153 153 153 153 153 155 155 151 153 155 155 155 155 155 159 159 159 159 159 159 160 160 160 160 160 160 160 164 164 162 166 166 166 168 169 169 171 172 170 171 171 171 171 175 175 175 175 173 175 176 176 176 175 176 180 180 180 180 180 181 181
157 159 158 157 157 159 162 169 176 173 160 160 160 160 160 160 162 164 166 166 169 169 170 171 170 175 176 176 176 176 180 181 181 182 185 185 185 185 185 186 186 186 186 189 189 191 191 193 193 193 193 193 194 194 194 196 197 197 200 199 199 200 200 200 200 200 200 200 201 203 204 206 204 206 207 207 208 210 211 212 213 211 212 212 213 214 214 216 216 216 216 216 214 213 212 212 211 211 211 211 211 211 211 211 211 210 210 208 208 208 208 208 208 208 208 208 207 206 204 203 203 203 202 200 200 200 200 199 200 200 200 200 201 204 204 204 207 208 211 214 216 217 220 223 228 233 234 234 234 236 239 241 243 244 243 243 242 241 241 242 242 244 230 232 236 243 244 246 247 249 250 250 249 247 250 252 252 250 247 248 249 246 245 245 243 240 238 238 238 236 235 234 232 232 232 231 230 230 230 229 229 227 227 227 227 227 227 227 227 227 227 227 228 227 227 227 227 229 228 230 231 230 229 230 234 235 236 236 236 237 240 243 245 246 247 247 247 247 247 248 248 248 248 248 248 247 246 245 246 246 247 245 244 242 241 241 242 244 243 242 241 242 244 244 242 240 237 236 237 236 234 234 231 227 221 214 213 211 181 134 128 127 129 131 129 130 131 131 133 133 133 133 133 133 133 133 133 133 133 134 133 135 135 135 136 136 135 135 136 136 136 136 136 135 135 135 135 136 136 136 136 138 138 138 140 140 140 140 140 140 140 140 138 139 141 140 140 138 140 146 147 146 146 146 144 144 144 145 144 146 146 146 144 144 144 146 146 146 146 142 142 140 139 140 142 142 142 142 144 142 142 143 144 146 146 146 146 146 148 149 149 150 149 148 148 148 148 149 149 149 149 153 155 155 156 158 157 157 157 157 157 155 155 157 160 160 159 155 155 153 151 153 153 149 151 153 153 154 155 155 157 157 153 153 157 157 155 155 157 157 157 157 157 159 159 160 160 159 160 160 162 162 160 160 160 162 166 166 166 168 168 169 169 171 171 173 173 173 173 173 172 173 175 175 177 176 176 176 176 178 178 178 178 180 180 180 180 179 181 181
149 155 154 153 153 155 159 164 173 176 169 160 160 160 160 160 162 164 166 168 170 169 171 171 171 173 175 176 175 176 178 179 180 181 183 184 185 185 185 185 186 186 186 188 189 191 191 191 191 192 191 190 193 194 193 194 196 196 200 199 197 199 200 199 200 200 200 200 201 203 203 204 204 204 206 207 208 210 211 211 212 212 212 212 212 214 214 216 216 216 216 216 214 214 212 212 211 211 211 211 211 211 211 211 211 211 210 208 208 208 208 208 208 208 208 208 207 206 204 203 203 203 201 200 200 200 199 200 199 200 200 200 201 204 204 206 207 207 211 214 216 218 220 223 227 232 233 233 234 236 238 240 241 242 243 242 240 240 240 241 237 238 230 241 242 243 243 246 248 250 250 250 250 251 252 253 251 250 249 250 250 247 246 250 248 244 238 236 238 237 236 235 233 232 232 231 230 230 230 229 228 227 227 227 227 227 227 226 226 226 227 227 227 227 227 227 227 228 229 230 229 232 232 234 237 239 239 238 238 239 241 244 245 246 247 247 247 247 246 248 248 248 248 247 246 246 245 245 246 245 246 245 243 241 241 242 243 244 241 240 241 242 244 244 243 238 236 234 234 234 234 234 230 226 221 218 213 197 162 135 127 127 129 131 131 131 131 131 133 133 133 133 133 133 133 133 133 133 133 133 135 136 136 136 136 135 136 136 136 136 136 136 136 136 136 136 136 136 136 136 136 138 138 138 140 142 142 142 142 142 142 142 143 142 142 142 142 142 144 148 148 148 149 148 144 144 144 144 143 146 148 148 148 148 148 148 148 148 146 144 142 140 141 142 142 142 143 142 144 142 142 144 144 146 148 148 147 151 149 149 149 149 149 149 150 152 149 151 153 153 153 155 155 155 155 159 159 159 159 159 159 158 159 159 160 160 159 155 155 152 153 155 155 153 153 157 155 155 155 155 157 159 157 157 159 157 155 157 159 159 159 159 159 159 159 160 160 160 160 160 162 164 163 164 164 164 166 169 169 169 169 169 169 171 173 175 175 174 175 175 175 175 175 175 176 176 176 177 177 178 180 180 180 180 180 178 180 178 181 181
151 157 153 153 153 155 159 160 168 171 173 164 160 160 160 160 164 164 164 164 166 169 171 173 173 175 175 175 175 176 178 180 180 180 181 181 182 184 185 185 185 185 185 188 188 186 189 189 188 189 189 189 189 191 189 189 191 193 197 197 196 197 199 200 200 199 199 200 200 201 201 203 203 203 204 206 207 207 208 210 211 211 211 212 211 214 214 217 216 216 216 216 214 214 212 212 211 211 211 211 211 211 211 211 212 211 209 208 208 208 208 208 207 207 207 206 204 204 204 203 203 200 200 200 200 199 199 198 199 199 200 200 201 203 204 204 204 206 210 213 214 217 218 223 226 230 231 231 232 234 236 238 239 241 242 241 240 238 238 238 235 228 226 238 243 243 244 244 248 250 251 250 252 252 253 253 251 251 250 249 250 250 249 252 249 248 246 238 234 235 234 234 233 232 230 230 230 230 230 230 229 228 228 227 227 227 226 225 225 225 227 227 227 227 227 228 229 229 229 230 230 230 233 236 238 240 240 238 237 238 241 243 246 247 246 247 247 246 244 245 246 248 248 246 245 245 245 245 244 244 244 244 242 241 242 243 243 242 241 240 239 238 239 241 238 236 235 233 233 233 232 231 229 226 221 219 212 185 149 138 129 127 129 131 131 131 131 135 132 133 136 136 136 135 133 133 133 135 135 135 136 136 136 138 138 138 136 136 138 138 135 136 136 136 136 136 136 136 136 136 136 138 140 140 144 144 143 144 142 142 144 144 144 144 144 142 142 144 146 149 151 150 151 151 149 148 148 148 148 149 148 151 153 153 153 151 151 149 148 146 144 142 144 146 146 146 144 144 148 146 144 146 148 148 147 149 151 153 151 149 151 150 151 151 153 153 151 153 155 155 155 157 159 157 159 160 160 160 160 160 160 160 159 159 160 160 160 159 159 157 155 157 157 157 157 157 157 161 159 157 159 159 159 159 159 159 160 160 160 160 160 159 159 162 162 162 162 164 162 162 165 167 166 166 166 166 167 168 169 171 171 169 169 173 175 175 175 175 175 175 176 176 176 176 178 178 180 180 181 181 181 181 181 181 180 180 180 180 181 181
138 148 149 149 149 151 155 159 166 169 175 167 159 160 160 160 162 162 162 162 165 169 171 175 175 175 175 175 176 176 178 180 180 181 181 181 181 183 184 185 185 185 185 184 185 186 186 188 188 189 189 189 188 188 189 189 191 194 194 194 194 195 196 199 199 199 199 200 200 200 201 202 203 203 204 204 206 207 208 210 210 211 211 212 211 214 213 216 216 216 216 216 214 214 213 213 211 211 211 211 211 211 211 211 211 211 210 208 208 208 208 208 208 207 206 207 204 204 204 203 203 200 200 200 200 199 199 199 199 199 200 200 203 203 204 204 204 206 208 212 214 217 219 223 226 227 229 228 229 232 234 236 238 238 239 238 238 237 236 237 233 224 225 234 242 244 247 247 248 251 251 253 252 251 252 253 251 251 251 250 249 250 251 251 248 248 251 247 231 231 231 232 231 230 231 230 230 230 230 229 230 229 229 228 227 227 226 225 225 226 227 227 227 227 228 228 229 229 229 230 229 230 233 237 238 240 241 240 238 239 241 242 244 245 246 246 246 245 245 245 245 246 247 245 245 244 244 245 244 244 244 243 242 241 242 242 242 241 240 240 238 235 234 236 237 236 234 232 232 231 228 227 226 222 218 212 203 175 149 138 131 127 128 131 131 131 131 135 133 134 136 137 136 135 134 133 133 136 136 136 136 136 136 138 138 138 140 140 138 138 136 136 136 136 136 136 136 136 136 135 139 138 140 142 144 144 144 147 146 146 144 144 144 144 144 148 148 148 149 149 152 153 153 153 151 149 151 151 151 151 151 154 153 153 153 154 151 149 148 148 148 147 148 148 148 148 144 146 148 148 149 149 151 151 151 153 153 153 153 155 153 153 152 153 153 153 153 155 155 154 155 156 159 159 159 160 160 160 160 160 160 160 162 162 160 160 160 159 159 157 155 157 159 159 160 160 160 162 160 159 159 159 159 159 159 159 160 160 160 160 160 162 162 164 164 164 163 164 164 164 167 169 165 166 166 168 171 171 171 171 171 173 175 175 175 175 175 175 175 175 176 176 178 178 180 180 180 181 181 181 181 181 181 181 181 183 183 183 183 181
123 136 142 145 142 149 148 148 149 160 170 166 160 160 160 161 162 162 162 162 166 168 170 175 175 175 175 175 175 175 176 176 178 180 181 181 181 181 181 181 181 183 184 186 185 185 185 186 186 185 186 186 186 186 186 187 189 189 191 193 193 194 196 196 196 199 199 199 199 199 199 200 201 203 203 203 204 206 207 207 208 210 211 212 212 214 214 214 215 216 216 217 214 213 212 212 211 211 212 212 212 212 211 211 211 211 211 211 210 208 207 207 207 206 204 204 204 203 203 203 203 200 200 200 200 199 199 199 199 199 200 200 201 203 203 204 204 204 207 212 216 219 219 222 227 227 229 228 227 234 236 232 238 240 240 238 239 239 237 240 242 241 238 236 242 245 248 250 251 251 250 250 251 251 254 253 252 251 251 248 248 253 252 250 249 250 250 250 244 244 239 240 239 231 231 230 230 229 229 230 229 229 229 229 228 227 226 225 225 226 227 227 227 228 229 228 228 229 230 230 230 231 234 238 238 240 240 240 240 240 240 240 241 242 244 245 245 245 245 245 245 247 246 245 244 243 243 244 244 245 244 244 242 241 242 241 241 241 241 240 238 237 234 236 240 237 235 233 232 229 227 224 222 219 210 202 191 169 148 133 131 129 131 130 131 131 133 133 136 136 136 136 136 135 136 136 136 138 138 138 138 136 138 140 139 140 142 140 138 139 138 138 138 138 138 136 136 136 135 136 140 140 142 145 146 148 148 148 147 146 144 144 142 146 148 151 153 151 153 156 155 155 155 151 151 153 155 155 153 155 157 157 157 157 157 159 155 151 149 151 151 152 151 151 151 151 151 151 152 151 153 149 154 155 155 153 153 155 155 155 155 155 154 155 155 155 159 159 159 159 157 158 159 159 160 164 162 162 162 162 163 162 164 164 164 163 160 161 159 159 159 159 159 160 160 160 162 164 161 160 160 160 162 162 162 160 162 163 162 162 164 166 167 166 166 166 166 163 166 168 169 171 169 169 171 171 171 173 175 173 173 175 176 177 176 176 176 176 176 176 176 176 180 180 180 181 180 181 181 181 181 181 183 183 183 183 185 184 185 185
112 122 129 133 135 141 142 135 136 146 160 168 164 162 162 162 162 162 164 163 164 169 171 173 175 175 175 176 175 176 176 178 178 180 180 180 181 181 181 181 181 183 183 183 183 185 185 186 186 186 186 186 187 186 186 185 188 189 191 191 193 194 196 196 196 199 199 197 197 199 199 200 201 201 203 203 204 204 205 207 208 210 210 211 211 213 213 214 214 216 215 216 214 213 212 212 211 211 212 212 212 212 211 211 211 211 211 210 210 210 208 206 206 206 204 204 204 202 203 203 203 200 200 200 199 199 199 199 199 200 200 201 203 203 203 203 204 203 207 211 216 219 220 224 227 227 228 228 230 238 238 232 241 243 241 241 244 244 244 242 244 244 242 242 245 245 248 251 251 248 246 247 247 250 253 252 251 250 249 248 248 252 252 251 250 250 249 249 249 249 250 249 248 245 229 227 229 229 229 229 229 229 229 229 228 227 227 225 225 225 226 227 228 228 229 229 229 230 231 232 231 233 236 238 238 239 240 241 240 240 240 240 241 241 242 244 244 245 244 244 246 247 246 244 243 243 244 244 244 244 244 244 243 242 241 241 241 241 242 240 238 236 235 236 240 239 237 234 233 227 224 220 216 206 188 168 159 148 136 133 134 131 131 130 131 131 133 133 136 136 137 136 136 136 136 136 137 138 138 140 140 140 142 144 143 144 143 142 140 138 138 138 138 138 138 136 136 136 136 140 142 142 144 146 148 148 148 148 148 146 144 146 148 148 148 153 154 155 155 157 157 157 157 152 153 153 155 157 159 159 160 160 160 161 160 162 159 155 153 155 155 155 155 155 155 155 155 155 157 155 153 153 155 155 156 155 155 157 157 155 155 157 157 157 157 157 159 159 159 159 160 162 164 164 164 164 164 166 166 166 166 166 165 164 164 164 164 164 164 164 164 162 162 162 162 162 162 162 162 163 162 162 166 166 166 166 166 168 168 166 165 166 168 168 169 168 168 169 171 171 172 171 173 173 173 173 171 173 174 175 176 175 176 176 176 178 178 178 178 178 178 178 180 180 180 180 181 181 183 183 183 183 183 185 185 185 183 185 185 185
111 112 121 123 125 133 136 133 135 148 164 173 169 168 166 164 166 166 165 162 162 169 170 173 175 173 173 175 175 176 178 180 180 180 180 180 180 180 180 180 180 180 181 181 181 185 185 185 185 186 185 185 185 185 186 186 187 188 189 189 191 191 191 193 194 196 196 196 197 199 199 197 200 200 201 203 204 204 204 207 208 208 208 210 211 212 213 215 214 214 214 214 212 212 212 212 212 212 212 212 212 212 212 212 212 212 211 210 211 211 207 206 204 204 204 204 201 203 203 203 203 200 200 199 199 198 199 199 199 197 200 203 204 204 203 203 204 204 207 211 216 220 221 223 225 226 228 226 235 235 232 236 242 241 240 244 247 248 241 239 240 242 243 244 243 241 242 249 248 247 248 248 249 249 252 252 251 251 250 250 249 252 252 252 251 250 250 249 250 250 249 248 249 250 243 241 229 229 229 229 230 230 230 230 229 228 228 227 226 225 226 227 228 228 228 229 230 231 232 231 232 234 237 238 238 238 239 241 240 240 240 240 242 241 242 243 243 244 244 245 245 245 244 243 243 243 243 243 243 243 243 244 242 241 240 240 240 240 240 240 240 238 238 238 240 240 238 235 232 227 222 216 204 192 171 149 144 138 136 133 133 133 133 133 133 133 133 133 135 136 136 136 136 136 136 136 136 137 137 142 142 140 142 145 144 144 144 144 142 140 138 138 137 138 138 138 138 138 138 141 142 144 146 148 146 146 146 145 148 146 146 148 153 153 151 155 155 155 155 159 159 159 157 158 157 157 157 159 160 160 160 160 160 160 160 160 160 157 158 157 157 157 157 158 159 159 159 159 159 157 155 155 155 157 157 160 161 160 159 157 157 159 159 159 160 160 160 160 160 162 164 166 165 166 166 166 166 166 168 169 169 169 166 166 166 166 169 168 167 166 166 164 162 162 162 164 162 163 164 166 166 167 166 166 166 166 166 168 169 168 168 169 169 168 169 171 171 171 171 170 171 171 171 171 175 174 175 175 175 176 176 177 176 176 176 180 180 180 180 180 180 180 181 181 180 181 181 183 185 185 185 185 185 183 183 183 185 185 185 184
105 105 111 116 120 127 133 135 136 144 151 155 149 146 153 155 164 171 173 167 164 168 169 171 173 174 175 175 175 176 178 178 178 178 178 178 178 178 180 180 180 180 181 181 181 183 183 185 185 186 185 185 185 185 186 187 186 188 188 189 191 191 189 191 193 194 194 196 196 197 199 199 199 200 201 201 203 204 205 206 208 208 208 210 211 211 211 213 213 213 213 213 212 212 212 212 213 213 213 213 213 213 213 213 213 212 212 211 211 211 208 207 206 206 204 204 203 202 203 201 201 199 200 199 199 198 197 197 197 199 200 203 204 204 203 203 204 206 207 211 216 220 222 222 224 227 226 228 239 233 228 235 243 238 241 243 245 241 232 238 242 243 245 245 245 245 245 247 246 249 249 250 251 251 252 253 252 252 251 251 251 250 248 251 249 244 247 249 250 250 249 248 249 251 249 250 238 224 229 230 230 231 231 231 230 230 230 228 227 227 228 228 229 229 229 230 231 231 232 232 232 233 236 238 240 239 240 240 240 240 240 240 240 240 242 243 243 244 243 243 243 242 242 242 242 242 241 242 241 241 242 242 241 241 240 240 240 240 239 238 240 240 236 240 242 242 239 236 232 227 219 213 201 180 155 141 138 138 136 133 133 133 133 133 133 133 133 133 135 135 136 136 136 136 136 136 138 140 140 142 142 142 144 144 144 144 144 144 140 140 139 138 138 139 140 140 140 142 142 142 144 146 148 149 148 148 148 148 148 148 149 152 155 155 154 157 157 157 157 161 159 161 159 157 159 160 162 162 162 162 165 164 165 160 160 162 162 161 162 162 162 162 160 160 160 159 159 159 159 157 157 159 159 162 162 162 162 160 160 162 160 159 159 160 162 162 160 162 162 166 168 166 166 166 166 168 169 169 168 169 168 169 168 168 166 166 169 168 168 166 166 168 169 168 166 166 168 168 168 168 168 168 168 168 166 166 166 168 169 171 173 169 169 172 171 172 173 170 173 173 173 172 173 173 176 176 176 176 176 178 178 179 178 178 178 180 180 180 180 181 181 181 181 181 181 181 181 183 185 185 185 185 185 185 185 185 185 185 185 185
100 100 105 107 111 118 123 129 129 133 136 136 135 129 133 133 140 156 168 169 166 168 168 169 171 173 175 175 175 176 176 175 176 176 176 176 176 176 180 180 181 180 180 181 181 180 181 185 185 185 185 185 185 185 185 185 187 186 186 188 190 191 191 191 191 193 194 196 196 196 197 199 199 199 201 200 201 203 204 205 208 208 208 210 211 210 211 212 212 212 212 212 212 211 212 212 214 214 214 214 214 214 214 214 213 212 212 212 211 211 208 209 207 206 203 203 201 203 203 200 200 200 200 199 199 199 197 196 196 199 200 204 204 203 204 204 204 206 207 210 213 216 218 220 221 226 230 235 236 229 224 228 238 235 240 234 232 234 237 242 243 245 246 246 247 245 246 246 247 247 245 247 249 251 251 251 252 252 252 246 246 243 242 244 242 241 245 249 250 250 249 249 249 250 249 250 246 232 228 230 230 231 231 232 232 232 231 230 228 229 229 229 230 230 230 231 233 231 232 232 232 233 235 237 239 241 240 240 240 240 240 239 239 240 241 243 243 243 243 243 242 242 241 241 240 241 241 241 241 240 240 240 240 240 239 240 240 240 239 238 238 237 236 240 241 241 240 236 232 226 217 208 199 173 153 138 138 136 135 133 133 134 133 133 133 133 133 133 136 136 136 136 136 136 137 138 138 140 142 140 142 144 143 144 144 145 144 142 138 138 138 138 138 140 142 141 142 142 141 140 144 148 148 149 149 148 149 149 146 148 149 153 155 156 155 157 159 159 159 160 160 160 160 160 160 160 162 164 164 164 166 166 166 164 164 164 164 166 166 164 164 165 160 160 160 160 159 160 160 160 160 162 165 164 164 164 164 164 164 164 162 160 162 164 164 164 164 164 166 168 169 170 169 169 168 171 174 171 169 171 169 168 169 169 169 169 171 172 169 169 169 169 170 169 169 169 169 169 169 169 171 171 171 171 169 169 171 171 171 173 175 171 171 173 175 175 175 175 175 175 175 176 175 175 176 176 177 176 176 178 180 180 180 180 179 180 180 180 181 181 181 181 181 181 181 182 181 183 185 185 184 185 185 185 185 184 183 183 183 183
95 95 100 102 104 109 114 117 120 125 127 125 125 125 125 125 131 142 155 168 168 169 169 169 169 173 175 175 174 175 176 177 176 176 176 176 176 176 178 178 176 178 180 181 181 181 181 185 185 185 185 185 185 185 185 185 185 185 186 189 189 189 189 191 191 194 194 194 194 196 196 197 198 199 200 200 203 203 203 204 206 208 207 208 210 211 211 211 212 212 212 212 212 212 212 212 214 214 214 214 214 214 214 215 213 212 212 212 211 211 210 208 207 207 206 206 204 203 203 201 200 199 199 197 197 196 196 196 196 198 200 201 205 204 207 207 207 207 209 208 211 212 214 217 218 222 224 232 238 230 228 235 239 241 227 221 232 240 243 240 240 244 248 248 244 239 239 245 249 247 248 247 246 247 249 248 248 251 246 242 243 239 242 242 240 243 249 250 249 249 248 249 249 249 249 249 251 242 228 232 231 232 232 232 232 232 232 232 230 230 230 230 231 231 231 232 232 232 232 233 233 233 234 236 239 240 240 240 240 240 240 240 240 240 241 243 244 244 244 243 243 242 240 239 240 241 240 240 239 239 238 240 240 240 240 240 240 240 240 238 237 236 238 238 239 238 234 232 231 226 216 203 188 169 153 138 138 136 136 133 133 133 133 133 131 131 133 133 135 136 136 136 136 136 138 138 138 142 142 142 142 144 144 144 144 143 142 142 138 138 140 140 141 142 142 142 142 144 144 144 146 148 149 149 151 151 152 151 149 149 151 153 155 155 155 157 159 160 160 160 160 160 162 164 162 162 166 166 165 167 168 168 168 168 168 168 168 168 166 166 164 164 164 162 164 166 168 168 166 164 164 167 166 168 168 168 168 168 168 168 166 164 166 166 166 166 166 168 169 169 171 171 171 173 174 171 173 175 175 176 175 175 172 171 173 173 175 173 171 173 173 171 171 170 171 173 172 172 171 171 171 171 173 173 171 172 175 175 173 173 175 175 175 178 176 176 176 176 175 176 178 178 176 175 178 178 178 178 178 179 180 181 181 181 181 181 181 181 181 181 181 181 183 183 183 183 183 185 185 185 185 186 187 185 185 186 186 186 186 186
91 91 93 97 101 104 109 107 109 116 120 120 123 125 127 129 133 137 145 164 168 168 168 168 168 169 169 173 173 173 175 176 176 176 175 176 176 175 176 176 176 178 180 181 181 181 183 184 185 185 185 185 185 185 185 185 185 185 186 188 189 189 189 191 193 194 194 194 196 196 196 196 197 199 200 200 203 203 201 203 205 206 207 208 208 211 211 210 211 212 212 212 212 212 212 212 214 214 214 214 214 214 214 214 213 212 212 212 211 211 208 208 207 207 207 205 204 203 203 201 200 197 197 196 194 194 194 194 196 196 199 200 201 203 207 207 208 208 209 208 210 213 216 227 235 227 217 227 237 231 230 236 238 236 221 218 227 232 235 236 241 246 249 247 244 242 242 248 247 246 248 245 241 242 244 246 248 249 245 245 245 240 240 241 242 245 248 246 250 249 248 248 249 249 250 251 252 244 227 231 232 232 232 232 232 232 232 231 230 230 230 230 231 231 231 232 231 232 232 233 233 233 234 237 238 240 240 239 240 240 240 240 239 240 241 242 243 243 243 243 244 242 241 238 236 238 239 239 238 238 238 239 240 240 241 240 240 240 240 239 239 240 240 236 234 234 232 228 230 230 222 204 181 170 151 137 138 136 135 133 132 133 134 133 131 131 133 133 136 136 136 136 136 138 138 138 138 140 142 142 142 144 144 144 145 144 142 140 138 140 142 142 142 142 142 142 142 144 146 148 148 148 148 149 151 153 153 153 153 153 153 153 154 155 155 157 159 160 160 160 161 160 162 162 162 162 166 166 166 168 169 169 169 169 169 169 169 166 166 166 168 168 168 168 169 171 169 169 171 169 168 170 171 169 169 169 169 169 169 168 168 166 166 166 166 166 166 168 169 169 171 171 172 173 175 175 175 178 176 176 176 178 176 176 178 176 176 175 175 175 175 171 171 171 173 175 175 176 176 175 176 176 175 176 176 176 176 176 175 177 178 178 178 180 179 181 181 181 178 176 180 180 178 178 180 180 180 180 180 180 180 181 181 181 181 181 181 181 181 181 181 183 185 184 185 185 185 186 185 183 183 186 185 184 185 186 186 186 186 186
91 90 91 91 93 100 104 105 107 111 112 116 120 123 129 135 138 138 144 160 169 168 166 166 165 166 166 169 170 173 173 173 173 175 176 175 175 176 176 176 176 179 180 181 180 181 181 183 183 183 185 185 185 185 183 183 185 185 185 186 188 189 189 189 189 192 193 194 196 196 196 196 196 196 199 200 200 200 200 201 203 203 206 207 207 207 210 212 211 212 213 212 212 212 212 212 212 213 214 214 215 214 214 214 214 214 213 213 210 208 208 208 207 207 207 207 204 203 200 199 199 196 194 193 193 191 191 193 197 199 199 199 199 199 201 205 208 210 208 207 211 216 224 236 241 232 204 212 232 225 223 229 230 222 216 219 219 218 226 234 244 247 249 247 246 247 247 247 243 244 243 244 245 245 245 244 246 249 248 249 247 245 243 241 245 246 248 243 250 251 249 249 250 252 252 252 251 249 244 234 232 233 232 232 232 232 232 232 232 232 231 232 232 232 233 232 232 233 233 233 233 233 234 235 237 240 241 240 240 241 240 240 240 240 241 242 242 242 242 242 243 242 242 239 235 237 239 240 238 237 238 238 238 238 238 238 240 239 238 239 241 241 238 234 232 228 227 231 232 232 224 214 186 168 157 140 136 136 136 135 134 136 135 133 133 133 135 136 137 136 136 136 138 140 140 140 140 144 144 144 144 144 144 144 144 144 141 142 140 140 142 142 144 144 144 146 146 146 149 153 151 149 151 151 155 155 153 153 155 155 155 155 155 157 157 159 159 159 160 162 162 162 162 161 163 162 164 166 168 169 171 171 172 171 171 171 171 171 169 168 168 169 169 168 171 172 172 173 175 173 169 171 171 171 171 171 171 171 171 168 169 171 168 166 168 169 169 169 171 173 173 173 171 175 175 176 176 180 180 180 181 180 178 178 180 178 176 176 175 172 173 174 175 176 178 180 180 180 180 180 180 180 180 180 180 180 178 178 178 180 181 180 180 180 180 179 181 180 180 181 180 180 180 180 180 180 181 181 180 181 182 181 181 180 181 181 181 181 181 181 185 185 185 185 185 185 185 185 185 184 183 183 183 183 185 186 186 186 186 186
95 95 95 93 91 97 100 105 107 111 111 117 118 123 129 135 138 140 149 164 169 167 166 167 166 166 166 168 169 173 175 175 175 176 175 175 175 175 176 176 176 178 178 180 179 181 181 181 181 181 183 184 184 185 181 181 183 184 185 185 186 188 188 188 188 191 191 193 194 196 196 196 196 196 197 199 200 200 200 201 201 203 206 207 207 208 210 211 211 212 212 212 212 212 212 212 212 213 214 214 214 214 214 213 214 214 213 213 210 208 208 208 208 207 207 207 204 201 200 197 196 193 191 193 193 191 191 193 197 200 199 199 199 197 197 201 204 207 208 207 211 217 224 232 225 197 203 204 221 218 214 220 217 210 201 212 216 216 227 238 245 245 248 248 247 248 248 247 245 245 245 248 247 248 246 243 245 246 247 249 248 248 248 248 248 250 249 246 248 249 251 251 252 251 251 252 252 249 248 242 232 233 234 235 234 235 234 232 231 232 232 232 232 233 234 233 232 233 235 235 233 233 234 235 237 240 242 242 242 242 241 240 240 240 241 242 241 241 242 242 243 243 243 242 240 242 242 241 238 237 238 237 237 236 236 237 238 238 238 239 240 239 236 232 229 224 227 233 232 232 224 212 183 168 159 140 136 136 136 136 136 136 135 134 133 133 136 136 136 136 136 136 139 141 142 142 142 144 144 144 144 144 144 144 144 144 142 142 142 142 142 142 144 144 144 148 147 149 153 153 151 149 151 153 155 155 153 153 155 155 155 155 155 156 159 162 162 160 162 164 164 165 164 164 164 164 166 168 169 169 170 171 171 171 171 171 171 171 171 171 170 173 173 173 171 171 171 173 175 173 173 173 171 171 171 171 171 171 172 173 171 171 171 171 173 173 173 174 176 175 174 175 176 178 178 176 178 180 180 180 180 180 180 181 180 180 180 180 178 176 176 178 178 180 180 180 180 180 181 180 181 180 180 180 178 180 180 180 180 180 180 180 180 180 180 180 180 180 180 180 181 180 180 181 180 179 181 181 180 181 181 180 181 181 181 181 181 181 180 181 183 185 185 185 185 185 185 185 185 185 185 185 186 185 185 186 186 186 186 186
102 102 104 104 95 98 100 104 104 108 111 115 116 123 129 136 141 153 160 168 166 166 166 166 166 166 166 166 168 171 173 175 175 175 175 175 175 175 175 175 176 177 176 178 180 181 181 181 181 181 183 185 185 185 181 181 181 183 185 185 185 186 186 188 189 189 189 191 193 194 194 195 194 194 196 196 199 199 200 200 200 203 204 208 207 208 209 211 211 211 211 211 212 212 212 212 211 213 214 214 216 216 216 214 213 212 212 212 211 211 208 208 207 207 207 207 203 201 200 197 194 191 191 191 191 189 188 191 197 199 199 199 199 199 197 199 201 204 207 208 208 213 217 225 220 199 200 201 208 214 214 209 203 207 189 193 208 219 225 234 241 243 246 250 249 248 249 246 244 245 248 248 248 249 247 245 247 248 249 248 248 249 247 245 248 249 248 248 245 248 251 253 251 252 251 251 250 248 248 241 234 234 234 236 236 235 234 234 234 233 232 233 234 234 233 233 234 234 234 234 233 233 236 236 238 240 242 243 243 243 242 241 240 240 240 240 240 240 240 241 242 243 244 244 243 243 242 241 242 239 238 236 235 235 235 237 237 237 239 238 237 237 234 232 229 225 230 234 234 230 222 212 189 169 164 140 135 136 137 136 136 136 136 135 136 138 138 138 136 136 137 140 142 142 144 144 144 143 144 148 146 144 144 143 144 144 144 144 142 142 144 144 142 146 148 149 149 153 153 154 154 151 153 155 155 155 155 155 155 155 154 157 159 160 160 162 164 166 164 164 164 164 161 164 166 166 168 169 171 171 171 171 171 173 175 173 173 175 173 173 175 175 175 175 176 176 175 176 176 176 176 176 176 176 176 173 174 176 176 175 173 173 175 175 175 174 176 178 180 180 178 180 181 181 181 181 181 181 181 181 181 181 181 181 180 181 181 181 181 180 180 179 178 181 181 181 180 181 183 181 181 181 180 179 180 180 181 181 182 181 181 183 183 183 183 185 183 181 180 181 181 181 181 181 183 185 185 183 182 183 183 183 185 185 185 185 185 185 185 185 186 185 185 185 184 185 185 185 185 185 185 185 185 185 185 186 186 186 186 186
105 107 110 114 111 102 100 102 104 107 111 112 115 123 127 135 146 159 164 168 164 164 165 164 164 164 164 164 166 169 171 174 173 173 173 173 173 172 173 175 175 176 177 180 180 181 181 181 181 181 183 185 184 185 181 181 181 183 185 185 185 186 186 189 189 189 189 191 193 194 194 194 194 194 196 196 197 199 200 200 200 203 204 206 207 208 208 210 210 210 211 211 212 212 212 212 212 213 214 214 216 216 216 214 213 212 212 212 211 211 210 208 207 207 206 207 204 201 200 197 193 191 191 191 189 189 188 191 197 199 199 198 199 199 199 200 203 204 206 208 208 210 212 220 218 201 201 203 200 208 211 202 200 203 189 188 200 213 226 236 237 240 243 249 249 248 248 243 241 245 247 244 250 251 248 247 245 244 249 249 249 249 245 243 246 245 243 246 243 248 252 253 252 252 252 251 250 249 249 242 234 234 234 236 236 236 235 233 234 234 234 234 234 234 233 233 234 234 233 234 234 235 238 239 240 240 242 243 243 243 242 242 241 240 240 240 240 240 241 240 240 242 244 244 243 242 242 241 241 240 238 236 234 234 233 234 236 237 238 238 238 236 234 232 228 225 228 234 234 229 219 213 194 173 176 148 135 136 136 136 136 136 136 136 137 138 138 140 140 140 138 140 142 142 144 144 146 146 146 148 146 144 146 146 144 144 144 143 142 142 144 146 146 148 148 149 149 153 153 156 156 153 155 155 155 155 155 155 155 155 155 157 159 160 160 164 164 167 164 164 164 164 164 164 168 168 169 169 171 171 171 173 173 175 176 175 175 175 174 175 176 175 175 175 179 178 178 178 176 178 178 178 178 176 176 176 176 178 178 180 178 178 179 179 180 181 178 178 180 180 180 181 183 183 183 183 183 185 183 183 181 181 183 183 183 183 183 183 181 181 180 181 181 182 181 181 181 181 182 183 183 183 185 185 185 183 183 182 183 183 183 185 185 186 186 185 185 183 183 183 183 183 183 184 185 185 185 185 185 186 186 185 185 185 185 185 185 185 185 185 185 185 185 185 185 185 185 185 185 185 185 183 183 185 185 185 186 186 186 186
105 109 111 118 120 112 107 107 108 111 111 116 118 118 123 131 146 160 166 164 162 162 162 162 162 162 162 162 164 168 169 171 171 171 171 171 171 171 171 171 173 175 176 180 180 180 180 180 180 180 181 181 181 181 181 181 181 183 184 185 185 186 186 189 189 189 189 189 189 191 193 194 194 194 194 195 196 197 199 199 200 201 203 204 204 207 207 208 208 209 210 211 211 211 212 212 212 213 214 214 214 214 214 214 213 212 212 212 211 211 208 209 208 208 207 207 204 203 199 196 191 191 191 191 189 188 188 188 193 197 199 200 199 199 200 201 202 204 204 206 207 208 212 216 216 208 204 204 201 204 201 193 197 194 189 191 201 211 229 235 236 237 238 246 248 246 243 242 242 247 243 246 249 250 249 246 242 243 249 248 247 248 247 245 245 245 245 245 240 246 253 253 253 252 252 251 251 250 250 246 232 235 235 235 234 235 235 235 235 235 235 235 235 235 234 233 233 234 233 235 238 239 240 241 241 242 243 243 243 243 243 243 242 241 240 240 240 240 240 240 240 242 243 243 242 241 239 240 240 240 238 234 232 232 231 232 234 236 236 236 236 236 234 231 227 226 223 233 233 224 214 216 203 176 180 151 137 138 137 136 136 138 137 138 138 138 140 142 142 142 142 142 142 140 140 146 149 149 148 149 148 146 148 148 144 144 144 144 144 144 144 146 148 149 148 149 149 151 153 155 155 155 155 155 155 155 156 155 155 157 159 159 160 160 160 162 164 166 166 166 166 166 166 166 169 169 169 169 171 172 171 172 175 175 175 175 175 175 175 175 176 176 176 176 180 180 180 178 176 179 180 179 180 176 177 180 180 180 180 180 181 181 181 181 181 180 181 181 181 181 181 183 185 185 185 185 185 185 185 186 183 181 185 185 185 185 185 183 181 181 181 181 181 181 181 181 181 181 183 186 185 185 185 185 185 185 185 185 185 185 185 185 185 185 185 185 185 185 185 185 185 185 185 185 185 184 185 186 186 185 185 185 185 185 185 185 185 185 185 185 185 185 185 185 185 185 185 185 185 183 183 181 181 183 183 183 185 186 186 186
104 107 111 118 120 120 118 116 114 114 116 120 121 122 125 129 142 160 168 168 164 164 164 164 164 162 162 163 165 168 168 168 169 171 169 169 169 171 171 173 175 175 175 178 178 178 178 181 180 181 181 181 181 181 181 181 181 183 185 185 186 186 186 189 189 188 189 189 189 191 193 193 194 194 194 194 196 196 197 199 199 201 203 204 204 206 207 208 209 208 210 210 211 211 211 212 212 213 214 215 214 214 214 215 214 212 212 212 211 211 210 210 208 208 207 208 204 201 200 197 194 193 192 190 191 189 188 188 191 197 199 199 199 199 200 200 201 201 203 206 206 208 211 211 212 210 207 208 201 200 193 186 189 194 199 204 210 213 226 231 234 238 240 244 246 242 240 242 245 245 243 247 248 249 247 241 242 246 248 247 244 246 246 248 246 246 244 245 245 247 251 252 251 251 251 250 251 251 250 248 244 247 242 235 236 236 236 236 236 236 236 235 234 236 236 234 234 234 234 237 240 240 241 242 242 242 243 244 243 243 242 242 242 240 241 240 240 239 239 238 239 241 242 242 241 239 238 238 238 238 237 233 231 230 229 230 232 234 234 235 235 234 234 231 227 225 222 231 228 219 216 218 213 191 181 153 136 140 140 136 139 138 138 138 140 140 142 143 142 142 142 142 142 142 142 146 148 149 149 150 149 148 148 148 144 144 145 144 144 144 146 146 147 149 149 151 152 153 153 155 155 155 155 155 155 155 155 155 157 157 159 160 160 162 162 164 164 166 166 166 166 166 168 168 169 170 169 169 171 171 170 173 175 175 175 175 175 175 175 175 176 176 176 176 180 180 180 180 179 178 180 181 179 178 178 180 180 180 180 180 180 181 182 181 181 181 183 183 183 183 183 185 185 185 185 185 185 185 185 185 183 181 183 183 185 184 184 183 181 181 181 183 183 183 183 183 183 183 183 185 185 185 185 185 185 185 185 186 185 185 185 185 185 185 185 185 185 185 185 185 185 185 185 186 185 184 185 185 184 185 185 186 185 185 185 185 185 185 185 185 185 185 185 185 185 185 185 185 185 183 183 183 183 185 186 185 186 185 186 186
105 108 115 118 120 122 122 122 122 127 130 133 138 138 140 142 140 155 166 169 169 164 162 162 164 160 160 160 161 162 164 166 168 168 168 168 168 169 172 173 173 173 175 176 176 176 176 180 180 181 182 182 181 181 181 181 181 183 185 185 185 186 186 188 189 189 189 189 189 191 191 191 194 194 194 195 196 197 196 196 197 201 203 204 204 204 204 206 207 208 208 207 210 211 210 211 212 213 214 214 214 214 214 214 213 212 212 212 211 211 211 211 208 208 207 207 204 203 200 197 194 194 193 191 189 189 188 189 191 197 199 199 199 199 200 200 200 200 203 204 204 207 210 211 210 208 207 201 197 199 197 186 186 193 201 208 212 218 230 229 231 237 240 243 244 240 240 242 243 243 245 246 246 244 241 241 244 247 247 247 245 246 245 249 249 245 245 244 243 243 245 253 251 251 251 251 252 253 252 250 251 250 245 235 234 235 235 235 235 235 235 236 238 238 238 237 236 235 236 240 241 242 243 242 243 243 245 245 243 242 241 241 240 238 238 238 238 238 238 238 238 240 241 241 239 237 237 238 236 236 235 232 228 227 227 227 229 231 231 232 232 233 233 230 227 224 224 232 226 216 217 218 217 200 181 153 138 142 140 138 138 138 138 138 140 142 144 145 142 141 141 140 140 142 144 144 148 149 149 149 149 149 148 146 144 144 144 144 144 144 148 148 146 148 149 152 153 153 153 154 155 155 155 155 155 155 154 155 159 159 160 160 160 162 164 162 164 166 166 166 166 166 168 168 167 169 171 171 171 171 171 173 175 175 175 174 175 176 176 175 176 176 176 176 178 180 180 180 180 180 180 180 180 180 180 180 180 180 180 180 181 181 181 181 181 181 181 183 185 185 185 185 185 185 185 185 185 185 185 185 184 181 181 181 185 185 185 183 181 181 181 183 185 185 185 185 185 185 185 184 185 185 185 184 185 185 185 185 185 185 185 185 185 185 185 185 185 185 185 185 185 185 185 186 186 186 186 185 184 185 185 185 184 185 185 185 185 185 185 185 185 185 185 185 185 185 185 185 185 181 181 185 185 183 183 183 183 183 184 186
107 114 118 122 120 122 125 127 130 144 149 151 153 151 151 151 149 156 164 168 171 169 165 162 161 160 160 160 161 161 161 164 166 168 168 169 169 169 172 173 175 175 175 176 177 176 178 180 180 180 181 181 181 181 181 181 181 183 185 185 185 185 186 189 189 189 189 189 190 189 191 191 193 193 194 194 194 196 196 196 199 200 201 203 203 204 206 206 207 207 207 207 208 210 211 211 212 212 213 213 213 213 213 213 213 212 212 212 211 211 211 211 209 208 207 207 204 201 200 199 197 194 193 191 191 189 189 188 191 194 196 196 196 196 200 201 200 199 200 200 204 204 204 208 213 210 203 196 194 194 196 193 191 189 193 211 213 219 227 225 228 235 241 242 243 243 242 242 242 243 246 247 244 238 236 241 242 246 248 247 247 246 243 247 249 248 245 242 241 240 243 252 253 251 250 251 254 253 252 252 253 250 246 234 234 236 236 236 236 236 235 238 242 240 241 241 241 240 240 242 244 245 245 245 244 244 245 245 243 241 240 240 238 238 238 237 236 238 238 238 238 239 239 238 238 236 237 236 234 234 233 228 226 225 225 227 227 228 228 228 229 230 228 225 223 223 227 232 225 215 218 218 213 201 185 153 144 142 142 140 140 140 140 140 142 142 144 144 144 144 144 142 142 144 144 146 148 148 149 149 149 148 148 148 146 146 146 146 147 146 148 148 149 149 148 153 153 153 153 153 154 155 155 155 155 155 154 155 159 159 160 160 160 162 162 164 163 166 166 168 168 168 168 169 169 169 171 171 171 171 171 173 173 175 175 176 175 175 176 176 176 176 176 176 180 180 180 180 180 180 180 180 180 180 180 180 180 180 180 181 181 181 181 181 181 181 183 186 185 185 184 183 183 183 183 184 185 185 185 185 185 183 183 183 183 183 183 183 181 181 181 183 183 185 185 185 185 185 185 185 185 185 185 185 185 185 185 185 185 185 185 185 185 185 185 185 185 185 185 185 186 185 184 185 185 186 186 185 185 185 185 185 185 185 185 185 185 185 183 183 185 185 185 186 185 185 185 185 185 185 183 183 183 181 183 185 185 185 185 185
114 120 122 123 125 133 138 136 138 149 158 160 157 155 159 160 164 166 171 171 171 172 170 166 165 160 160 160 160 160 162 164 164 166 167 169 169 169 171 174 175 173 175 176 176 175 176 180 180 178 180 180 180 180 181 181 181 182 185 185 185 185 185 188 189 189 189 189 189 189 189 192 191 191 193 194 194 194 196 196 199 200 200 201 203 204 204 207 207 207 207 207 208 208 210 211 212 212 212 212 212 212 212 212 212 212 212 212 211 211 211 211 208 208 207 207 204 201 200 199 198 194 191 188 191 191 188 189 193 191 204 220 230 228 236 239 236 222 217 229 210 214 227 230 222 216 203 199 197 196 196 196 197 197 190 200 200 211 220 217 223 234 240 239 241 242 242 242 242 244 245 245 241 238 238 237 242 246 248 248 247 246 244 248 248 248 243 236 238 240 243 248 250 250 249 250 254 252 251 251 250 249 247 236 233 234 235 236 236 236 235 238 242 241 241 243 244 242 241 242 244 245 246 246 245 244 244 244 243 241 240 238 237 236 236 236 236 236 236 237 237 237 237 237 236 236 236 234 232 232 230 222 220 222 223 223 224 225 226 225 225 224 221 219 218 220 223 221 213 214 218 217 210 200 176 151 144 142 142 142 142 141 142 141 142 142 144 144 144 144 144 142 140 142 144 146 148 149 149 149 148 146 148 148 148 148 148 148 148 148 146 148 149 149 149 151 153 153 153 151 154 155 155 155 155 155 155 155 159 159 160 159 160 160 161 162 164 166 166 170 169 169 168 169 169 169 171 172 171 171 171 171 171 173 175 175 175 173 175 176 176 176 176 176 178 180 180 180 180 180 180 180 180 180 180 180 180 180 181 181 181 181 181 181 181 181 185 185 185 185 185 181 181 181 181 185 185 185 185 185 185 185 185 183 181 181 181 181 181 181 181 181 181 183 185 185 185 185 185 185 185 185 185 185 185 185 185 185 185 185 185 185 185 185 185 185 185 185 185 185 185 185 185 185 185 185 185 185 185 185 185 185 186 185 185 185 186 185 181 180 183 185 184 186 185 185 185 185 185 185 185 181 181 181 181 185 185 185 185 185
127 127 131 135 140 146 149 153 155 159 160 160 160 162 164 166 171 171 175 172 171 173 171 169 168 166 166 162 159 159 160 160 162 164 168 168 169 173 173 173 175 175 174 175 175 176 176 176 176 176 180 180 180 180 181 181 181 183 185 185 185 185 185 186 188 189 189 189 188 189 189 191 191 191 191 193 194 194 196 196 196 199 200 203 203 204 206 208 207 208 207 207 208 207 208 210 211 211 212 212 212 212 212 211 211 211 211 212 212 212 212 211 209 208 207 206 204 201 200 200 197 200 225 219 188 191 203 234 239 232 236 241 243 245 245 245 247 242 239 246 242 242 246 245 234 218 210 204 200 200 200 199 201 200 193 193 193 197 209 215 224 238 245 242 238 240 241 242 243 243 245 245 240 237 237 238 243 248 248 246 248 247 245 247 246 245 238 234 236 241 244 247 250 250 249 251 252 250 248 248 245 247 249 245 232 232 234 237 236 236 235 242 242 240 242 245 246 243 242 243 244 245 246 246 244 243 243 243 242 240 238 236 236 235 235 235 235 235 235 235 233 234 235 234 235 234 233 231 229 229 225 218 217 220 222 220 220 220 220 221 219 219 218 216 213 213 213 212 212 216 212 208 203 194 171 149 144 144 144 144 144 144 144 145 142 142 144 144 144 143 144 144 144 146 146 148 148 148 148 148 148 148 148 148 148 148 148 149 149 149 149 150 148 149 149 151 153 153 153 155 155 155 155 155 155 155 157 157 159 159 159 160 160 159 160 164 164 166 166 166 166 166 166 166 169 169 169 169 169 169 169 171 171 171 171 171 173 175 175 175 176 176 176 176 176 176 176 176 176 176 176 178 180 180 180 180 180 179 180 181 181 181 181 181 181 181 181 181 181 181 180 180 180 181 181 186 186 185 185 185 183 181 181 182 182 181 181 181 181 181 181 183 183 182 181 181 183 185 183 181 182 181 181 181 181 181 181 183 185 185 185 185 185 185 185 185 185 185 185 185 185 185 185 185 185 185 185 185 185 185 185 185 185 181 181 181 181 181 181 181 181 181 181 181 181 181 181 182 181 181 181 181 181 181 181 181 181 181 181 182
142 142 144 149 155 163 168 169 171 173 173 169 166 164 166 168 171 173 175 175 176 176 176 173 173 173 171 166 160 160 160 159 162 162 168 168 169 173 173 173 173 173 173 173 173 176 176 176 176 176 180 181 183 183 183 181 181 183 186 185 185 186 185 186 188 189 189 189 189 189 191 192 191 191 191 193 194 194 194 194 194 199 200 201 203 204 206 207 207 207 207 207 207 207 208 208 211 211 212 212 212 212 212 211 211 211 211 212 212 212 211 211 208 208 207 206 204 203 200 197 200 227 245 248 226 233 241 245 246 242 240 242 245 246 247 248 245 234 240 244 246 249 248 246 243 229 210 200 196 194 193 200 203 200 194 194 193 196 214 221 232 243 244 245 240 239 241 243 244 243 243 241 236 234 237 241 244 247 244 245 245 243 244 243 241 242 238 236 241 242 244 249 251 251 251 251 250 248 248 247 246 248 249 246 232 232 234 235 236 235 237 243 242 240 243 247 246 243 243 244 243 244 244 244 243 241 241 241 240 237 236 235 235 233 234 233 234 234 234 232 230 231 232 234 235 234 232 230 228 227 221 213 214 217 218 217 216 216 216 218 218 216 216 213 212 212 212 213 208 204 196 193 193 188 168 151 146 144 144 144 144 144 143 144 146 146 144 144 144 144 144 144 144 146 148 148 148 148 148 149 149 146 148 148 148 148 149 149 149 149 149 149 149 149 149 151 153 153 153 155 155 155 155 155 155 156 159 159 159 159 159 159 160 160 160 162 162 165 164 164 166 166 164 164 168 168 169 169 169 169 169 172 171 171 171 171 173 175 174 174 176 176 176 175 176 176 176 176 176 176 176 178 180 180 180 180 180 180 181 181 181 181 181 181 180 181 183 181 180 180 180 180 180 181 183 185 185 185 185 185 182 181 181 181 181 181 181 181 181 181 181 185 185 182 181 181 183 185 183 180 181 181 181 181 181 180 181 183 185 185 185 185 185 185 185 185 185 185 185 185 185 185 185 185 185 185 185 185 185 185 185 185 185 181 181 181 181 181 181 181 181 181 181 180 181 181 181 181 181 180 180 180 180 181 180 181 180 180 180 180
157 155 158 162 171 180 181 181 181 185 181 176 171 169 169 169 171 173 175 175 178 181 180 180 180 181 181 185 169 166 164 164 164 164 168 168 169 171 173 173 173 173 173 173 173 175 175 175 174 175 176 180 185 185 183 183 181 183 185 185 185 185 185 186 187 189 189 189 189 189 190 193 191 191 191 193 194 194 193 194 194 200 200 203 203 205 206 207 207 207 207 207 208 208 208 208 211 211 212 212 212 212 212 212 212 211 211 212 212 212 211 210 211 210 207 206 204 203 197 200 232 245 248 249 241 238 243 242 237 241 243 245 245 247 249 250 238 231 239 245 248 249 245 243 239 225 204 197 189 188 186 196 200 203 197 191 192 197 222 232 238 242 243 246 243 235 238 241 240 241 241 236 235 237 241 241 242 244 244 244 244 242 241 238 237 240 241 241 243 244 245 250 251 251 250 249 249 248 248 246 245 248 248 245 231 232 233 234 236 236 236 243 241 239 241 246 245 242 242 243 243 244 244 243 242 241 238 238 238 235 235 234 232 231 232 232 232 232 232 231 230 231 234 236 236 234 232 227 226 223 218 211 210 210 211 213 212 212 213 214 215 214 214 213 213 213 213 207 200 196 196 194 189 181 169 160 149 146 146 145 146 146 146 146 148 148 148 146 148 146 144 144 144 146 148 149 149 149 149 149 148 144 146 148 148 148 149 149 149 149 153 151 151 151 153 153 153 153 153 155 155 155 155 155 155 155 159 159 159 159 159 160 160 160 160 160 160 162 164 166 166 166 166 166 167 168 169 169 168 168 169 169 169 169 169 171 171 173 173 175 175 175 176 178 176 176 176 176 176 176 176 178 178 177 178 178 178 180 181 180 180 181 180 180 181 181 181 178 178 178 178 180 180 181 183 183 183 183 183 183 180 180 180 180 180 181 181 181 181 181 182 183 183 181 181 181 183 183 182 181 181 181 181 181 181 181 181 183 183 183 183 183 183 183 183 183 183 183 183 183 185 185 185 185 185 185 183 183 183 183 183 183 183 181 181 181 181 181 181 181 180 180 180 180 181 181 181 181 181 180 178 178 178 180 180 178 178 178 178 178
160 160 162 168 176 188 188 188 189 191 188 183 181 181 176 173 172 173 175 177 181 183 183 188 189 191 191 193 179 169 171 173 169 169 171 171 171 173 175 175 175 175 175 173 173 175 175 174 175 175 176 180 183 185 186 185 183 183 185 185 185 185 185 186 186 189 189 188 189 189 189 191 191 191 191 191 193 195 194 194 196 199 200 201 203 204 205 207 207 207 207 207 208 208 208 208 211 211 212 212 212 212 212 212 211 211 211 212 212 212 211 211 210 210 207 206 204 202 213 227 240 244 248 247 232 232 238 234 236 241 244 245 246 248 249 249 235 229 240 246 248 245 243 241 239 232 202 191 186 185 185 196 197 200 197 189 189 191 208 229 236 240 237 241 238 231 234 236 238 240 239 234 232 229 230 237 239 241 244 244 244 243 240 236 236 242 245 244 243 244 245 249 251 251 250 248 250 249 248 245 245 247 248 246 231 232 232 234 236 235 238 241 240 238 238 243 244 241 241 242 242 243 242 240 240 239 237 236 236 234 234 234 230 228 227 228 230 231 229 228 229 231 233 234 235 234 232 228 225 214 205 206 206 206 208 211 212 211 212 211 211 214 214 216 213 211 210 204 201 197 196 194 190 180 169 153 149 148 148 149 148 149 148 149 148 148 148 148 148 147 144 144 144 146 148 149 149 149 149 149 148 144 146 148 147 148 149 149 149 151 153 153 153 153 153 153 153 153 154 155 154 155 155 155 155 154 157 157 159 159 158 159 160 160 160 160 160 161 164 165 164 164 164 164 164 164 169 168 166 168 169 169 169 169 169 171 171 171 173 175 175 175 175 176 176 176 176 176 176 176 176 177 176 175 175 176 176 176 178 180 180 180 180 180 180 180 178 176 176 176 177 178 180 181 181 181 181 181 181 181 181 180 181 180 180 180 181 181 181 181 181 181 181 181 181 182 181 181 182 181 181 182 181 182 181 181 181 181 181 181 181 181 181 181 181 181 181 181 181 181 183 183 183 183 183 183 181 181 181 181 181 181 181 181 181 181 181 181 181 181 180 179 180 180 181 181 181 181 182 180 178 178 179 178 178 178 181 180 178 178
169 168 166 165 173 186 193 194 199 197 197 197 197 194 189 183 178 176 176 180 183 186 188 191 194 194 194 193 191 186 181 181 181 181 186 181 173 175 175 174 175 175 175 171 171 173 175 175 175 173 176 183 185 185 186 186 186 186 185 185 185 186 186 186 186 190 188 186 188 189 189 189 191 191 191 191 191 193 194 194 196 196 199 200 200 204 206 207 207 207 207 207 208 208 208 208 211 211 211 211 212 212 212 212 212 212 212 212 211 211 210 211 208 208 207 205 204 206 226 228 240 243 250 244 234 232 231 228 232 238 244 244 245 245 245 243 230 228 240 240 240 237 243 242 241 233 203 191 188 188 185 189 191 191 189 191 191 193 212 231 236 238 232 230 234 228 230 235 238 238 237 231 228 225 222 228 236 232 234 238 242 240 234 233 238 240 243 243 243 245 246 248 250 250 249 248 249 248 246 244 244 245 247 236 228 232 233 234 235 236 238 239 240 239 239 242 243 242 241 242 243 242 240 239 239 237 236 235 234 233 231 230 228 227 227 227 227 227 224 223 227 230 233 232 233 232 232 231 226 211 201 203 203 203 206 207 207 210 212 211 212 214 214 214 211 209 206 203 201 199 194 194 189 176 159 149 149 148 148 149 149 149 148 148 148 148 148 147 148 148 148 148 148 148 148 149 149 149 149 148 148 148 148 148 149 148 149 149 151 154 155 153 153 153 153 153 153 153 153 153 153 154 153 155 155 155 155 155 159 159 159 159 159 160 160 160 160 160 160 161 161 160 160 160 162 164 165 164 164 164 166 166 168 166 166 166 170 169 169 173 171 171 173 175 175 175 175 175 175 175 175 175 175 171 172 175 175 173 175 178 176 176 178 180 178 176 176 175 176 176 176 178 180 180 180 180 180 180 180 180 180 180 180 180 180 180 181 181 181 181 182 180 180 181 180 180 180 181 180 180 180 180 181 180 180 180 180 181 180 180 180 180 180 181 181 181 181 181 181 181 181 181 181 180 180 181 180 180 181 180 179 180 180 181 181 180 180 180 180 180 180 181 180 180 180 180 180 180 180 180 180 175 176 180 178 176 175 178 176 176
172 175 178 188 197 199 200 203 208 207 208 210 208 206 203 194 186 178 183 186 188 191 192 193 196 196 196 196 196 193 191 193 193 193 194 191 180 173 175 175 175 175 175 173 173 175 176 175 175 175 176 180 185 186 186 186 186 186 185 185 185 186 186 186 186 189 190 188 188 189 189 191 191 191 191 191 191 191 194 194 194 196 197 200 200 203 204 206 206 206 207 207 209 209 208 208 211 211 211 212 212 212 211 213 213 212 212 212 211 211 211 211 208 214 226 204 218 219 214 230 236 239 246 243 236 226 223 233 238 242 244 243 242 242 244 243 230 227 235 229 229 235 240 242 241 232 208 194 193 188 184 183 181 181 186 194 197 201 216 232 239 240 231 222 227 225 224 229 236 239 238 232 231 228 227 228 232 227 227 231 234 236 236 236 239 236 235 237 241 244 245 247 248 248 247 247 248 248 245 244 243 243 234 228 230 230 233 234 235 236 236 238 239 238 238 242 243 243 243 242 242 242 241 240 240 238 236 235 234 233 230 228 227 226 226 224 224 222 218 218 224 227 230 231 232 231 232 230 226 204 200 200 200 200 201 204 203 211 217 215 216 216 213 212 208 207 206 203 201 197 191 185 178 168 151 148 149 148 148 149 149 149 148 148 148 148 148 148 148 148 148 148 148 148 148 149 149 149 148 148 148 148 148 148 149 149 151 151 153 153 155 153 153 153 153 153 153 153 153 153 153 153 152 155 155 155 155 155 157 157 157 157 157 159 159 159 160 160 159 159 157 157 159 160 162 162 162 162 162 161 164 162 162 164 164 164 166 168 168 168 168 168 171 173 173 173 174 175 175 175 173 173 173 171 171 173 175 175 174 175 175 175 178 179 175 175 175 175 176 176 176 178 178 177 176 177 178 178 178 178 178 178 180 180 180 180 180 181 181 181 181 180 180 178 178 178 178 178 178 178 180 180 180 180 178 179 178 178 178 178 176 178 180 182 181 180 180 181 181 181 181 181 180 180 180 179 180 180 178 178 178 178 178 180 180 176 178 178 180 180 180 178 178 178 178 179 178 178 180 180 180 176 176 178 178 176 175 172 175 176
180 188 195 204 208 214 217 213 211 211 211 211 211 211 209 200 191 185 186 188 191 193 194 197 196 196 196 197 197 197 197 196 196 196 196 196 191 183 178 176 176 176 176 175 173 175 175 175 173 175 176 180 181 186 186 186 185 186 186 186 186 186 186 186 186 189 189 189 189 189 191 191 191 191 191 191 190 191 193 193 193 196 196 200 200 203 203 204 204 204 206 207 208 208 208 208 211 211 210 211 212 212 212 214 213 212 212 211 212 210 211 211 206 216 231 229 227 221 232 232 236 243 244 241 232 222 225 235 239 244 245 243 238 243 244 245 232 227 232 222 219 229 234 240 240 234 223 203 196 185 181 181 181 181 188 193 199 201 213 229 232 233 224 220 221 224 223 224 232 240 239 229 227 229 232 230 227 227 229 233 238 240 238 237 238 236 235 235 236 241 244 248 246 245 246 247 248 247 243 244 242 234 228 230 229 231 233 233 235 236 236 237 238 238 239 242 244 244 244 243 243 243 243 242 242 241 238 236 235 233 228 227 226 226 223 221 220 216 212 214 216 221 225 225 226 225 224 222 216 200 200 200 197 199 200 201 201 204 217 220 219 214 211 208 205 204 201 200 196 186 180 175 169 162 153 149 149 149 149 148 147 148 148 148 148 148 148 148 148 148 147 148 146 147 149 149 149 148 145 147 148 146 148 150 150 149 151 153 153 153 155 153 153 153 153 152 153 153 153 153 153 153 152 151 155 155 155 155 155 155 155 155 155 155 156 155 155 159 157 155 155 156 157 159 159 159 157 159 160 160 160 160 161 160 160 164 163 164 164 162 165 166 168 169 169 169 171 171 171 172 171 171 171 171 171 171 171 171 173 175 175 175 175 175 175 175 175 175 175 176 176 176 176 175 175 176 176 176 176 176 176 175 178 180 180 180 180 180 180 180 180 180 179 176 176 176 176 176 176 176 179 180 180 180 176 176 177 176 176 176 176 176 175 180 178 176 176 176 178 180 180 180 180 180 180 180 180 177 176 176 176 176 176 176 176 177 176 176 178 180 176 176 176 176 176 176 176 176 176 176 176 175 173 175 175 175 173 173 176 176
189 197 203 206 206 210 214 213 212 210 211 212 212 213 211 204 197 191 186 188 190 191 193 194 196 197 199 200 200 201 201 200 200 198 197 197 197 191 183 175 175 175 175 175 175 176 175 175 173 171 175 177 178 181 185 186 188 188 186 186 188 188 189 189 189 191 191 191 191 189 191 193 193 193 193 193 191 193 196 196 196 196 195 199 199 200 203 203 204 204 206 207 208 208 208 208 211 211 211 212 213 214 213 214 214 213 212 212 212 211 210 211 206 221 231 235 227 229 230 234 240 245 245 242 228 221 227 232 236 241 245 240 232 243 244 245 235 228 231 223 219 229 233 236 237 238 232 216 199 183 180 180 180 181 188 196 199 201 204 213 216 219 218 221 221 223 223 225 231 235 234 227 226 226 225 223 225 227 232 238 243 242 240 238 239 237 235 236 239 242 245 247 244 244 246 247 248 247 244 241 238 231 232 231 232 234 234 234 235 236 236 236 239 239 240 243 243 244 244 244 244 245 243 243 244 243 242 239 239 235 229 227 225 224 223 220 220 216 212 211 212 213 216 217 218 218 216 210 204 200 199 199 197 198 199 200 200 201 207 215 218 213 207 206 200 200 196 193 186 176 169 166 162 159 156 149 149 151 149 148 148 146 145 146 148 148 148 148 148 148 148 148 148 150 149 149 148 149 148 148 148 148 148 148 148 148 151 151 154 153 153 153 151 151 150 153 153 151 150 153 153 153 154 153 153 153 153 152 155 155 154 155 155 155 155 153 153 155 155 153 153 153 155 155 155 155 157 157 157 159 159 159 159 159 159 159 160 162 162 162 163 166 166 166 167 166 168 169 169 169 168 169 169 171 171 171 169 168 169 174 173 173 175 175 175 175 175 175 175 176 176 176 175 173 175 176 176 176 176 176 176 176 178 178 178 178 176 176 179 178 176 176 176 175 175 175 175 175 176 176 177 176 178 177 175 175 175 176 176 175 175 176 176 176 176 176 175 173 175 175 176 178 175 176 178 178 178 178 176 175 175 176 175 173 173 175 175 176 176 176 175 175 175 176 176 174 175 175 172 173 173 171 170 171 173 173 174 173 175 175
197 199 203 208 200 199 200 203 204 206 210 212 212 212 213 208 199 193 189 188 192 191 194 199 203 203 207 204 204 207 208 207 207 207 204 201 200 197 193 185 181 175 175 175 175 175 175 175 173 171 173 176 175 180 183 186 189 188 186 188 189 191 191 191 193 194 194 194 193 191 193 193 193 193 193 192 194 194 196 197 199 199 200 199 197 198 201 203 203 204 206 207 208 208 208 208 211 211 212 213 215 214 214 214 214 213 214 214 213 212 211 210 207 227 236 238 230 227 222 231 238 243 244 240 224 221 226 227 234 240 242 239 231 238 243 243 238 230 231 228 226 232 236 234 234 237 234 226 213 188 183 181 181 183 193 199 197 197 200 208 213 216 219 220 221 222 220 219 219 218 220 221 223 223 223 222 223 226 236 240 243 245 246 243 241 240 238 238 242 245 246 244 243 244 245 246 248 249 244 228 225 227 230 232 232 233 234 234 235 237 236 236 238 239 240 242 243 244 244 243 244 246 245 244 244 244 244 242 241 238 235 227 224 225 223 221 221 219 215 212 212 212 212 212 211 211 213 207 200 197 196 196 196 197 199 200 200 202 201 204 212 209 201 199 194 193 189 186 178 171 169 165 158 153 151 149 149 149 149 148 146 144 145 144 146 148 148 148 148 148 148 148 149 149 149 149 149 149 149 148 148 148 148 148 148 148 149 149 149 149 153 151 149 149 148 152 151 149 149 153 153 153 154 153 153 153 153 153 155 155 155 153 151 151 151 154 153 153 153 153 153 151 156 155 153 153 155 155 155 157 159 159 158 159 159 159 159 160 161 160 163 163 162 162 162 162 162 164 167 164 162 164 166 168 168 168 167 169 168 168 168 168 169 171 171 171 171 171 169 173 175 175 173 169 173 175 174 173 173 173 173 173 173 173 175 175 173 175 176 175 173 173 173 173 173 173 173 173 176 176 175 175 173 173 175 174 175 175 173 175 175 173 172 175 175 173 175 175 175 175 173 173 175 175 173 175 176 175 173 173 173 173 173 171 171 175 173 173 173 172 173 173 173 174 173 171 169 171 171 171 171 171 171 171 171 169 169 169 169 169
196 197 200 203 196 189 185 185 188 196 204 211 212 214 214 210 203 200 196 196 196 197 200 203 208 211 213 213 216 214 214 212 213 214 213 208 202 199 200 199 191 180 175 175 175 175 175 175 173 171 173 175 175 178 183 186 189 189 189 189 189 191 191 191 191 194 196 196 194 194 194 194 194 194 194 194 194 197 199 200 201 201 200 199 200 200 201 203 202 204 206 207 208 208 210 210 212 211 212 213 214 214 214 214 214 214 214 214 214 211 214 220 225 231 236 234 227 223 213 224 235 242 243 239 223 221 227 228 234 239 240 235 229 228 236 241 242 229 230 228 224 226 236 237 237 237 234 224 216 194 185 185 183 188 199 203 201 201 203 210 213 214 217 218 218 219 219 219 218 217 218 220 219 220 222 223 231 236 243 240 243 245 243 242 243 237 234 240 244 244 242 242 241 244 245 245 248 250 250 245 228 227 228 229 232 234 235 235 235 236 237 237 239 240 240 241 242 243 244 244 245 245 245 245 247 246 245 244 243 241 238 231 227 223 223 222 222 220 217 213 213 213 211 211 208 208 208 206 202 197 194 196 196 196 197 199 199 199 200 199 199 199 197 194 189 188 188 181 166 162 164 159 153 148 148 146 146 144 144 146 144 142 144 144 146 148 146 146 146 146 146 149 148 146 146 148 148 148 148 148 148 148 146 144 144 145 148 148 148 149 150 149 149 149 149 150 151 151 151 151 151 148 149 151 151 151 149 149 149 149 151 149 149 151 151 150 149 149 149 154 151 149 151 151 151 151 153 153 153 153 155 155 157 157 157 157 158 159 159 160 160 160 160 160 159 159 160 160 159 160 160 160 160 161 162 164 164 166 166 166 167 166 166 166 167 166 166 168 169 169 171 171 171 171 171 173 171 168 169 169 171 171 171 171 171 171 171 171 173 173 173 174 173 173 171 171 173 173 173 175 175 175 171 169 171 171 171 171 169 171 171 171 171 173 171 169 171 173 173 173 171 171 171 171 171 173 175 173 172 171 171 169 169 169 169 171 169 169 169 171 171 171 169 169 171 168 168 169 169 168 169 169 168 169 169 169 169 169 169 169
193 189 191 194 189 183 181 183 183 185 194 203 212 214 214 211 208 208 208 208 210 206 203 208 213 216 219 219 223 225 225 222 221 222 220 214 208 203 200 200 197 191 181 175 173 173 175 178 178 180 176 175 175 178 181 186 189 189 189 189 189 192 191 191 191 194 194 196 196 196 196 196 196 196 196 196 197 199 200 200 203 204 203 200 200 200 201 203 203 204 206 207 208 209 211 211 211 211 212 213 214 214 214 214 213 214 214 214 213 211 216 234 239 239 239 235 226 221 220 235 243 244 244 238 226 225 226 228 235 239 239 232 229 230 234 238 239 231 228 225 225 226 236 237 235 236 236 220 210 196 191 191 189 194 203 207 206 204 204 207 210 211 214 214 216 219 220 221 219 218 217 220 221 222 222 225 236 239 241 238 238 242 243 242 240 238 237 245 249 248 244 242 241 244 246 246 249 249 249 247 232 227 227 228 232 234 236 236 235 236 236 240 241 241 240 241 242 242 243 244 245 245 245 246 249 248 246 245 245 243 241 237 232 228 225 226 227 224 221 218 217 216 213 210 207 206 203 203 201 198 196 196 196 196 196 197 199 200 200 199 196 196 194 189 186 184 180 162 156 155 153 149 148 146 148 144 144 144 144 145 142 140 142 144 145 146 144 144 142 142 142 142 142 145 144 146 148 146 148 148 148 148 145 144 144 144 146 148 146 148 149 149 150 149 149 148 148 148 148 148 148 146 148 149 148 149 146 146 145 148 149 149 149 148 148 148 147 146 148 148 149 149 149 149 149 149 151 153 151 151 151 153 155 155 155 154 155 153 155 157 157 157 157 157 157 157 157 157 157 159 160 160 160 160 160 162 164 164 162 162 162 162 164 166 166 166 166 168 169 169 170 169 171 171 171 171 169 168 169 168 169 171 168 168 171 169 167 169 169 169 169 169 169 171 172 171 171 169 169 169 169 169 168 169 169 169 169 169 169 169 169 171 170 171 171 169 169 171 171 171 171 171 169 169 172 171 169 169 172 171 171 169 169 168 168 169 169 169 168 168 169 168 168 168 168 168 169 168 168 168 168 168 168 169 169 169 169 169 169 169
185 181 181 181 180 177 178 180 186 191 194 197 204 212 214 213 213 213 214 214 214 212 211 214 217 217 221 224 227 228 228 227 227 228 226 223 219 213 205 201 200 201 197 180 177 178 182 186 186 188 186 183 181 181 185 186 190 189 189 190 191 191 191 193 194 194 194 194 194 196 196 196 196 196 197 197 199 201 201 203 203 206 207 205 200 200 201 204 206 207 207 207 210 211 211 211 212 212 212 212 214 216 216 216 216 216 216 212 216 217 210 226 237 240 239 236 224 222 225 237 244 245 243 238 231 222 218 221 230 240 239 234 234 236 238 238 238 227 224 230 232 229 233 236 235 236 236 220 210 201 199 199 201 203 204 204 204 205 204 203 206 210 211 211 214 218 219 221 221 220 221 223 225 227 226 226 230 232 234 236 236 239 242 243 240 241 242 244 248 249 247 242 241 244 245 245 245 247 250 245 243 231 228 229 234 236 236 236 236 236 238 240 242 241 240 241 242 242 242 243 245 246 246 247 248 248 246 246 245 245 243 241 236 233 230 228 228 225 223 221 222 220 217 212 208 203 203 203 200 200 196 196 196 194 193 196 198 200 199 200 199 194 188 180 176 173 166 151 146 148 146 142 144 142 142 142 142 142 142 142 142 141 140 141 140 140 142 142 142 142 142 142 142 142 144 144 144 144 144 144 142 142 142 142 142 142 146 146 146 146 146 148 149 148 146 146 146 148 146 146 144 144 146 146 146 146 144 144 146 146 148 148 148 146 146 144 144 144 144 144 146 148 148 148 149 149 148 148 148 149 150 151 151 151 151 151 151 151 151 155 154 153 153 153 153 153 153 155 155 155 157 160 159 159 159 160 160 160 160 160 160 162 162 162 163 166 167 166 168 168 168 169 166 168 168 168 168 166 166 166 166 166 167 166 166 167 166 168 168 168 168 168 168 169 169 166 166 166 168 169 168 168 166 166 166 166 166 166 166 166 166 166 166 168 168 168 169 169 169 169 168 166 166 165 166 168 168 169 172 168 166 169 169 166 168 168 168 168 167 166 166 166 166 166 166 166 166 166 166 166 166 166 168 169 169 169 170 169 168 166
171 173 169 171 173 175 175 178 187 191 193 194 200 208 213 214 214 214 213 214 215 216 217 217 218 217 222 226 227 229 229 230 229 229 230 227 223 217 213 206 204 206 201 189 186 186 191 194 194 196 196 193 188 186 186 188 189 189 188 191 191 193 192 194 194 194 194 193 195 196 196 196 195 196 199 199 200 203 203 204 204 207 206 208 204 203 204 204 206 207 208 210 211 211 211 211 212 212 212 213 214 216 217 216 216 216 216 214 226 233 224 224 236 240 240 236 224 225 220 224 240 242 240 238 232 225 214 219 229 240 239 235 236 240 241 241 240 228 224 230 233 229 234 236 235 236 236 220 214 210 206 206 206 206 204 204 204 204 204 203 206 211 210 212 214 217 220 223 226 227 226 227 227 226 226 225 223 225 231 234 234 235 240 243 243 244 245 246 248 249 250 248 245 245 246 246 245 247 251 250 243 232 230 231 234 236 236 236 236 237 239 240 240 239 239 240 240 241 241 241 244 246 245 247 248 248 247 246 246 246 245 244 241 238 236 232 229 228 225 226 225 223 220 216 211 204 201 201 200 200 196 194 191 189 188 194 199 201 201 200 199 194 185 171 169 168 163 153 148 148 144 140 140 140 142 142 142 142 142 142 142 140 138 136 138 138 140 140 139 142 140 140 140 142 144 145 144 144 142 138 140 142 141 140 142 142 142 142 142 141 142 144 144 142 142 142 142 146 145 142 142 144 142 142 141 142 144 144 142 144 145 146 146 144 141 144 144 144 144 144 144 146 146 146 148 148 148 149 146 148 149 148 146 148 148 148 148 148 148 149 149 149 149 149 151 150 149 149 149 151 153 157 159 157 156 157 157 155 157 160 159 158 159 160 160 162 164 164 164 164 165 164 166 164 164 164 164 166 166 164 164 164 166 166 166 166 166 164 164 164 164 163 164 168 168 166 166 166 169 169 168 168 166 166 166 166 166 166 166 166 166 166 166 164 164 164 164 166 168 168 166 166 166 166 165 166 168 168 166 166 166 168 168 166 166 164 164 163 166 167 166 166 166 166 166 166 166 166 166 166 166 166 166 168 168 168 168 168 166 166
162 166 166 169 171 173 177 180 191 196 196 196 196 206 211 212 211 208 207 208 213 216 217 218 218 217 222 226 227 229 231 231 230 230 231 230 227 220 216 211 207 204 204 203 196 194 194 196 196 196 196 196 193 189 189 191 193 194 196 194 193 194 194 194 194 194 194 193 194 194 196 196 197 198 200 200 201 203 206 207 209 209 208 208 208 206 206 206 208 210 210 211 211 211 212 212 212 213 214 214 216 217 218 218 217 218 217 214 228 234 232 228 235 240 240 237 224 226 221 227 240 238 238 236 231 222 212 228 235 241 243 238 235 240 242 241 240 232 226 224 227 226 234 236 235 230 232 222 217 216 216 212 208 207 206 203 203 203 203 203 206 208 210 211 214 220 222 225 227 228 230 232 232 228 225 222 221 227 234 235 234 236 241 244 244 244 245 248 248 250 250 248 246 247 247 247 248 249 249 245 240 237 233 233 237 238 238 238 238 238 238 238 240 240 240 240 240 240 240 241 243 245 246 247 248 248 248 247 246 246 245 245 242 240 237 234 231 228 228 232 227 225 224 219 212 207 201 197 199 197 194 192 188 188 186 189 194 199 199 194 193 191 180 171 170 166 160 155 149 146 144 142 140 142 142 142 142 142 142 142 140 138 138 138 138 138 138 138 135 135 138 138 138 140 142 142 142 140 140 137 138 140 138 138 139 140 138 138 137 138 140 140 140 138 136 138 140 140 140 140 140 140 140 140 140 140 139 140 142 142 142 142 142 142 142 142 142 142 142 142 140 139 140 142 142 142 146 144 142 142 142 142 142 144 144 144 144 144 144 144 146 148 148 148 149 149 148 148 147 148 149 151 153 153 153 156 155 155 156 155 155 155 157 159 158 158 159 159 159 159 158 160 162 163 162 162 162 162 161 160 161 160 164 164 165 164 164 164 164 161 162 162 162 162 163 164 164 164 164 164 164 164 164 164 164 163 164 164 164 164 164 164 164 164 164 160 162 164 164 164 164 164 163 164 164 164 164 164 164 164 164 166 167 164 164 164 164 164 164 164 164 164 164 164 164 164 166 166 166 166 166 166 166 166 166 166 166 166 166 166
164 166 163 168 171 175 176 180 191 197 197 196 196 203 207 206 201 199 197 199 203 208 213 216 217 217 221 224 227 230 232 232 232 231 230 229 227 222 218 214 211 207 204 206 201 200 200 199 198 197 196 200 196 191 193 194 196 197 199 197 196 194 194 194 194 194 194 194 196 196 195 196 199 199 200 200 201 207 208 211 212 211 208 208 208 208 208 208 210 212 211 211 211 211 213 213 213 213 215 216 217 218 218 218 218 218 217 226 240 241 239 229 230 236 238 235 222 224 224 228 232 228 232 233 228 221 216 229 236 242 245 242 238 239 240 241 238 236 232 227 225 223 229 234 239 232 229 223 221 220 221 220 213 210 211 208 211 210 207 208 208 211 211 212 216 220 223 225 228 232 234 235 234 231 229 227 227 231 236 237 237 240 244 245 245 245 246 248 249 249 249 248 248 248 248 248 249 249 247 248 248 247 244 240 243 240 240 238 238 238 238 238 240 240 240 240 240 240 240 241 243 244 245 245 246 246 247 246 246 245 245 244 242 240 238 236 232 230 231 233 228 225 225 221 216 213 207 194 197 197 194 191 189 188 186 185 188 189 189 189 186 183 172 166 165 161 159 155 148 148 146 144 140 142 141 142 142 142 142 144 142 140 138 138 138 136 135 148 159 148 141 138 138 140 140 140 140 136 136 138 136 136 135 138 136 136 137 136 138 136 136 135 135 135 133 135 135 136 134 135 135 136 135 135 135 135 135 136 138 140 140 140 140 142 141 140 140 140 140 140 140 138 140 140 138 138 140 140 138 138 138 140 140 142 142 144 144 144 144 144 144 146 147 145 148 148 146 146 148 148 149 150 149 151 153 151 153 155 155 155 155 155 157 157 156 157 157 157 155 155 157 157 157 157 157 159 159 159 159 160 160 160 160 160 162 162 161 162 162 160 159 159 159 159 159 159 160 160 160 160 162 162 164 164 162 162 163 164 162 162 162 161 162 160 160 159 162 164 164 164 162 162 163 163 164 163 164 164 164 162 162 166 166 162 162 162 162 162 164 164 164 164 165 163 164 164 166 166 166 166 166 166 166 166 166 166 166 166 166 166
164 164 162 164 168 171 176 181 189 196 197 199 200 203 204 204 201 196 196 196 197 201 208 211 213 218 221 224 228 231 230 230 230 230 229 228 226 223 219 215 212 211 207 205 203 203 201 201 201 201 201 201 201 196 197 197 200 200 201 201 200 199 197 197 197 196 196 197 199 201 200 200 201 201 201 201 206 208 212 214 216 216 212 212 211 210 210 211 211 212 212 213 213 212 213 214 213 214 216 217 218 218 218 219 219 217 208 219 238 243 241 235 232 232 233 230 222 224 225 227 226 223 225 231 227 220 218 222 232 240 241 242 243 241 238 237 234 234 235 234 231 227 227 229 234 236 226 223 223 223 224 229 228 227 227 227 227 228 222 218 214 214 216 218 220 221 223 225 228 233 236 234 233 234 240 237 236 236 236 236 238 240 243 246 246 246 247 249 249 250 250 249 249 249 247 248 249 250 250 250 248 249 247 245 244 243 242 241 240 238 238 239 240 240 239 240 241 240 240 241 242 242 243 244 245 245 245 245 245 245 244 244 242 241 240 237 232 231 233 233 227 226 226 224 219 216 213 203 200 194 194 193 189 185 185 183 183 181 181 181 178 176 168 162 162 160 160 151 146 146 144 142 142 142 140 142 140 142 148 144 142 140 140 138 138 140 153 168 171 166 155 144 140 138 138 136 135 135 135 135 135 135 136 136 137 136 133 133 133 133 133 133 133 131 131 131 131 130 131 131 132 135 131 131 131 131 133 133 135 138 136 136 136 138 138 137 136 136 136 136 136 136 136 135 136 136 136 136 139 138 139 137 137 138 138 140 142 141 142 144 142 139 144 144 148 146 144 146 148 148 148 146 146 149 149 149 149 154 153 153 153 153 153 153 153 153 153 153 151 151 151 155 155 155 155 157 159 157 157 157 159 159 159 159 159 158 155 155 155 155 155 156 155 154 155 155 155 159 157 155 157 159 160 160 160 160 159 160 159 159 158 159 159 159 159 160 160 160 160 160 160 160 160 160 160 160 160 161 164 160 160 162 162 160 160 160 160 160 162 164 162 164 164 164 164 164 164 164 164 164 164 164 164 166 166 166 167 166 167 166
164 164 164 163 164 168 173 180 188 196 197 199 200 201 201 200 200 199 197 197 199 200 203 207 211 217 221 223 227 229 229 228 227 227 227 227 225 222 220 217 213 212 210 207 204 204 203 204 204 204 204 204 203 200 201 203 204 203 204 204 203 203 201 201 198 197 197 200 200 200 201 203 203 204 204 207 208 211 214 217 218 217 214 214 214 214 213 211 212 212 214 214 213 213 214 216 216 217 217 217 218 218 218 220 219 207 200 226 243 243 246 242 234 232 232 228 223 223 225 226 226 223 221 219 221 220 219 218 227 237 239 243 244 244 241 234 230 231 233 229 231 230 228 228 227 228 226 226 224 224 226 234 238 241 243 242 236 238 231 223 222 219 219 221 223 226 225 225 228 233 234 232 233 234 239 239 237 236 237 237 238 241 245 246 247 248 248 248 249 250 251 250 250 250 249 250 250 250 251 251 250 249 248 247 246 244 243 243 242 240 239 239 240 240 239 240 240 241 241 240 241 242 242 243 244 244 244 244 244 244 244 244 242 241 240 238 234 232 234 233 228 227 227 224 221 219 218 214 207 194 191 194 188 185 185 185 183 181 177 168 166 167 164 162 160 157 156 148 147 151 149 155 159 155 142 142 146 149 162 163 159 148 140 138 140 159 173 171 168 160 148 142 142 140 138 135 135 136 136 137 136 136 135 135 133 131 131 131 129 127 127 129 131 129 127 129 127 128 127 127 126 127 127 127 129 129 131 131 131 133 135 133 133 135 133 133 133 133 133 133 131 131 131 133 133 133 133 135 138 138 138 138 138 138 137 140 140 144 144 144 142 142 141 144 146 146 144 144 146 146 146 146 146 146 146 149 149 149 150 149 150 149 149 149 149 149 150 151 153 153 153 153 153 155 155 159 159 159 159 159 157 158 155 155 155 155 153 153 153 153 153 153 153 153 153 153 155 157 155 151 155 157 157 157 159 157 157 155 155 155 155 155 155 157 156 159 156 157 157 157 159 159 157 157 157 157 157 160 162 160 159 160 160 159 160 160 160 160 161 161 164 164 164 164 164 164 164 164 164 164 164 164 164 164 164 164 166 166 166 165
164 164 164 162 162 162 168 176 181 189 191 196 199 200 196 195 197 199 199 199 199 199 200 203 207 214 219 222 223 226 227 227 226 225 225 225 223 221 221 219 213 212 210 207 206 204 204 204 204 204 204 204 205 204 207 206 207 207 207 207 207 206 204 204 200 200 200 200 200 200 201 203 203 206 210 212 212 212 213 217 218 218 215 213 214 218 216 214 214 214 216 216 216 216 216 216 218 218 218 218 218 218 218 219 216 208 227 241 243 242 246 251 247 238 232 223 223 223 224 224 226 223 221 219 219 218 219 218 226 236 236 241 244 244 242 235 231 228 229 227 226 227 227 228 232 232 229 227 227 226 226 233 239 240 245 247 243 239 231 223 223 222 222 223 227 227 228 229 232 234 233 232 232 234 237 240 240 238 238 238 240 243 245 248 248 248 248 248 249 252 254 252 252 251 251 251 251 251 251 251 251 250 249 248 247 245 244 243 243 242 240 239 241 241 241 241 240 241 241 242 241 243 243 243 244 244 243 244 242 242 241 242 241 240 240 240 237 236 235 232 229 227 227 227 224 222 221 220 216 204 194 190 181 175 176 177 178 178 168 160 159 164 162 160 159 153 149 157 171 173 171 175 173 171 162 145 168 178 178 171 166 157 144 136 144 169 171 171 164 155 151 144 147 148 138 133 133 136 135 133 133 133 131 129 128 127 127 125 122 123 123 125 127 126 123 125 122 122 122 125 125 125 127 127 127 127 127 127 127 127 127 129 131 129 125 124 127 127 127 127 127 127 127 131 133 133 133 133 136 136 137 136 135 135 136 138 138 140 140 142 142 142 142 142 140 140 141 142 140 140 140 142 143 144 144 146 146 146 148 149 149 150 148 146 149 149 149 151 153 153 153 153 153 155 155 157 159 160 160 160 157 155 153 151 152 151 153 153 153 153 153 153 153 153 154 153 151 151 151 151 153 155 155 156 155 155 155 155 154 155 155 155 155 155 155 155 154 154 155 155 157 159 155 155 155 155 155 154 158 157 159 159 157 157 159 160 160 160 160 160 162 164 164 164 164 164 164 164 164 164 164 164 164 164 164 162 164 167 164 162
165 162 162 160 160 160 166 173 178 183 186 191 200 203 199 196 199 199 200 200 200 200 201 203 204 210 216 218 221 222 224 225 224 224 224 223 221 220 221 219 213 212 210 208 209 206 205 206 206 206 206 206 207 207 208 208 208 210 210 210 210 207 207 206 204 203 203 202 201 201 201 203 206 211 217 218 217 214 214 217 218 218 217 216 216 218 218 217 218 218 218 218 218 218 218 217 218 218 218 219 219 219 219 220 224 224 237 243 241 241 243 248 250 249 246 237 223 225 223 224 225 224 223 221 221 221 221 220 222 232 236 240 243 244 244 235 230 227 226 227 227 226 229 238 238 236 234 231 232 233 233 233 237 238 243 249 247 245 236 229 229 229 229 228 228 230 232 232 234 234 234 232 232 235 239 241 241 240 241 240 242 245 246 247 247 248 247 247 248 251 252 252 251 250 251 251 251 251 251 251 250 250 249 249 247 245 245 243 243 243 242 241 243 243 243 242 241 242 242 242 242 245 245 245 244 244 244 244 243 242 241 241 240 239 240 240 238 237 235 232 230 229 229 228 228 227 226 225 221 218 212 186 175 168 162 168 169 167 159 153 157 162 162 160 157 148 153 185 171 156 168 173 169 164 160 159 169 183 177 164 160 159 155 144 162 176 172 171 166 160 157 152 149 151 142 131 133 135 133 129 125 124 125 125 123 123 123 123 122 122 122 122 122 122 122 122 120 120 120 123 123 125 125 125 123 123 123 123 123 123 123 125 125 125 123 122 125 125 125 125 127 127 129 131 133 133 133 133 135 135 136 135 135 136 136 136 136 138 138 140 140 140 140 142 141 142 142 142 142 142 142 142 142 144 144 144 144 144 146 148 148 148 148 149 149 149 149 149 151 151 151 153 153 153 155 159 159 159 159 160 155 153 153 153 153 153 151 151 151 151 151 151 151 151 151 151 149 149 149 151 154 153 153 153 153 153 153 153 155 153 153 153 153 155 155 155 155 156 155 155 155 157 155 155 153 153 152 155 155 156 157 157 157 159 160 158 161 160 160 160 159 162 162 162 162 163 162 163 164 164 164 164 164 164 163 165 164 165 164 164
163 162 160 160 160 160 164 168 173 180 185 193 198 202 200 197 200 199 200 200 200 201 203 203 203 208 214 217 219 220 221 223 223 224 224 224 221 221 221 220 216 214 212 211 211 210 208 207 207 207 207 207 207 207 208 208 212 211 211 211 211 210 210 207 207 206 203 203 203 203 203 206 211 217 218 218 217 214 213 216 218 219 217 216 218 218 218 219 219 219 218 218 218 218 218 218 218 219 219 219 220 219 220 224 225 209 222 230 231 236 243 245 246 249 250 244 229 223 223 223 223 224 224 221 222 222 222 221 220 223 232 237 239 241 243 236 229 227 228 231 232 233 236 238 236 236 237 236 234 235 236 234 236 237 242 248 246 248 245 240 236 238 234 231 229 233 234 234 234 234 234 233 233 237 240 242 241 240 241 240 244 247 247 247 246 248 247 247 248 248 249 249 249 248 251 251 251 251 251 250 250 250 250 250 248 247 246 245 243 243 243 243 243 243 244 244 244 243 243 244 245 245 245 244 245 244 244 244 243 242 241 241 240 241 240 239 238 236 234 233 233 232 232 231 230 228 226 223 223 230 229 188 168 168 155 160 160 160 151 149 155 158 157 153 147 143 166 178 164 162 164 171 169 160 155 159 166 175 175 166 161 159 155 155 180 174 169 168 168 162 162 160 157 159 149 127 129 129 130 125 123 122 122 122 123 122 122 120 118 118 119 118 118 119 118 118 118 117 118 116 118 120 121 120 120 121 120 122 120 122 123 123 123 123 123 125 125 125 125 127 127 127 129 131 133 133 133 133 133 135 137 136 136 136 136 136 136 138 138 138 138 138 140 142 142 142 142 142 142 142 142 142 140 142 144 144 144 142 146 148 148 148 149 149 148 149 149 149 149 149 149 150 153 151 153 159 159 159 157 157 155 151 151 151 151 151 149 148 148 148 148 149 150 149 149 149 149 149 149 149 151 153 151 151 152 151 151 151 149 150 151 151 151 153 155 155 155 155 155 155 155 155 155 153 151 153 155 155 155 155 154 153 155 157 157 157 159 160 160 160 160 160 160 160 159 160 160 162 164 164 165 164 164 164 164 164 164 164 164 164
164 164 164 163 162 161 163 166 173 178 185 194 199 204 206 199 201 202 204 200 201 203 203 204 204 208 211 214 217 219 220 220 221 223 224 224 222 222 222 221 220 218 213 212 212 210 210 208 207 207 206 204 206 207 208 211 212 212 212 212 212 212 211 211 210 207 207 204 206 207 207 212 217 216 217 216 214 214 216 217 219 218 218 216 217 218 218 218 219 219 219 219 217 217 219 219 219 219 219 219 219 220 219 216 207 200 218 222 229 235 240 245 245 249 250 247 234 225 224 222 222 222 223 222 222 222 221 222 221 223 227 232 234 234 237 236 231 228 228 231 233 236 239 237 236 236 236 238 236 235 234 234 235 238 243 246 246 246 246 245 236 236 235 232 232 234 234 233 233 233 234 234 236 240 241 242 242 242 242 243 244 246 246 246 246 246 247 248 249 250 251 249 249 249 251 250 251 251 250 250 250 250 250 250 249 248 247 245 245 244 244 244 244 244 244 244 246 244 243 243 244 245 244 243 243 243 243 243 243 242 241 241 240 240 240 240 238 237 236 234 234 234 233 233 232 229 227 224 225 242 241 222 183 166 155 157 157 151 149 149 151 152 151 149 151 171 178 175 168 165 164 166 168 162 157 160 168 166 166 166 167 164 157 157 175 169 163 161 160 164 164 165 162 168 160 145 129 122 116 118 116 114 114 114 114 114 114 114 114 114 114 114 114 114 114 115 114 116 116 114 116 116 118 118 120 122 122 122 122 122 122 122 122 123 125 125 125 127 127 127 129 131 129 133 138 138 138 138 136 136 136 138 138 138 138 136 135 136 138 138 138 139 142 142 142 142 142 142 140 140 142 142 140 140 143 144 144 144 144 143 146 148 149 149 148 147 149 149 148 148 148 150 149 149 157 160 159 155 155 153 151 151 151 153 153 153 151 149 149 149 149 149 149 149 149 148 148 144 144 149 148 148 150 149 148 148 151 153 151 152 151 153 155 155 155 155 155 155 155 155 155 155 155 155 153 153 155 156 155 155 155 155 155 158 157 157 159 160 160 160 160 160 160 160 160 162 162 164 164 164 164 164 164 164 164 164 164 164 164 164
164 166 168 169 169 166 164 168 173 178 185 194 200 208 213 207 203 203 203 203 203 204 204 204 204 207 210 213 214 216 217 218 220 223 224 224 222 223 222 222 221 219 216 213 212 211 211 208 207 207 205 204 204 207 210 212 212 212 212 212 212 212 212 211 211 208 208 208 208 210 210 214 217 215 216 216 213 216 216 216 217 217 217 216 216 214 216 218 218 219 219 219 219 219 218 219 219 219 219 219 219 220 218 199 196 200 219 222 227 234 240 242 243 250 249 247 240 227 225 223 223 222 222 222 222 221 222 222 222 224 225 227 229 230 234 236 234 229 228 227 229 236 239 237 235 234 233 238 241 238 233 233 234 237 243 246 246 247 247 248 243 240 237 236 236 235 234 233 232 234 236 236 240 242 242 243 243 243 243 243 243 244 245 245 245 246 247 248 249 250 250 250 251 250 251 251 251 251 251 249 250 250 250 250 249 249 248 247 245 244 244 244 243 243 243 243 244 243 243 243 243 243 243 243 243 243 242 242 242 241 241 241 241 240 240 241 240 238 237 236 236 235 234 234 232 229 227 226 230 240 242 243 219 162 155 157 159 151 149 149 149 148 148 147 164 181 178 176 171 168 162 162 162 164 160 164 168 164 164 168 160 144 136 144 142 148 159 159 159 160 151 142 157 172 169 162 149 134 122 116 114 114 114 114 114 114 114 114 114 114 114 114 114 112 112 112 112 116 116 116 116 116 118 120 122 122 122 122 122 122 122 122 122 122 125 125 125 127 126 127 129 132 131 136 142 142 138 138 141 138 136 138 138 138 138 141 140 136 135 135 136 138 140 140 140 140 140 140 138 140 140 142 142 141 142 144 143 144 144 144 146 148 149 149 148 148 149 148 148 148 148 149 149 148 157 160 159 155 153 150 149 148 151 153 155 155 153 149 149 149 149 149 149 149 148 146 148 166 181 169 155 155 151 152 155 149 146 152 154 153 153 155 155 155 155 155 155 155 155 156 155 155 155 155 155 155 155 155 155 155 155 155 155 159 158 158 159 160 160 160 160 160 160 160 160 162 164 164 164 164 164 164 164 164 164 164 164 164 164 164
162 169 171 171 171 171 171 173 173 176 186 196 204 213 214 206 203 204 206 206 207 207 206 206 207 208 208 211 211 213 217 219 221 223 224 224 223 223 224 223 222 220 218 214 214 212 211 208 206 207 206 204 205 204 208 211 213 213 214 212 212 212 212 210 210 211 211 212 211 211 213 215 214 217 216 216 216 216 217 216 216 216 214 214 214 213 214 216 218 219 218 220 221 220 219 219 219 219 219 219 219 219 217 199 189 197 214 223 233 239 243 243 245 248 247 245 242 230 227 225 224 222 222 222 222 222 222 222 223 224 225 226 227 227 227 227 229 228 226 227 228 234 239 238 237 231 227 234 241 242 233 234 236 238 244 246 245 246 247 247 246 245 241 240 239 236 237 237 233 236 239 240 242 243 243 244 244 244 245 245 245 243 243 244 244 245 247 248 249 250 250 250 251 250 252 252 251 251 251 250 250 250 250 249 249 248 247 246 245 245 245 245 244 243 243 243 243 243 243 243 243 243 243 243 243 243 242 242 242 241 241 241 241 240 241 243 243 240 239 240 240 237 236 234 232 232 231 231 239 242 245 245 229 183 160 159 160 155 151 151 151 151 151 149 151 157 180 185 175 168 160 153 153 155 155 164 168 166 166 160 149 142 133 133 131 135 142 166 169 162 138 133 146 160 164 164 164 151 134 120 114 114 114 114 114 114 116 116 116 116 114 114 114 114 114 114 114 118 118 118 118 118 120 120 122 122 122 122 122 122 122 123 125 125 125 125 125 127 127 127 129 133 137 140 140 138 138 138 138 138 138 138 138 140 142 142 140 140 138 138 138 138 138 138 138 137 138 138 138 139 138 139 142 142 142 142 142 147 144 144 144 148 149 149 149 149 148 148 147 148 148 148 148 147 155 160 159 155 153 149 148 147 148 148 148 148 148 146 148 148 148 149 149 149 145 164 187 207 213 204 199 196 191 188 196 176 149 148 149 151 153 153 152 153 153 155 153 153 153 155 155 155 155 155 155 155 155 155 155 155 155 155 155 159 159 159 159 159 159 159 160 160 160 160 160 162 164 164 164 164 164 164 164 164 164 164 164 164 164 164
162 169 171 169 169 169 173 174 176 186 195 201 207 212 213 213 214 214 213 212 210 208 207 207 207 207 208 210 212 215 217 219 219 222 224 224 224 224 225 223 222 221 220 216 214 212 212 208 208 207 206 204 204 204 206 207 210 210 212 213 213 212 211 207 207 211 212 211 211 211 213 213 213 217 216 217 216 217 217 217 216 212 212 213 213 214 216 217 218 218 221 223 222 221 219 218 219 219 218 219 219 217 219 201 188 200 225 230 229 238 242 244 245 246 245 242 234 231 230 226 225 221 221 222 221 222 222 222 223 222 222 224 224 223 227 234 231 229 232 228 228 232 233 236 236 232 227 227 235 240 234 233 236 237 242 244 243 242 243 243 243 243 242 241 240 239 240 241 238 240 240 241 242 244 243 243 244 245 245 244 244 243 243 243 243 245 245 247 250 250 251 251 250 251 252 252 252 251 251 250 250 249 249 249 248 248 247 245 245 245 245 245 245 243 243 243 243 243 243 243 243 243 243 243 243 243 242 242 242 241 241 240 240 240 243 246 244 242 241 241 240 238 237 236 234 234 232 236 245 247 247 245 241 224 180 159 160 159 157 155 157 160 160 155 149 149 176 185 178 169 159 153 151 149 146 153 166 168 163 142 129 136 133 133 133 127 125 157 162 159 151 152 149 148 155 157 159 150 133 122 114 113 114 112 112 114 114 116 116 114 114 113 114 116 118 118 118 120 120 120 120 120 120 120 120 122 122 122 122 122 122 124 125 125 125 125 126 127 127 129 129 133 136 138 138 138 138 138 138 139 138 138 137 142 142 142 142 144 142 140 140 138 138 138 138 137 138 138 138 138 138 140 142 142 142 140 144 149 148 144 144 148 149 149 149 149 148 148 148 149 148 148 146 146 152 160 160 155 153 149 145 144 146 147 145 146 146 148 146 146 148 148 146 151 168 185 201 210 214 213 214 212 206 203 206 195 166 152 149 151 151 151 151 151 153 155 153 153 153 155 155 155 155 155 155 155 155 155 155 155 155 155 155 157 159 159 160 157 159 159 159 160 160 160 159 160 162 162 162 162 163 165 162 164 164 164 163 164 164 164
166 171 168 164 164 168 175 176 181 188 194 201 208 212 217 219 220 218 218 216 211 211 210 210 210 210 210 211 214 216 216 218 220 222 225 227 227 227 226 226 224 222 222 220 217 216 216 212 210 208 207 207 204 204 203 203 203 203 204 210 212 212 208 207 207 208 208 208 210 208 211 212 212 214 218 218 218 218 218 216 212 210 210 212 212 214 216 218 218 219 222 222 221 221 219 219 219 219 218 218 217 218 214 189 189 190 206 221 221 232 236 240 245 245 245 245 243 236 228 227 227 232 238 232 221 223 223 223 223 223 223 223 222 221 233 240 243 241 242 237 232 231 234 239 241 236 229 230 232 234 234 234 235 236 238 239 239 240 241 240 240 241 241 241 241 242 242 242 243 243 241 241 244 246 244 244 244 244 242 241 241 242 242 243 243 244 245 248 250 250 250 250 252 252 252 252 252 252 252 251 249 248 249 249 249 248 247 245 245 245 245 245 243 243 243 244 243 243 243 243 243 243 243 243 243 243 242 242 241 241 241 240 241 244 247 248 247 245 243 242 242 242 240 239 239 239 237 243 248 246 245 244 240 229 199 166 164 159 157 159 162 164 163 160 151 157 178 181 180 166 160 160 157 153 148 148 159 168 168 153 129 129 135 142 144 133 131 140 142 140 149 144 129 127 127 123 135 140 129 120 114 114 112 112 112 111 116 117 116 116 118 118 118 118 118 122 122 122 122 121 122 123 122 122 122 122 122 122 122 122 123 125 125 127 127 125 125 127 129 131 133 133 133 133 136 136 136 137 137 138 138 138 138 140 142 142 142 144 144 142 140 138 138 138 138 137 138 138 138 138 138 138 138 138 138 140 146 151 149 146 145 149 149 149 149 149 149 149 146 148 149 149 149 151 150 160 159 153 153 149 144 144 144 144 144 144 146 149 151 153 148 148 166 169 181 194 199 208 217 218 217 216 213 216 214 207 196 178 155 148 148 149 149 151 153 155 155 155 155 155 155 155 155 155 155 156 155 155 155 155 155 155 155 157 157 158 158 157 160 160 160 160 160 160 161 160 160 160 160 162 162 162 164 164 164 164 164 164 165 164
164 157 153 156 159 168 176 181 185 188 193 200 204 211 217 218 218 217 217 216 213 213 213 212 213 211 211 213 216 217 217 218 222 225 227 229 229 229 230 230 229 226 224 223 220 218 218 215 211 208 207 206 204 203 200 200 200 200 203 206 206 207 204 206 206 207 206 206 206 206 210 211 213 216 219 218 218 219 219 216 211 209 210 210 211 212 216 218 218 219 220 221 221 221 220 219 219 218 218 217 217 217 216 194 185 186 193 210 219 230 236 238 241 243 245 245 244 243 237 240 242 245 241 240 230 225 226 225 226 225 224 223 223 233 240 236 240 241 240 242 240 239 238 241 244 243 238 236 236 235 236 236 236 237 238 238 240 240 239 240 240 241 241 243 245 245 245 244 243 242 241 242 245 247 246 246 244 240 239 240 240 242 242 244 243 245 245 248 249 250 251 251 252 252 252 252 252 252 252 251 250 249 249 250 250 249 247 246 245 244 244 244 244 243 243 243 243 242 242 242 242 243 243 244 244 243 242 242 241 241 242 241 244 247 248 248 248 248 247 245 244 243 241 241 241 242 245 248 248 245 243 240 234 223 199 173 166 160 157 157 162 164 166 159 149 154 185 181 176 165 162 162 164 164 160 157 162 171 169 160 160 169 175 173 162 138 131 133 136 128 125 125 129 127 120 118 119 116 111 112 114 114 114 114 115 114 116 116 116 116 118 118 120 119 119 122 122 122 122 122 122 122 122 122 122 122 123 123 123 123 125 125 125 127 127 125 125 127 129 131 131 132 133 133 135 135 134 134 135 136 138 138 138 140 141 142 142 142 142 141 140 138 138 138 138 138 138 138 139 138 138 138 138 138 138 138 143 146 148 149 149 151 153 151 151 149 149 148 148 149 151 150 154 155 159 162 151 149 151 149 146 144 144 144 144 144 144 170 186 193 185 183 194 190 193 200 196 203 216 214 214 214 217 219 222 217 210 200 186 167 155 153 151 151 153 155 155 155 153 155 155 155 155 155 155 155 155 155 155 155 155 155 156 159 159 159 159 159 160 160 160 160 160 160 160 160 160 160 160 162 162 162 162 162 161 162 162 162 162 162
140 136 140 148 157 166 176 180 184 188 193 199 200 211 216 216 216 214 213 213 214 214 214 214 213 212 212 213 217 218 217 219 223 226 227 230 232 231 232 232 232 231 228 227 225 222 219 214 211 208 206 203 201 201 200 200 200 201 203 203 204 206 203 204 204 204 205 204 203 204 208 211 216 216 219 218 219 220 219 214 210 208 208 208 209 210 212 216 218 218 218 220 221 221 221 220 219 218 218 216 216 216 217 214 188 186 193 201 213 228 237 240 238 238 240 242 243 240 237 241 243 242 238 239 235 231 227 227 227 226 223 223 224 229 233 234 237 240 241 242 243 244 241 241 245 245 244 244 242 240 239 239 239 240 241 239 239 240 240 241 241 242 242 244 247 249 247 245 243 243 243 244 245 245 246 246 249 245 243 242 241 242 246 249 248 247 246 248 248 250 252 252 252 252 252 252 253 253 251 251 250 249 249 251 252 251 251 248 245 245 244 244 243 243 242 243 243 242 242 242 242 243 244 245 244 243 242 242 242 241 242 242 245 246 247 248 248 248 249 248 247 246 245 244 244 246 248 247 247 244 242 238 226 206 188 178 168 162 159 159 161 162 164 162 159 175 188 178 175 164 164 167 169 172 168 164 168 175 173 166 169 178 180 181 166 140 129 136 153 144 135 135 144 148 125 112 112 111 111 112 113 114 112 112 112 112 116 116 116 116 116 118 120 118 118 122 122 121 122 123 123 122 122 122 122 122 123 125 123 123 123 123 123 125 127 127 127 127 129 131 131 131 133 133 133 133 130 131 133 135 136 136 136 140 142 138 138 139 137 138 138 138 138 138 138 138 138 138 136 136 136 136 136 138 138 138 138 142 148 153 157 159 159 157 153 151 146 148 146 149 154 153 153 157 159 155 148 149 149 149 146 144 144 144 144 147 151 193 201 201 197 194 193 192 199 204 204 201 200 194 196 197 193 196 203 213 212 206 204 202 194 188 175 157 153 153 157 157 153 152 153 153 155 155 155 155 155 155 155 155 155 155 155 157 157 157 157 157 157 157 160 160 160 160 160 160 160 160 160 160 160 160 160 160 160 160 160 160 159 157
142 140 142 149 157 164 170 176 185 189 194 197 203 210 216 217 217 217 217 216 216 216 217 216 216 214 214 218 219 219 218 219 222 225 225 228 231 232 231 231 231 231 230 230 228 226 221 218 214 208 204 202 201 201 199 199 199 200 200 202 203 204 203 203 203 203 203 201 201 204 208 211 214 214 217 219 219 220 219 214 210 208 207 207 207 207 210 210 214 216 217 219 220 221 221 221 219 219 219 218 217 214 213 216 212 203 193 196 210 230 238 239 239 239 242 243 244 243 235 232 232 234 234 239 240 238 232 227 227 226 231 232 229 226 226 232 235 235 236 238 241 245 242 243 246 245 245 246 246 244 243 243 243 243 242 240 238 240 243 242 244 245 244 244 246 248 247 244 244 244 243 244 244 243 244 245 249 249 247 244 243 244 249 252 251 245 246 248 249 249 251 252 253 252 253 253 251 252 252 251 249 249 249 251 253 252 252 250 248 245 245 244 243 243 244 243 243 242 242 242 242 243 243 243 244 243 242 242 242 241 241 243 245 246 248 249 250 249 249 250 249 246 245 246 248 250 249 247 246 246 243 233 212 191 188 183 174 168 164 162 164 164 164 169 176 183 189 181 180 168 164 167 172 178 176 166 166 175 175 171 169 166 163 179 175 148 125 133 144 144 138 142 159 149 125 114 114 114 116 117 116 116 116 114 114 114 116 116 118 116 116 116 119 118 118 120 120 122 122 122 122 122 122 122 123 123 125 125 125 125 125 125 125 125 124 127 127 127 127 129 131 131 133 133 133 131 131 131 131 133 133 135 136 138 138 136 136 136 136 136 136 135 138 138 136 136 136 136 133 135 135 136 136 136 138 138 140 144 146 149 157 160 164 159 157 149 146 146 149 149 151 151 151 157 155 145 146 148 148 148 146 146 144 144 144 144 160 197 204 204 199 199 194 194 201 206 210 203 194 193 193 193 189 188 181 186 196 200 200 204 200 200 189 171 160 168 162 168 160 153 151 153 153 155 156 155 153 153 155 155 155 155 155 155 157 157 158 157 157 157 159 159 160 159 159 159 159 159 159 157 158 159 159 159 160 160 159 157 157 158
144 144 148 151 155 164 170 178 189 192 199 204 208 214 222 225 221 221 219 219 218 218 218 216 216 217 217 219 219 219 219 219 220 222 222 227 229 230 230 232 232 230 230 229 228 227 222 221 220 218 213 207 203 203 200 200 197 199 200 201 203 203 203 203 203 203 201 200 201 204 208 211 213 214 216 219 219 220 219 216 211 206 208 207 206 207 210 210 213 213 216 218 220 221 221 220 219 219 219 218 214 212 212 212 214 214 199 201 224 238 242 242 242 244 245 245 244 241 236 231 230 229 229 232 232 232 230 225 227 238 245 243 237 233 234 235 234 233 233 232 232 241 241 238 243 244 241 245 247 246 245 245 245 244 243 245 246 244 243 242 245 245 244 245 244 244 244 244 244 244 244 244 244 245 248 248 248 249 249 247 247 249 251 252 249 244 246 247 248 250 251 253 253 253 251 248 244 250 252 250 249 249 250 251 253 252 252 250 249 246 246 245 243 242 243 243 243 242 242 243 243 243 243 242 243 242 242 242 242 242 243 246 246 248 250 248 248 248 249 249 249 247 245 246 249 249 249 246 247 247 246 241 234 223 199 186 181 176 173 166 168 169 169 175 178 183 186 186 176 169 167 168 175 181 178 166 162 169 168 148 140 135 133 157 173 166 134 122 123 125 129 129 140 128 118 116 117 116 117 120 118 116 116 116 117 116 116 116 120 118 116 116 116 116 116 118 120 122 122 122 122 122 123 122 123 125 125 125 125 125 125 125 125 125 123 125 125 127 127 127 129 131 129 129 131 129 127 127 125 127 129 131 133 133 133 133 133 132 134 133 133 133 135 135 133 133 133 133 133 133 133 135 136 135 136 138 140 144 142 148 159 166 169 160 155 146 144 144 146 149 149 150 149 147 148 144 144 144 144 144 144 144 141 140 140 140 162 206 208 204 200 201 196 197 201 201 200 197 193 194 193 193 188 183 185 185 193 197 200 203 203 203 204 200 189 186 169 181 178 166 153 151 153 153 155 153 151 153 155 155 155 155 155 155 155 153 155 155 155 155 152 154 157 159 159 159 159 159 159 155 155 155 153 153 155 157 155 155 155 155
144 146 151 157 164 173 178 186 196 200 207 213 216 219 227 228 226 226 222 220 219 219 218 218 217 218 218 219 220 221 220 219 219 220 223 227 230 233 234 234 235 234 232 231 228 226 221 221 221 222 220 215 210 207 207 207 204 201 200 201 203 203 203 201 200 200 200 200 201 204 207 209 212 213 215 218 220 219 219 216 210 207 207 207 207 206 208 211 211 213 216 218 219 220 220 220 219 219 219 217 213 211 211 211 210 213 221 230 237 242 246 247 246 246 245 244 240 236 232 228 227 227 227 227 227 226 225 227 231 243 246 240 232 232 234 236 237 238 235 236 238 236 236 236 238 238 238 240 245 245 243 242 244 244 248 251 252 251 245 242 243 244 245 245 246 246 245 244 245 245 245 244 244 245 247 249 248 251 251 250 250 251 252 249 243 245 247 249 250 251 251 250 249 248 248 245 246 248 251 251 251 250 251 252 253 253 251 251 250 249 248 246 244 243 243 243 243 242 242 243 244 243 243 243 242 241 241 242 243 244 245 245 246 248 249 249 249 249 249 249 249 249 246 245 248 249 248 247 248 249 246 244 245 241 221 186 188 183 178 173 175 178 177 178 180 180 181 185 173 166 169 169 175 180 180 173 169 169 151 135 127 120 123 157 160 161 148 118 120 120 118 118 122 118 116 116 116 116 116 116 116 116 113 116 115 116 116 116 115 116 114 114 116 116 116 118 120 120 120 123 122 122 123 123 125 125 125 125 125 125 125 125 125 125 126 125 125 127 125 123 123 125 125 125 127 127 125 125 125 124 127 127 127 127 125 126 124 125 125 127 127 129 127 127 129 129 129 130 131 131 133 136 136 136 136 142 142 146 153 162 160 164 168 165 153 148 148 146 144 146 149 149 146 142 140 138 138 136 138 138 138 138 138 138 138 138 166 204 198 188 186 188 189 193 200 199 194 191 192 189 188 188 186 185 188 189 194 201 206 204 203 204 211 208 200 189 184 186 193 185 160 151 151 153 153 152 153 153 153 153 155 153 153 153 151 149 152 154 153 152 153 153 155 155 155 155 155 155 155 153 153 149 149 151 153 153 153 152 153 153
148 151 160 169 179 180 196 210 217 219 222 222 222 227 231 230 228 227 225 222 221 220 219 220 220 219 220 221 222 222 222 221 221 220 226 231 233 236 237 238 239 240 236 235 232 226 219 219 219 218 218 214 211 211 214 214 212 207 203 203 203 201 201 200 200 200 201 201 201 204 207 208 211 212 215 218 219 219 219 216 210 207 207 206 207 206 208 212 210 212 217 218 219 219 219 218 217 217 217 216 212 211 211 210 213 224 234 242 244 245 245 244 241 242 242 237 234 232 228 227 227 231 232 225 224 224 227 232 237 242 243 239 240 242 243 240 240 242 244 244 246 246 241 240 238 237 240 240 241 241 241 242 243 247 250 251 251 252 251 243 243 247 248 248 248 246 245 245 245 245 245 245 244 245 247 246 246 249 249 247 248 248 248 242 240 244 247 249 250 248 249 248 247 245 245 248 248 248 249 251 251 252 252 251 252 253 253 252 251 250 249 249 247 244 243 243 242 243 243 242 243 243 243 243 242 241 241 242 245 245 246 246 248 249 249 249 249 249 249 249 249 248 246 244 247 249 247 245 246 249 246 244 245 241 222 188 188 188 185 183 181 180 180 180 180 179 183 186 178 168 168 168 173 180 180 176 183 176 153 138 130 133 144 155 155 155 144 122 118 118 116 116 118 118 115 116 116 115 116 112 112 113 112 112 112 112 112 112 112 112 112 114 114 114 116 118 117 118 119 122 122 122 123 123 123 123 123 123 123 123 123 123 123 125 125 123 123 122 122 120 120 120 121 120 122 122 122 122 122 122 122 122 122 123 125 123 126 125 125 127 127 127 127 127 129 131 131 131 131 130 135 136 135 138 142 149 149 151 155 159 157 159 162 159 153 149 148 146 144 142 146 146 140 138 138 136 135 135 136 138 138 138 138 138 138 138 161 191 183 169 166 169 175 184 192 191 189 191 191 188 186 187 186 186 188 191 196 203 207 204 201 208 214 208 201 189 186 186 186 185 173 153 149 151 151 151 151 151 151 149 149 151 153 153 151 149 151 153 153 153 153 153 153 153 155 153 153 153 153 151 151 149 149 151 151 151 151 151 151 151
146 154 164 178 188 191 203 222 231 234 234 232 230 231 234 233 233 231 227 224 223 221 219 220 222 221 221 223 224 224 223 222 220 221 226 232 234 236 238 238 239 241 238 237 231 221 218 219 216 216 216 213 211 213 218 220 216 211 207 204 201 199 199 200 200 200 200 200 200 203 204 207 211 213 216 218 218 218 219 218 212 208 206 204 203 204 207 209 210 211 212 214 218 218 215 214 216 216 214 213 212 211 212 221 228 234 236 239 242 243 242 238 236 236 232 227 226 226 231 240 239 245 247 238 219 230 243 245 247 244 240 237 242 248 248 245 243 246 248 250 250 251 249 246 240 238 241 242 242 242 244 247 245 250 251 251 251 251 251 246 243 245 248 248 247 245 245 245 245 244 245 245 243 246 247 245 246 248 248 245 245 245 240 236 236 241 246 249 249 246 244 243 243 246 246 248 249 250 248 249 251 250 248 250 250 251 252 252 251 251 249 249 248 245 244 243 243 243 243 242 243 243 243 243 242 240 242 244 244 246 247 248 249 249 249 248 248 249 249 248 247 246 245 244 247 248 247 244 245 247 245 243 242 235 208 191 194 191 188 185 185 181 181 180 180 180 182 183 178 169 163 160 172 181 181 181 183 176 165 160 153 157 166 164 159 151 133 118 114 114 116 116 118 116 114 112 113 111 111 111 111 111 111 111 111 111 109 109 111 111 112 111 112 116 116 118 118 118 118 120 122 123 122 123 122 123 125 123 123 123 122 123 123 122 120 120 120 118 118 120 120 118 118 118 120 120 118 118 119 121 118 120 120 122 123 120 122 125 125 123 122 123 125 125 127 127 128 129 131 131 131 136 135 144 157 155 153 153 153 151 151 155 160 157 151 151 146 142 142 142 142 140 135 135 134 136 135 132 135 136 136 136 136 136 138 138 166 183 189 181 176 175 176 181 186 185 186 188 188 186 186 186 186 186 188 193 196 200 211 207 204 203 200 194 193 186 180 176 173 181 183 175 160 149 148 151 149 149 149 148 146 149 149 149 149 149 149 149 149 149 149 149 152 151 153 153 151 151 151 151 151 149 148 151 153 151 151 151 151 151
146 160 179 191 199 206 213 226 232 234 236 237 236 236 236 236 235 233 229 227 224 222 222 221 221 223 224 224 227 227 224 222 222 229 234 234 235 236 238 238 238 239 238 234 227 224 221 220 216 216 214 212 211 213 219 222 216 211 210 206 201 199 198 200 200 200 200 200 200 203 204 207 211 213 214 217 219 219 219 218 213 208 206 204 203 203 207 208 210 210 210 212 217 217 214 213 213 212 213 212 212 210 210 213 212 218 227 229 234 234 233 232 228 226 220 219 219 227 237 239 238 245 247 249 242 238 242 244 245 245 247 244 241 249 249 246 243 245 248 249 249 250 251 252 246 241 243 245 245 246 248 250 248 247 250 252 251 251 250 246 243 244 246 246 245 245 245 244 243 244 245 244 243 247 249 246 247 248 246 244 244 242 232 231 238 242 245 246 242 238 242 245 245 247 247 248 249 248 246 245 245 248 248 245 248 250 252 251 251 251 249 249 248 245 245 245 244 243 243 243 244 243 243 243 242 243 244 245 247 248 248 249 249 248 248 248 248 249 249 247 246 245 244 246 249 249 247 245 246 244 242 238 234 219 197 194 194 191 188 185 183 181 180 177 180 180 178 178 171 164 162 159 167 175 175 180 181 175 166 162 157 159 160 162 149 131 117 111 114 114 116 114 114 112 111 109 109 111 111 111 111 111 111 109 112 111 109 109 110 109 109 109 114 114 116 118 118 118 118 116 116 118 118 118 118 118 116 116 118 118 118 118 118 116 116 118 119 118 118 116 118 118 118 118 118 116 114 114 116 118 118 120 120 120 122 120 120 122 122 120 120 120 122 122 122 123 123 123 125 127 129 131 131 138 149 154 153 153 153 151 148 149 160 159 153 151 145 142 142 140 137 136 135 131 129 129 131 131 133 135 136 136 136 136 138 140 169 182 193 192 191 185 183 183 186 181 183 186 186 186 188 186 185 185 188 191 191 189 199 212 207 197 190 185 183 175 168 175 176 186 188 185 181 171 157 151 148 149 149 147 148 148 149 149 149 149 149 148 148 149 149 148 148 148 149 151 151 151 151 151 151 149 149 151 153 151 152 154 153 153
151 182 199 204 207 216 223 228 233 236 237 238 238 238 239 239 235 233 231 229 227 225 224 224 224 226 226 228 228 227 223 221 226 234 236 237 238 238 239 238 238 237 236 236 236 234 231 227 221 218 221 220 218 221 227 225 216 211 207 204 200 199 198 199 200 200 199 200 200 203 204 207 210 211 213 216 218 218 219 218 213 209 207 201 200 201 206 207 208 208 208 211 216 216 214 213 213 212 212 211 211 208 209 206 203 208 214 217 216 221 221 224 223 219 217 213 217 232 240 238 238 245 248 248 250 245 242 245 246 248 247 249 248 248 250 248 243 245 247 247 251 251 251 251 252 248 245 246 248 248 249 250 251 250 250 252 252 252 250 243 242 244 245 245 245 245 245 244 244 244 244 244 243 247 248 245 245 246 244 243 244 239 233 238 243 245 246 242 242 242 243 245 247 247 249 248 246 247 247 247 245 248 249 247 246 251 251 250 250 250 249 248 246 245 246 246 245 244 244 244 244 243 243 243 242 245 245 247 249 250 249 249 248 247 247 248 248 248 247 246 245 245 245 245 246 246 245 244 244 242 238 234 228 210 197 197 194 189 188 186 186 185 183 180 180 180 178 176 169 166 166 160 160 161 169 181 181 176 166 161 162 159 140 127 127 116 112 112 111 111 112 112 114 112 111 111 111 111 111 111 109 109 109 104 105 107 107 107 107 105 104 107 111 116 116 118 116 114 114 114 114 114 114 114 114 114 112 112 114 112 114 118 118 116 116 116 116 116 116 112 114 116 116 115 116 116 116 116 117 116 115 118 121 120 120 118 116 114 116 118 118 118 116 118 120 120 120 121 120 122 124 123 125 127 131 140 144 148 149 148 146 149 155 157 153 151 146 144 140 140 136 135 133 131 128 127 126 131 131 133 135 136 137 135 140 157 181 188 188 188 188 185 185 185 183 181 183 189 189 189 189 186 180 180 186 195 196 196 199 200 197 193 185 180 180 175 173 185 188 191 192 183 176 169 160 151 146 145 150 148 146 148 148 148 148 148 146 144 146 148 148 148 146 148 149 149 149 149 149 149 149 149 150 150 149 149 151 153 153 153
175 199 208 214 218 225 229 232 235 236 238 238 238 237 238 238 236 234 233 231 229 226 227 227 227 226 227 230 229 227 223 223 231 235 236 238 238 238 238 238 238 235 238 240 242 242 239 237 234 233 236 234 231 231 232 231 220 213 207 201 196 197 199 200 200 201 200 200 200 203 204 207 211 210 212 215 217 218 219 218 213 210 207 200 200 199 203 203 206 208 208 211 213 214 214 215 212 212 211 210 208 207 206 204 203 208 212 211 210 217 216 212 214 210 207 206 216 232 241 243 238 244 248 248 249 243 244 247 247 249 248 249 250 250 250 249 246 246 247 248 248 247 248 249 253 253 251 251 250 250 251 251 251 252 251 251 251 251 249 243 243 244 245 245 245 245 245 244 244 244 244 244 242 245 247 248 245 243 241 243 246 240 238 243 245 245 245 240 236 241 244 246 248 248 248 245 245 246 248 247 247 251 250 247 245 251 251 250 249 249 249 248 246 246 246 245 245 244 244 244 244 243 244 244 245 245 247 249 249 250 249 248 247 247 247 248 248 247 245 245 245 246 245 245 246 246 247 244 243 243 241 234 225 200 196 197 194 191 188 186 186 185 185 185 185 185 183 183 181 178 178 175 171 164 164 178 180 181 176 163 159 142 133 114 109 111 112 111 111 111 109 111 114 111 109 111 111 111 111 111 109 107 104 100 100 102 104 104 102 104 105 107 111 113 114 112 112 111 112 114 114 112 111 109 111 111 107 107 111 108 111 112 111 114 114 116 116 116 113 114 115 114 116 116 114 114 116 116 116 116 116 118 118 118 118 114 112 111 111 112 112 112 114 114 116 116 116 116 116 117 119 122 122 120 123 127 131 133 140 148 151 155 159 158 153 154 148 144 140 140 135 133 131 131 128 127 130 129 129 131 138 138 136 136 146 173 180 186 185 183 184 183 183 185 185 181 185 189 188 188 186 184 180 178 178 188 196 197 199 200 197 186 180 181 181 180 178 181 189 194 191 186 177 169 160 151 146 148 149 149 146 144 144 146 146 144 144 144 146 148 148 148 148 148 148 148 148 149 149 149 150 149 149 149 149 149 151 152 153 153
194 206 217 225 227 230 232 232 235 237 238 238 238 236 237 238 236 234 234 231 230 229 228 228 228 230 231 233 230 227 223 226 235 236 236 236 237 238 238 238 238 238 240 243 243 243 240 240 240 238 238 238 236 233 231 231 224 214 208 200 200 199 199 200 201 203 201 200 201 204 204 207 210 211 211 213 216 217 218 218 213 211 207 203 201 200 201 201 203 204 204 207 213 214 214 213 212 211 210 208 208 207 206 204 204 204 206 207 204 208 206 210 199 216 211 220 207 224 236 241 236 244 246 247 248 242 244 248 249 250 250 250 251 252 251 251 251 248 250 249 247 247 250 251 249 251 252 251 251 252 253 252 252 251 251 251 250 251 248 243 244 245 245 245 245 246 246 244 245 244 244 244 243 243 243 247 248 243 240 245 245 238 238 240 243 245 243 237 234 240 243 247 249 248 246 242 243 245 245 241 243 248 251 247 245 250 251 250 250 250 248 248 247 247 246 245 245 245 245 244 244 244 245 245 246 247 247 249 249 248 248 248 246 247 247 247 247 247 245 245 245 246 246 246 246 246 245 243 244 245 247 242 232 204 200 191 191 191 188 186 186 186 186 186 186 186 186 189 189 186 183 182 181 176 168 175 173 180 183 171 159 148 148 144 118 106 107 104 109 109 109 107 105 105 105 105 105 105 105 104 104 100 97 95 95 98 104 102 101 100 104 104 105 107 109 112 111 111 111 111 111 109 106 105 107 109 105 105 109 109 110 107 107 109 111 112 114 114 113 112 112 111 114 116 116 116 118 118 118 119 116 116 116 116 116 112 109 111 111 111 111 111 112 114 112 114 116 116 116 118 120 119 122 122 122 124 123 123 131 142 149 155 157 158 155 155 149 146 140 138 136 133 129 125 127 131 129 127 125 129 140 144 146 146 149 175 180 180 181 181 181 180 181 185 183 180 186 189 188 186 186 186 183 182 180 183 191 198 200 206 200 193 188 185 185 187 186 189 185 188 191 188 183 173 164 157 149 146 148 149 145 144 145 144 144 144 144 144 145 148 148 148 146 146 146 145 146 148 149 149 149 149 149 151 151 149 151 153 151 151
228 227 230 232 227 230 234 234 237 238 239 238 238 236 236 236 236 234 232 231 231 231 231 232 232 232 232 231 233 227 224 226 235 237 236 236 238 239 238 238 237 238 240 243 243 242 241 239 239 238 239 238 236 233 231 228 221 211 204 201 204 203 199 200 201 203 203 201 201 204 204 207 211 211 211 214 216 217 218 216 214 212 206 204 203 200 202 202 203 203 203 206 211 214 213 213 211 211 210 208 207 206 206 204 204 204 200 199 222 236 239 240 228 244 234 222 216 225 236 238 232 241 246 249 245 240 243 247 249 250 251 250 251 253 251 251 252 250 249 249 248 248 250 249 250 249 249 251 251 252 252 252 251 251 251 251 251 251 246 245 245 245 245 245 245 246 246 245 245 245 245 243 242 242 243 246 247 242 237 241 240 233 234 240 242 242 236 235 235 239 242 245 248 248 244 241 242 242 241 243 244 246 250 248 248 249 248 251 251 250 249 248 247 247 247 246 246 245 245 245 245 245 245 246 247 247 248 249 248 248 247 247 247 248 248 247 247 246 245 245 245 245 246 246 245 245 243 243 245 247 248 247 241 217 213 192 189 189 188 188 188 186 186 188 188 189 189 193 191 188 186 186 181 180 178 178 175 178 181 176 166 159 155 140 111 97 98 102 104 104 105 104 102 102 102 102 102 100 101 98 98 97 93 91 93 95 102 102 99 100 101 100 102 104 105 109 108 107 105 105 104 102 104 104 105 105 105 105 107 107 109 109 109 111 111 111 111 112 112 114 114 114 116 116 118 120 120 120 122 118 114 116 118 119 118 116 114 113 112 112 112 112 114 114 114 114 116 116 116 118 120 123 122 120 122 123 122 120 123 133 140 142 151 159 157 155 151 149 146 142 140 135 127 125 123 125 125 125 125 136 151 151 153 157 160 173 176 176 178 180 178 178 179 180 180 178 181 185 188 188 188 189 189 188 188 183 185 197 201 208 206 204 201 196 196 194 194 191 183 186 189 186 185 178 171 168 159 144 145 146 144 144 144 144 144 144 144 145 146 146 146 146 148 148 147 148 148 149 149 149 149 149 149 153 152 149 149 151 153 153
236 239 241 237 232 233 238 236 236 238 240 240 239 237 236 236 236 236 235 234 233 232 233 233 217 201 201 199 220 224 222 224 229 236 236 236 237 238 239 238 237 238 241 242 242 242 241 238 238 236 235 235 235 231 228 228 221 206 198 201 207 210 204 201 202 204 203 202 203 203 203 207 210 210 211 214 216 217 218 218 211 193 199 206 203 200 200 203 203 203 200 204 207 211 212 211 210 210 208 207 207 204 204 204 203 199 211 222 232 241 245 241 243 240 228 228 227 230 237 238 232 236 242 243 242 236 243 246 248 250 251 250 252 253 252 252 252 251 251 249 248 249 249 248 249 249 250 251 251 251 252 252 251 250 251 251 251 251 247 245 245 245 245 246 247 247 247 248 248 248 247 245 243 243 244 245 245 240 237 237 236 232 231 241 241 240 236 231 232 237 243 245 244 245 243 239 240 240 243 245 247 250 249 249 250 248 245 245 249 250 249 248 247 246 247 247 247 246 246 246 246 247 246 246 248 248 249 250 249 248 248 248 249 249 248 247 246 245 245 246 245 245 245 245 245 245 244 244 247 248 248 246 244 232 210 189 191 189 189 190 188 186 188 188 188 188 191 191 189 188 186 186 181 180 180 178 176 178 181 180 169 166 160 127 97 91 93 95 97 97 97 97 97 97 96 94 93 95 95 99 95 91 93 93 95 95 100 100 99 100 100 100 101 98 98 102 102 100 98 100 100 100 103 104 102 104 109 107 105 105 109 109 109 111 111 111 111 111 111 112 112 112 115 116 118 118 119 120 122 120 116 118 120 118 120 120 118 116 116 114 114 114 114 114 114 114 116 116 116 118 120 122 122 120 120 122 122 118 120 125 136 135 138 149 155 155 153 151 148 144 140 134 125 123 118 118 118 120 128 147 159 151 144 146 159 169 173 173 176 179 176 176 176 178 180 180 178 180 186 189 191 191 194 191 188 184 180 191 203 208 207 208 206 199 199 197 189 185 186 193 189 185 183 180 180 178 166 151 142 140 140 144 144 144 144 144 143 144 144 144 144 144 145 147 146 148 149 149 149 149 149 149 149 151 151 149 149 149 151 151
237 241 241 241 240 239 240 236 235 239 240 240 239 237 236 236 237 239 239 238 236 236 228 218 188 178 181 183 194 200 202 213 225 234 234 236 238 238 238 239 240 239 240 241 241 241 240 238 236 233 232 231 233 230 228 230 227 210 200 203 210 213 210 203 203 203 203 204 203 203 204 207 208 210 212 213 217 217 218 215 213 197 196 207 203 201 203 203 203 203 201 201 206 210 211 210 208 208 207 207 207 203 201 200 200 201 221 228 230 243 242 241 243 236 229 227 231 236 240 238 236 233 235 239 238 237 241 246 248 250 251 251 253 252 251 252 251 250 251 250 248 248 246 247 249 249 250 250 251 251 252 252 252 251 251 251 251 251 251 245 245 245 246 248 248 248 248 248 248 249 250 249 247 246 244 243 243 239 236 236 236 234 229 232 234 234 236 232 230 238 244 244 240 243 244 240 238 241 244 246 248 249 245 246 246 244 243 246 249 246 246 249 248 248 246 247 247 247 246 247 247 246 246 248 248 249 250 251 250 250 249 249 249 249 249 247 246 245 245 245 245 245 245 245 245 245 245 246 248 248 248 246 245 238 204 186 189 189 189 185 191 197 194 189 188 191 192 191 189 188 188 184 180 178 178 175 173 177 177 175 169 169 169 146 112 102 91 86 88 90 91 91 90 91 93 91 91 90 90 93 90 85 88 90 90 91 95 95 98 98 100 98 98 95 95 96 95 97 98 98 100 100 103 104 104 107 109 109 107 107 109 109 111 112 116 116 116 117 116 116 116 118 118 118 118 120 120 120 122 120 118 120 119 120 120 120 120 114 114 115 114 114 114 114 112 112 114 114 114 118 122 123 118 118 118 120 122 120 120 123 125 123 127 138 149 153 151 146 139 136 136 125 122 120 118 116 115 120 127 148 153 133 129 133 146 168 171 171 171 175 176 178 178 178 180 180 180 183 186 188 186 186 185 183 183 181 173 181 199 207 206 206 203 196 193 189 186 185 196 204 194 183 185 181 181 180 164 160 148 142 144 144 144 144 144 144 146 146 144 144 144 144 148 148 148 149 149 149 149 151 151 151 151 149 151 151 151 151 151 153
238 240 240 240 240 238 237 237 238 238 238 239 240 238 236 235 236 239 240 240 241 233 203 191 180 166 166 171 181 186 196 201 210 222 234 237 238 238 238 239 240 238 238 238 237 236 234 233 232 227 225 226 223 227 231 231 230 223 216 207 208 212 207 203 203 203 203 203 203 203 203 207 208 208 211 212 213 213 214 214 214 199 191 204 197 189 200 203 203 203 203 203 207 210 211 210 208 207 206 207 207 204 200 199 204 231 230 217 233 241 236 241 239 242 240 236 239 241 245 245 242 237 234 235 232 232 236 243 246 249 251 251 252 251 249 249 249 249 249 250 249 248 247 248 249 249 249 250 249 249 251 252 253 251 251 250 251 251 251 245 245 245 247 249 248 248 248 248 248 249 249 249 247 247 246 244 242 238 237 236 236 234 232 232 232 232 233 232 232 238 242 245 241 241 241 240 238 240 243 244 245 244 244 245 244 243 243 246 250 247 245 248 248 248 247 246 247 247 247 247 248 248 248 249 249 250 251 251 251 250 250 249 249 249 248 247 245 245 246 245 245 245 244 244 244 245 244 246 248 249 247 246 243 238 225 194 188 189 186 189 217 220 216 209 196 191 191 191 186 186 188 181 175 173 173 171 170 173 173 171 168 169 169 169 131 93 88 86 86 88 88 87 90 91 93 93 93 90 91 93 91 88 90 91 88 91 95 95 98 98 100 98 98 95 95 95 95 97 96 97 98 100 102 104 102 105 105 105 109 108 109 109 111 112 118 120 120 120 120 120 120 120 121 123 120 120 120 120 122 122 123 122 122 120 119 118 115 114 114 114 114 114 114 114 111 111 112 114 113 116 118 118 114 114 116 116 120 120 121 120 118 118 118 120 133 137 134 129 126 125 126 118 118 114 114 116 118 129 140 140 127 114 120 123 136 164 170 171 171 171 172 176 176 175 176 180 180 180 180 180 180 180 176 176 176 176 173 176 185 188 191 193 189 188 184 181 184 186 196 214 211 199 189 185 180 175 166 166 155 146 144 145 144 144 144 144 146 148 146 144 144 144 148 149 149 149 149 149 148 151 153 153 151 149 151 153 153 153 153 154
236 238 239 239 238 236 236 238 238 237 236 237 236 235 234 234 236 236 238 231 227 230 221 191 164 156 156 160 166 173 186 196 202 214 231 238 238 238 237 237 237 235 234 235 234 232 232 227 218 208 204 201 203 208 218 222 220 212 201 199 200 208 203 201 203 201 200 200 201 202 204 207 207 210 211 212 210 204 210 217 210 196 188 178 162 160 180 191 199 204 201 203 206 210 211 210 208 207 207 207 207 204 200 199 224 228 219 217 235 233 234 236 236 241 235 237 238 243 245 245 244 241 236 236 232 231 230 239 245 247 248 252 252 249 248 248 249 249 249 249 250 249 248 248 248 250 250 250 244 230 221 244 251 252 251 252 251 251 249 245 245 246 248 249 249 248 248 248 249 249 249 248 248 248 248 246 243 239 237 237 236 234 233 233 232 232 232 233 233 238 242 244 242 238 240 240 240 240 240 242 243 242 244 245 244 245 244 248 250 246 248 248 247 247 247 247 248 248 248 248 248 248 248 249 249 250 250 251 251 251 250 249 249 249 248 247 245 245 245 245 245 243 242 243 244 245 244 245 247 244 245 245 243 241 238 220 185 186 183 216 226 222 219 214 197 186 189 191 183 183 186 180 172 168 166 169 169 171 171 169 169 168 169 164 151 135 100 88 88 88 86 88 89 91 93 93 93 91 91 93 93 93 91 90 90 90 93 96 98 98 98 98 98 95 93 95 98 102 100 98 100 100 102 104 104 104 107 108 109 109 111 112 114 114 114 116 118 118 120 121 120 120 122 122 120 118 120 122 122 122 123 122 120 118 118 115 116 114 114 114 114 114 112 111 111 111 111 111 109 109 112 114 114 113 114 116 116 116 116 116 116 116 118 118 116 116 116 116 114 114 114 114 114 112 112 116 122 129 138 131 118 120 122 120 133 160 171 171 169 169 169 168 168 169 171 175 178 176 178 179 175 171 170 171 170 173 175 173 175 175 180 178 176 176 176 179 178 181 189 214 213 208 196 183 173 171 169 166 167 151 145 144 144 144 144 146 148 148 146 144 146 148 149 149 149 149 149 149 149 149 149 153 152 151 152 153 153 153 153 153
233 237 239 239 238 236 236 235 235 234 233 232 232 232 231 230 230 230 231 218 201 212 197 157 146 148 149 153 155 160 173 185 189 194 214 228 236 238 236 235 234 233 232 233 232 228 227 214 196 190 189 191 193 196 197 196 189 186 186 188 189 200 206 206 197 193 199 200 201 204 204 208 210 208 211 212 211 204 203 200 193 190 164 136 123 125 133 151 178 200 201 201 206 208 210 210 208 207 206 207 207 201 196 197 220 211 194 210 227 220 224 227 231 236 231 232 235 244 247 245 246 246 243 239 237 237 236 240 244 245 247 251 250 248 248 247 249 249 249 250 251 246 247 242 238 240 231 224 218 227 231 229 238 251 251 251 250 250 248 246 246 247 248 249 250 248 247 248 248 248 248 248 248 248 248 247 245 241 238 238 238 236 235 235 233 233 233 234 234 238 240 241 240 239 239 238 239 238 238 240 242 243 243 243 244 245 245 249 249 249 250 248 246 245 244 245 247 248 248 248 248 248 249 249 249 249 248 251 250 251 249 249 249 249 248 247 245 245 245 246 246 244 241 240 243 244 245 245 244 242 243 243 242 241 235 225 185 191 197 223 225 222 220 213 203 193 191 191 182 180 178 171 166 164 165 168 168 169 169 168 166 162 162 162 153 144 109 97 95 97 98 97 95 92 93 92 93 91 91 93 93 91 90 88 90 90 90 90 95 97 97 98 98 100 102 105 111 109 109 107 105 105 107 106 107 107 108 109 109 109 111 112 114 115 114 113 114 118 120 122 120 118 120 122 120 120 121 122 122 122 120 118 118 114 114 116 116 114 114 114 114 112 111 111 111 111 111 109 110 109 111 114 114 112 114 116 116 116 117 116 116 115 114 114 111 111 111 111 111 112 113 112 112 112 112 116 123 125 123 118 116 119 120 120 123 151 171 173 168 168 168 166 166 169 169 171 175 176 180 180 175 169 172 171 171 173 173 173 173 173 177 178 178 178 176 175 175 171 180 210 206 201 193 180 173 169 169 169 166 155 144 142 144 144 146 148 148 148 148 148 148 148 149 149 149 149 149 149 149 149 149 150 151 151 151 151 151 151 151 151
238 241 240 239 239 240 238 235 234 233 233 233 234 233 231 229 228 228 230 226 203 192 168 145 140 146 149 155 155 159 168 180 181 186 191 199 230 237 236 235 232 229 226 227 227 227 224 191 180 181 182 182 185 183 183 183 183 178 176 173 171 183 196 200 196 193 199 201 201 203 200 201 204 193 193 196 204 200 188 178 178 173 153 133 119 122 123 136 149 168 188 191 202 208 210 210 207 207 208 208 206 203 191 196 207 196 189 201 211 211 222 221 227 233 232 231 235 244 248 246 246 248 247 243 240 240 241 242 245 245 248 251 250 248 248 249 249 249 250 251 250 238 228 212 178 162 160 153 149 185 239 234 238 251 252 251 250 250 248 246 247 248 249 249 248 247 247 248 248 248 247 247 247 248 249 248 247 244 240 239 239 239 237 236 236 237 238 237 237 239 241 239 238 240 237 236 238 238 238 240 241 243 244 244 244 247 250 250 250 250 249 248 245 245 244 245 248 245 247 249 249 250 249 249 249 248 248 250 250 250 249 249 249 248 247 247 245 242 241 242 246 244 240 239 240 243 244 245 245 243 242 240 237 234 236 222 206 211 212 221 223 223 223 217 210 201 196 180 175 173 166 164 160 161 164 164 164 164 169 166 160 155 159 157 146 133 112 98 100 100 100 102 100 97 96 93 93 90 92 93 91 91 90 88 90 90 88 88 88 97 102 105 107 109 111 111 111 109 109 109 110 110 109 110 109 109 109 110 109 109 111 111 111 112 114 114 116 118 118 118 118 118 120 119 120 120 120 120 120 120 119 118 118 117 117 113 114 114 114 114 112 111 109 109 109 109 108 109 109 109 111 111 112 111 111 111 111 112 111 111 111 109 111 112 109 109 109 109 111 111 111 111 111 111 112 114 116 118 114 112 116 116 116 116 121 123 140 162 162 166 165 168 171 173 173 176 175 180 180 180 176 176 175 173 176 180 176 175 175 175 180 185 186 183 176 173 169 168 178 200 193 189 188 186 177 168 169 169 170 157 142 142 144 142 146 148 148 149 148 148 148 147 148 148 149 149 149 149 149 151 151 151 151 155 155 155 155 155 155 155
240 242 240 238 237 234 233 234 233 233 234 234 234 234 230 229 229 229 230 231 217 186 166 148 140 146 149 155 155 160 169 173 176 186 197 212 229 233 233 231 228 227 226 224 224 225 211 169 169 169 168 168 166 173 183 183 181 179 171 168 168 171 183 185 189 194 194 197 203 204 188 178 175 171 168 164 180 181 175 175 175 171 166 142 120 127 138 140 136 142 164 181 189 193 191 191 201 207 208 208 206 199 186 189 191 188 188 196 203 210 223 225 230 237 236 236 238 243 245 244 245 248 246 244 245 244 242 243 244 245 249 251 251 249 249 249 249 249 250 251 245 243 236 199 144 140 144 144 148 162 219 242 227 250 251 251 250 250 247 246 247 248 249 249 247 247 247 247 248 248 247 247 248 248 248 248 249 246 244 241 242 240 239 239 239 239 241 240 238 239 240 239 240 240 239 236 237 238 238 239 243 243 244 244 245 247 250 250 251 250 249 247 246 248 246 245 246 244 245 248 250 250 249 249 249 248 249 249 249 250 249 249 249 248 247 245 245 243 242 242 241 240 240 240 240 242 242 243 244 244 241 236 230 228 223 206 213 201 196 217 227 227 226 217 217 205 193 176 168 159 157 158 157 159 160 160 160 160 162 160 155 151 149 151 144 130 114 101 100 100 100 100 98 95 93 91 91 90 90 91 91 90 91 93 93 91 94 91 93 100 105 107 111 111 111 111 111 107 107 109 109 107 107 107 108 107 107 107 105 107 109 109 111 112 114 117 116 120 120 120 121 120 120 120 118 118 121 120 120 120 120 120 120 116 117 112 112 112 112 112 112 112 107 107 105 105 107 106 107 109 111 109 109 111 110 109 109 109 109 111 107 105 107 109 105 105 107 109 111 111 111 111 111 111 111 112 112 114 114 114 114 116 116 116 122 122 123 126 153 172 172 174 176 176 176 176 178 181 181 180 183 185 180 178 181 183 181 180 180 180 184 188 189 185 180 176 171 167 169 180 179 181 185 183 176 164 160 155 153 144 140 142 144 142 146 146 146 146 148 148 148 148 148 148 149 149 149 150 149 149 151 152 153 155 155 155 155 155 155 155
240 241 232 222 222 220 221 230 233 234 233 234 234 232 229 230 230 230 232 234 233 230 223 173 148 149 157 160 160 162 169 178 183 196 210 224 228 231 228 227 223 210 203 213 221 218 201 168 160 159 157 156 155 160 166 166 166 168 171 169 166 168 177 178 180 183 180 189 204 200 180 169 169 168 164 159 160 159 164 168 168 169 160 159 157 153 157 153 148 151 157 171 175 175 169 163 180 201 207 207 204 196 183 185 188 186 185 193 199 212 227 228 232 238 240 238 240 242 242 243 245 246 244 244 246 246 245 244 244 247 248 248 250 249 249 249 250 251 251 250 243 247 244 210 160 148 148 146 151 189 210 232 236 248 251 251 251 250 247 247 247 248 249 249 248 246 247 247 247 247 247 246 247 248 248 249 248 246 244 244 243 242 240 240 239 239 240 242 240 238 238 238 238 238 239 238 240 239 238 238 240 242 243 246 247 249 251 250 249 248 249 248 248 249 247 243 244 244 243 245 247 249 250 249 249 248 249 248 249 249 248 248 248 248 247 245 244 243 235 216 230 242 240 238 240 239 238 238 243 241 239 233 228 217 203 209 204 173 164 175 206 214 210 178 206 206 191 178 166 157 153 153 153 155 155 153 153 155 155 155 153 142 144 144 129 122 111 102 99 100 100 100 97 93 91 90 93 98 97 91 91 91 93 102 109 109 109 109 109 112 109 107 109 107 107 107 107 103 104 109 107 105 105 105 105 106 105 105 105 105 105 107 109 111 114 120 120 125 125 125 123 122 120 118 118 118 119 120 120 120 120 120 120 116 116 111 111 111 109 107 111 109 104 104 105 105 105 105 105 105 105 107 109 109 109 109 109 108 109 110 109 109 109 109 105 105 105 107 109 109 111 112 111 111 111 112 114 116 114 115 112 112 113 114 122 120 115 136 174 173 171 175 176 176 176 176 178 185 186 185 188 188 186 183 181 181 181 182 181 183 185 188 189 185 181 178 171 169 166 161 164 171 176 171 166 162 153 144 139 138 138 140 142 140 142 144 144 144 146 148 148 148 148 147 148 148 148 149 149 148 149 151 153 153 153 153 153 153 153 153
231 224 220 220 220 222 222 223 229 233 234 234 232 230 233 237 235 238 243 246 244 234 218 196 165 159 162 164 162 164 175 191 199 203 216 225 227 226 223 222 200 180 185 191 204 212 197 168 149 151 148 148 151 153 149 146 148 149 153 160 166 167 175 176 175 175 176 180 181 181 168 169 168 157 151 151 153 155 156 159 159 162 162 161 169 171 168 164 166 166 162 164 164 162 157 155 160 188 203 207 201 194 181 186 186 186 204 211 204 204 212 221 230 238 240 240 241 242 242 243 244 243 242 242 245 246 245 245 246 248 249 249 250 249 248 249 249 249 251 247 243 249 245 234 200 168 149 146 144 210 231 243 250 250 251 251 251 251 248 246 247 248 248 248 248 247 245 246 246 246 246 246 247 248 248 248 248 246 244 245 244 241 239 239 239 239 240 240 239 238 237 236 236 236 237 237 239 239 238 239 241 242 244 247 249 250 250 250 250 249 249 249 249 249 245 243 244 243 242 241 240 245 251 250 249 248 248 247 249 249 247 247 247 247 247 246 244 243 219 183 194 210 203 220 239 239 236 235 236 241 237 232 227 217 206 213 181 160 147 146 146 153 161 160 178 196 193 183 174 159 149 149 149 151 153 151 149 151 152 155 146 133 123 122 112 113 111 104 100 100 98 98 97 95 94 93 98 107 105 98 96 97 104 114 118 120 120 118 116 112 105 105 105 102 98 98 98 102 104 105 105 104 105 105 103 104 103 105 105 105 107 109 109 112 114 116 118 125 125 125 123 122 122 120 122 122 120 120 119 118 118 116 116 116 114 111 111 111 109 109 107 104 104 104 104 104 105 105 105 104 104 106 107 105 105 109 109 109 110 108 107 107 107 107 104 105 107 107 109 109 109 111 111 112 112 113 114 114 114 114 112 118 123 123 125 142 153 170 175 175 173 175 175 175 175 175 180 183 189 193 193 191 186 183 181 181 181 183 185 185 186 189 189 189 183 178 173 168 164 160 162 168 169 162 157 153 149 144 140 140 140 142 142 142 144 146 146 146 146 146 146 146 148 148 146 149 149 148 148 148 148 149 151 151 152 151 148 149 149 149
216 217 221 222 222 223 224 225 229 232 228 225 224 232 242 244 244 245 246 247 219 181 180 173 157 160 160 159 155 159 168 186 199 206 211 213 217 218 216 204 169 162 173 175 178 181 162 145 144 148 142 144 151 152 145 144 146 149 151 157 165 166 169 172 180 183 180 180 159 159 162 166 159 138 135 140 138 146 151 155 155 159 160 160 160 164 162 160 162 160 157 157 155 149 149 151 164 179 199 206 194 185 181 193 188 214 235 239 237 238 227 220 229 237 238 240 242 243 243 243 242 241 240 242 245 246 245 245 246 248 249 250 251 249 249 250 250 245 249 244 241 245 246 229 207 181 155 160 173 219 241 249 251 251 251 251 251 251 248 245 246 246 247 247 247 247 246 246 246 246 246 246 246 246 249 249 249 247 245 245 245 243 240 238 238 238 239 239 239 238 238 235 236 236 236 237 238 240 240 241 243 244 246 248 249 249 249 249 249 249 249 249 248 245 245 245 245 243 242 240 240 241 249 249 248 247 246 247 248 247 246 246 246 247 247 244 244 244 228 180 160 155 151 160 211 238 225 200 214 235 234 227 220 211 211 206 162 146 135 135 136 142 148 149 148 177 194 186 175 155 146 144 149 157 169 164 151 149 149 138 123 119 118 125 114 111 109 102 99 100 98 98 100 102 104 104 109 111 110 109 111 118 120 120 116 116 112 107 105 104 100 100 101 98 97 95 95 97 97 97 98 100 99 100 100 100 102 104 104 107 109 111 112 112 114 110 116 118 120 122 122 122 122 122 122 122 120 118 116 114 112 114 115 114 112 111 111 109 109 107 105 103 105 104 104 104 104 105 105 105 105 105 105 105 105 109 109 109 108 109 107 105 105 105 105 105 109 109 109 109 109 111 111 114 114 114 114 114 114 114 112 125 135 131 135 180 183 176 175 173 171 171 171 173 173 176 178 178 182 186 192 188 186 183 181 180 181 185 186 188 189 189 189 186 180 176 175 171 168 162 164 169 164 155 155 151 146 145 140 142 142 142 142 144 144 148 148 148 146 144 144 145 146 146 144 144 148 148 146 146 146 148 151 149 149 149 149 149 148 146
220 220 222 223 223 223 224 226 228 227 227 227 225 234 236 242 246 248 248 232 203 182 166 164 162 162 164 155 148 153 160 173 189 197 186 180 186 196 196 174 149 146 148 151 151 151 146 140 140 140 140 140 144 144 144 144 146 149 153 155 160 159 164 180 189 186 173 164 145 140 142 144 141 127 127 129 131 138 150 149 149 153 155 157 151 149 149 152 157 155 152 155 151 146 145 148 159 175 196 207 202 193 191 199 202 223 227 236 242 242 241 237 234 234 235 238 242 242 243 244 242 241 241 243 245 246 246 245 246 248 250 250 250 251 251 252 248 241 242 241 238 238 241 227 223 219 189 176 216 233 244 252 251 251 251 251 251 250 247 246 246 246 246 245 246 246 246 245 245 245 245 245 245 245 248 249 249 248 246 244 244 243 241 240 239 239 238 240 244 243 243 242 241 241 238 237 238 241 242 242 242 245 246 247 248 248 248 248 249 250 249 249 247 244 245 245 244 242 241 242 239 242 247 249 247 245 246 246 247 248 246 247 246 246 246 240 223 220 199 164 148 143 140 137 183 217 172 155 180 220 227 214 208 210 211 206 169 136 129 131 134 136 140 144 146 149 175 180 181 159 153 166 180 180 171 173 151 143 136 120 114 122 130 131 107 105 107 102 99 100 99 100 105 109 112 112 114 111 112 114 114 117 120 118 114 112 107 104 100 97 97 97 97 95 95 94 96 95 93 93 95 97 97 97 98 100 102 102 105 104 105 105 110 112 112 113 114 113 114 116 116 118 120 120 120 120 118 116 111 112 112 112 112 114 114 112 112 107 105 116 114 105 102 104 102 105 107 109 109 107 105 105 105 105 105 107 107 107 107 107 105 105 105 105 105 105 109 109 109 109 109 111 112 111 110 112 112 113 112 112 114 123 133 133 138 160 171 169 168 169 166 169 170 169 171 173 175 175 173 178 183 181 181 181 180 183 183 186 188 188 188 188 186 181 178 176 175 175 169 168 169 171 163 153 153 151 144 142 140 142 143 142 142 146 146 148 148 148 146 144 146 146 144 144 146 146 148 146 146 146 146 148 149 147 146 146 148 148 146 146
220 222 222 222 222 221 221 221 224 226 227 227 227 227 221 234 245 242 225 207 213 197 166 164 162 166 168 151 140 142 146 153 164 169 162 155 160 169 166 148 140 136 135 135 140 146 142 140 138 136 136 136 135 133 133 133 136 142 140 135 138 142 150 160 164 158 146 133 116 116 116 116 116 120 127 127 129 132 142 142 144 146 146 146 142 134 135 140 149 147 144 148 146 140 138 142 149 168 189 200 201 211 208 194 208 224 227 234 241 241 241 242 241 240 236 236 237 241 243 245 245 241 241 244 246 248 249 248 248 249 250 250 250 250 250 251 247 239 238 240 241 242 237 237 240 239 234 212 236 243 249 252 251 251 252 250 251 248 246 247 246 245 245 245 246 245 245 245 245 245 245 245 245 245 245 247 248 247 245 243 243 242 241 241 241 240 240 241 244 245 245 246 246 246 244 243 243 243 243 243 243 244 245 246 246 247 248 247 248 249 247 240 238 239 239 239 234 213 219 231 240 238 242 244 245 245 245 245 245 245 247 231 204 240 234 225 186 165 153 148 140 138 138 140 153 169 153 144 149 193 214 207 208 210 208 197 181 169 151 138 133 131 136 145 148 146 151 160 175 171 166 175 180 171 160 174 171 148 138 133 136 133 127 129 111 105 111 107 100 100 100 102 105 107 107 109 112 111 111 109 111 111 111 107 105 105 105 105 102 98 98 97 95 95 94 95 95 95 95 95 97 98 98 98 98 102 100 100 100 100 104 102 105 109 112 112 114 112 112 113 114 116 116 114 114 114 112 112 111 111 112 111 111 112 114 118 119 123 125 123 114 107 102 104 105 110 112 114 112 109 105 105 105 105 105 105 105 105 105 105 105 105 105 105 105 105 105 105 105 105 104 105 107 105 105 107 105 104 104 105 118 129 135 146 148 155 165 168 167 166 166 166 166 168 169 169 169 169 173 176 178 178 181 181 183 188 191 189 189 183 178 179 180 180 176 175 176 175 169 169 168 168 159 149 149 144 140 136 136 140 142 142 142 143 142 142 142 142 144 145 144 144 144 144 142 142 142 140 138 138 138 142 142 142 142 143 146 148 144 144
216 218 218 219 220 218 218 219 222 225 227 225 222 212 199 204 211 208 207 200 199 188 175 169 166 168 173 153 136 133 131 135 142 144 142 137 139 144 146 136 129 129 131 132 133 136 135 133 131 129 130 127 123 122 123 123 123 131 122 118 125 135 142 144 146 148 133 118 105 106 104 104 109 116 127 129 126 129 133 138 144 146 142 138 135 131 127 134 145 146 141 138 136 135 136 138 143 152 173 175 173 186 201 197 197 227 232 232 236 239 238 240 244 244 245 240 235 236 239 242 243 243 244 246 247 247 248 250 250 249 249 250 251 250 249 249 240 234 237 240 243 241 242 241 242 243 244 238 239 243 248 251 252 252 249 244 246 247 242 244 243 245 244 245 245 245 245 245 245 245 245 245 245 245 244 245 245 245 244 243 242 242 241 241 241 241 241 241 242 244 245 246 246 248 248 246 245 245 245 244 243 244 245 245 246 247 247 247 247 244 232 219 211 211 207 201 200 188 178 189 227 229 234 236 243 243 242 244 245 246 240 185 164 183 178 175 171 164 151 135 131 133 131 134 138 144 142 138 136 159 208 208 210 206 203 201 178 169 155 141 136 131 138 148 144 144 144 148 155 162 169 176 173 162 155 153 162 168 168 162 166 157 136 125 111 109 112 112 104 98 102 103 102 105 104 109 109 109 109 105 105 105 104 102 102 102 100 100 98 97 97 97 97 97 97 97 97 97 97 97 97 98 97 97 97 99 97 97 97 98 100 100 100 105 111 114 116 114 114 112 112 114 114 112 113 111 111 111 111 111 111 109 109 112 112 115 114 131 145 136 112 107 104 105 109 110 111 111 108 105 104 104 105 108 104 104 104 104 104 102 102 102 102 102 102 100 100 98 95 95 96 97 98 97 97 97 97 97 98 116 129 131 133 153 160 161 166 166 164 164 164 166 166 164 166 164 164 166 168 168 171 175 180 183 186 192 197 197 191 185 171 169 175 176 176 175 175 178 171 167 166 161 148 142 143 140 135 131 136 138 138 138 138 138 138 138 139 138 140 140 138 138 142 141 135 134 135 135 133 133 135 136 136 142 144 146 145 144 144 144
197 200 206 207 210 216 218 220 222 225 225 221 213 200 189 199 204 206 209 198 192 185 180 180 178 180 183 168 149 142 138 133 129 131 133 129 127 129 134 131 125 123 123 123 123 131 131 129 128 125 122 119 112 112 112 111 112 114 112 111 118 127 133 133 133 127 120 112 107 105 104 103 107 111 118 122 122 127 133 138 146 144 138 136 133 130 127 129 138 142 140 138 136 135 136 136 138 144 155 166 168 181 193 201 194 213 227 232 234 237 239 242 244 244 243 241 238 235 234 238 240 244 246 248 249 249 249 249 249 249 250 250 250 247 243 241 239 234 238 241 242 242 241 241 242 243 244 242 243 244 250 247 248 251 245 242 241 244 241 236 238 242 241 242 243 244 245 245 244 244 244 244 245 245 245 244 243 244 244 243 243 242 242 242 241 241 241 241 241 243 245 246 247 247 247 246 247 248 249 248 247 245 246 247 247 248 246 240 236 219 191 188 176 168 171 171 169 173 169 173 200 211 217 227 231 236 237 240 235 226 203 175 171 169 164 160 157 151 144 131 129 129 123 118 124 133 132 135 136 159 199 204 199 191 193 186 166 149 144 142 138 138 142 148 146 136 130 135 140 146 151 162 168 166 159 142 133 147 169 171 171 169 160 141 125 122 115 112 107 102 104 105 116 108 105 105 107 109 107 105 105 104 104 104 104 104 100 100 98 98 99 98 98 97 98 98 98 98 98 98 98 96 97 97 97 97 97 97 98 98 100 100 100 100 104 114 120 122 122 120 121 118 116 114 114 114 114 114 111 112 111 109 109 105 105 99 97 111 151 148 116 107 106 105 107 105 102 102 100 98 102 102 105 111 107 104 102 102 100 98 97 94 95 95 97 93 91 91 93 93 94 97 97 95 95 95 95 98 100 118 133 135 138 151 159 162 166 166 168 168 168 168 166 164 164 163 162 161 162 164 166 171 175 180 183 188 194 197 194 191 178 173 169 176 176 173 175 183 179 175 169 159 146 142 146 146 138 133 136 139 138 138 138 138 137 138 138 138 138 136 138 138 142 140 136 136 138 134 133 136 138 138 140 146 146 148 146 144 144 144
185 194 204 203 203 204 213 220 221 221 222 212 197 188 185 191 197 200 200 194 188 183 185 186 186 185 185 180 169 162 164 148 127 122 122 120 120 122 120 120 116 115 114 116 122 122 122 122 122 120 116 111 105 104 102 102 105 104 100 104 111 118 118 116 116 116 114 107 100 100 100 104 107 107 109 109 111 118 125 131 138 138 135 131 125 122 123 127 135 138 136 136 136 136 136 133 134 135 140 150 168 183 196 201 197 210 220 231 235 239 240 241 242 240 239 239 241 241 238 238 239 242 246 248 248 249 249 249 250 249 249 248 246 238 236 236 236 234 234 237 241 241 240 241 242 242 242 243 243 244 249 243 245 243 243 242 240 240 238 237 240 241 241 242 242 243 244 244 243 243 244 244 243 243 243 243 242 243 243 243 243 242 242 242 242 242 244 244 243 242 243 246 248 249 248 248 248 248 249 248 248 246 247 247 248 248 247 237 223 197 171 159 162 166 168 163 168 177 173 171 180 188 186 183 197 211 214 212 197 176 172 171 166 168 162 151 149 146 138 133 125 121 118 116 118 125 127 131 144 185 196 188 183 185 183 168 155 142 138 138 140 146 146 146 144 135 129 131 128 129 130 135 148 155 155 146 129 127 144 158 164 173 161 149 142 133 123 116 112 109 109 111 129 133 119 112 104 107 109 109 109 107 111 112 111 105 104 102 102 102 102 102 100 97 98 98 98 98 98 98 96 95 95 95 95 95 95 95 97 98 100 99 98 98 104 109 118 120 122 122 122 120 120 117 118 118 116 114 114 112 111 109 107 102 100 100 100 109 153 149 114 105 104 104 104 98 98 97 95 95 95 95 98 102 102 104 102 98 100 102 101 105 105 100 97 93 91 91 93 93 95 95 95 97 98 97 98 102 104 105 122 140 146 153 160 160 164 166 169 169 169 169 169 166 162 159 159 159 160 162 163 166 169 175 181 185 186 188 189 189 181 178 175 175 173 169 171 178 180 178 171 157 147 146 146 146 142 140 140 138 138 138 138 138 139 138 138 140 140 140 140 140 142 142 144 144 144 142 142 144 144 144 144 144 148 149 148 146 148 146
186 193 196 201 206 203 204 213 218 220 213 200 191 185 183 182 185 189 193 188 183 183 186 185 186 183 185 189 181 175 175 168 149 127 116 116 116 116 111 109 107 110 109 109 111 112 112 112 112 111 107 102 100 100 98 97 94 93 93 95 98 100 100 104 104 104 104 98 93 93 93 97 102 102 102 100 104 109 116 122 127 129 125 120 116 114 118 127 131 135 133 133 132 133 135 133 132 133 136 146 162 180 191 199 203 214 221 227 234 238 237 237 239 240 240 240 240 242 242 237 238 241 244 246 247 247 248 250 249 248 246 244 241 238 240 238 235 236 234 232 237 240 238 240 241 241 242 243 243 244 249 245 244 240 240 238 239 237 236 236 240 241 242 243 242 241 245 244 243 243 244 244 243 243 243 243 243 243 242 242 242 242 242 241 242 242 244 244 243 243 243 246 248 248 248 248 249 248 248 246 246 246 247 247 248 248 247 238 219 207 199 168 160 160 157 155 158 164 171 168 166 166 160 157 164 173 164 160 162 166 166 164 164 162 155 149 148 138 129 127 120 116 114 114 114 120 123 125 133 166 183 186 185 180 164 146 140 136 138 138 140 140 138 140 134 123 122 121 118 122 120 119 125 135 136 131 118 116 120 136 151 164 148 148 151 136 129 120 116 112 112 112 114 120 127 122 110 109 111 111 112 114 114 114 111 107 104 104 105 105 104 104 98 96 97 97 97 96 98 98 97 95 93 93 95 95 93 93 93 93 93 93 93 93 97 102 109 111 112 114 115 116 118 116 114 114 112 109 108 105 104 102 102 98 97 102 111 136 148 133 107 104 104 104 102 98 98 98 95 97 96 97 98 98 100 104 102 97 97 97 102 105 105 104 97 90 93 93 93 93 95 95 95 98 98 98 98 98 105 118 133 146 155 159 159 159 163 165 169 169 169 169 168 164 159 157 157 157 157 157 160 160 166 169 173 178 181 181 184 183 185 181 176 172 171 169 168 168 175 173 169 159 146 145 142 142 140 140 142 138 138 138 138 139 138 138 140 144 142 141 143 142 142 142 144 143 144 146 146 148 149 149 149 148 151 149 148 148 148 148
183 188 185 194 200 201 201 206 210 208 199 188 180 180 175 173 176 176 178 180 174 171 169 172 178 180 180 185 181 176 173 170 166 148 126 118 118 118 111 105 104 105 105 104 102 104 102 102 102 100 97 93 93 95 93 93 90 90 90 90 90 91 93 97 97 93 90 90 85 85 85 88 95 97 100 102 105 105 107 111 114 118 116 112 111 112 118 122 130 131 131 131 131 129 127 127 129 129 136 144 160 173 181 193 201 214 221 221 225 231 234 234 235 237 236 237 241 243 242 240 242 243 243 244 245 244 244 248 248 247 245 240 238 234 234 232 231 233 232 232 234 235 236 236 238 239 241 242 242 245 249 248 245 240 238 238 238 237 237 238 240 241 244 243 243 243 246 244 244 244 243 243 243 242 242 242 242 242 242 242 243 242 242 241 240 242 242 244 245 244 244 246 248 248 248 248 248 248 245 245 245 245 246 247 248 247 243 242 233 220 210 178 158 148 144 140 140 142 151 155 155 151 146 146 146 146 144 142 140 142 148 149 146 140 138 136 135 127 122 123 112 109 109 109 111 114 119 122 129 146 157 181 186 166 148 138 138 143 146 144 140 129 120 118 112 109 112 114 114 114 114 114 115 122 123 120 117 120 118 129 151 164 153 153 151 142 136 124 117 112 110 111 107 104 104 105 105 105 105 102 102 102 104 105 105 105 105 105 107 108 107 105 99 98 98 98 98 97 98 100 100 95 93 93 95 95 91 93 91 88 85 83 85 86 88 90 91 98 102 103 107 111 112 109 109 109 105 104 102 100 97 97 97 91 88 95 116 144 135 112 100 102 102 102 98 98 98 98 98 98 100 98 98 98 98 102 102 96 93 93 99 100 105 105 107 100 93 93 93 93 93 95 95 95 97 98 98 98 102 112 117 118 130 142 146 149 154 159 166 169 169 168 166 160 155 155 155 155 155 154 157 159 160 166 168 173 178 178 178 177 181 181 175 175 171 171 171 171 169 169 164 160 151 148 148 146 138 140 142 138 138 138 138 138 138 142 142 144 142 142 142 142 144 144 144 143 144 144 146 146 148 149 149 149 151 149 146 149 147 149
175 177 181 191 196 196 194 194 193 183 183 178 168 166 164 164 168 166 167 171 169 169 169 166 168 171 173 177 176 175 171 171 168 153 142 136 127 122 114 107 105 102 102 100 102 100 97 93 95 90 88 86 86 86 87 89 86 86 90 88 88 90 90 88 88 83 82 82 82 83 83 86 91 91 97 100 105 107 109 109 111 111 112 107 107 107 112 116 123 127 129 129 127 127 125 122 120 120 129 142 155 164 166 178 191 201 212 216 219 227 230 233 233 234 234 236 241 243 242 242 243 243 241 242 240 241 243 246 245 246 245 240 235 232 229 227 227 227 231 233 234 236 235 236 236 236 238 238 241 245 247 243 242 240 239 238 238 239 240 240 241 242 243 243 243 244 247 244 244 244 244 245 247 247 244 242 242 242 242 242 242 242 241 241 241 239 241 242 244 243 243 245 246 246 245 247 247 246 245 245 245 245 245 247 244 243 242 242 241 233 219 193 166 143 131 129 129 133 138 140 140 136 131 127 125 123 125 125 127 129 127 127 121 120 119 116 117 114 112 109 105 106 106 105 109 112 118 123 127 135 136 151 164 147 136 133 138 148 149 140 131 114 105 102 100 104 107 108 107 107 111 111 111 114 116 118 123 129 127 129 148 162 162 162 157 146 146 133 120 114 110 109 99 99 109 98 93 93 93 95 93 91 90 88 93 97 97 98 100 102 104 104 100 98 98 100 100 98 100 100 96 93 91 90 88 88 88 87 85 83 83 82 83 83 85 86 86 90 93 98 100 102 104 104 102 100 98 97 93 95 95 91 91 91 91 91 102 123 109 97 97 97 97 97 97 97 98 98 98 98 100 97 98 98 97 95 95 95 93 93 97 98 98 100 114 111 93 93 93 91 91 93 96 95 93 95 93 93 95 102 107 104 100 102 116 125 144 149 153 171 169 168 164 159 157 152 155 155 155 156 158 159 158 162 166 169 173 173 174 175 176 178 173 173 171 172 171 171 168 164 159 155 151 148 149 148 135 135 140 140 140 138 138 140 140 139 142 144 142 142 140 142 144 144 144 144 144 142 142 146 147 149 149 149 149 149 146 148 148 148
169 175 183 193 194 188 181 180 178 170 171 166 157 155 155 155 154 157 160 166 168 168 166 164 162 159 168 171 171 171 171 171 171 166 166 161 144 135 125 116 112 112 111 111 114 114 109 100 95 91 86 86 85 85 85 85 82 83 85 85 85 83 82 82 82 83 82 83 83 83 85 85 87 88 90 95 102 107 109 107 105 107 105 104 102 102 104 107 117 122 125 125 123 122 118 114 112 115 123 138 148 157 160 168 188 191 204 207 216 227 229 229 230 232 234 236 241 241 241 243 242 241 240 239 240 242 242 243 243 242 243 238 234 232 230 229 230 229 230 233 235 238 237 236 236 237 238 240 242 248 245 238 241 241 242 242 242 242 241 241 241 242 243 242 243 245 246 246 245 245 248 250 250 251 248 242 242 242 242 241 241 241 241 241 241 240 241 242 243 243 243 244 245 245 245 246 247 246 245 245 245 246 245 245 245 243 242 243 240 238 232 213 185 153 131 129 123 127 127 127 127 123 118 112 107 112 114 112 116 116 116 114 110 111 109 104 102 103 102 100 100 100 102 104 106 109 111 116 118 122 127 127 140 139 129 129 132 133 129 116 107 104 98 97 99 98 100 104 105 105 107 107 109 116 122 129 135 135 129 131 142 160 173 164 157 149 146 146 138 122 111 109 102 105 111 100 93 90 90 90 90 86 85 86 85 85 86 86 88 93 98 98 95 95 95 93 93 93 93 93 90 86 86 85 83 82 80 80 82 82 82 83 85 86 88 90 90 93 99 97 98 100 98 97 95 95 95 95 91 93 97 97 94 95 95 97 99 103 98 95 93 90 91 91 92 93 97 99 98 98 95 90 93 93 91 93 93 91 93 91 96 98 97 93 93 93 93 93 93 93 91 93 92 90 93 93 91 93 103 116 112 104 100 97 102 102 116 136 136 157 166 169 164 160 160 157 157 155 155 155 153 157 159 160 164 162 166 169 169 169 169 171 171 170 168 166 166 164 164 160 155 155 155 149 148 142 136 133 133 133 133 135 136 136 136 135 139 142 140 138 136 140 142 142 142 142 142 142 142 144 148 148 148 147 148 148 148 148 148 148
157 169 176 176 175 168 166 164 164 164 157 153 149 146 144 144 142 142 146 151 153 155 160 160 162 164 168 168 166 164 168 169 169 175 178 175 166 155 135 123 123 123 123 127 129 134 129 118 107 105 98 91 86 83 83 82 81 80 82 82 82 80 80 80 80 82 82 83 82 82 82 82 85 85 85 90 97 102 105 104 100 97 95 93 93 91 95 98 109 120 122 118 112 112 107 105 107 111 122 131 136 146 157 164 181 188 196 212 217 225 226 227 227 230 232 238 241 240 241 241 241 240 239 238 238 241 242 242 242 241 240 236 234 234 234 232 233 232 232 236 237 239 238 238 237 240 242 244 243 247 245 241 241 240 242 245 245 242 240 241 242 241 242 243 243 246 248 247 246 245 248 250 251 251 250 248 246 244 241 241 241 241 241 241 241 241 242 243 244 245 243 244 244 245 246 245 246 245 245 245 245 244 245 245 245 243 243 243 241 238 228 211 201 169 136 124 120 121 118 116 114 110 107 102 102 104 104 107 107 105 102 102 100 98 94 95 95 95 95 95 95 94 95 98 98 100 100 104 102 109 118 120 125 123 123 123 120 112 105 104 98 95 93 93 94 91 95 100 103 105 108 111 116 125 129 138 135 138 140 146 160 171 178 173 166 159 151 151 142 116 109 109 105 116 122 93 90 88 88 86 86 86 83 83 83 80 79 80 80 79 79 82 85 84 85 80 79 80 82 85 85 83 83 84 82 82 82 82 83 84 83 83 85 86 90 91 93 97 98 97 98 98 94 95 93 93 95 95 94 95 107 120 118 102 97 96 98 95 93 93 93 93 93 94 91 91 98 98 98 97 93 91 91 90 88 91 90 93 93 93 97 98 93 88 90 90 91 90 91 91 91 90 96 118 133 133 105 90 107 105 107 102 107 118 123 116 109 110 136 151 162 171 168 164 164 164 160 153 153 153 151 153 160 159 158 159 160 162 164 162 164 166 168 166 166 160 159 157 157 155 153 151 153 149 148 144 135 129 127 125 123 131 131 129 131 133 135 136 135 133 135 138 140 140 140 140 140 140 140 142 145 140 140 140 142 144 144 142 144 144
151 159 162 162 159 155 155 153 153 151 146 137 133 135 135 136 130 131 133 136 136 136 142 148 151 157 160 159 159 160 160 162 162 169 178 178 166 155 138 123 122 120 118 116 118 122 123 123 122 129 127 108 92 86 83 82 80 80 80 80 80 80 80 80 80 81 80 80 80 80 80 80 82 82 85 85 88 90 93 93 90 86 86 85 83 83 85 91 98 111 112 107 104 104 102 102 104 109 116 123 129 140 149 157 160 173 186 204 210 212 217 220 223 227 229 236 240 241 240 240 240 240 239 238 239 241 242 242 241 240 238 235 234 234 233 231 234 235 236 238 239 243 241 240 240 242 244 245 248 251 252 248 240 241 245 249 246 241 240 241 242 243 243 245 245 247 248 248 247 245 245 249 250 251 250 250 249 245 242 240 240 240 240 240 241 241 241 242 243 242 244 244 244 244 241 239 240 243 244 245 243 243 243 244 244 244 242 243 243 240 228 218 223 194 146 127 116 112 111 109 109 109 105 97 100 100 99 98 97 95 92 91 91 88 86 86 86 86 86 86 86 86 86 88 90 91 93 93 95 105 110 111 111 112 114 112 112 105 101 100 95 91 91 93 93 94 95 98 98 102 106 114 117 123 123 131 135 153 168 166 173 176 175 173 171 168 162 157 151 131 109 105 107 111 97 105 98 86 86 85 85 85 83 82 82 79 77 77 75 73 73 75 77 77 77 75 75 75 80 83 83 83 83 83 80 81 80 80 82 82 82 83 85 85 88 87 91 95 95 93 94 93 95 95 95 95 95 93 97 127 152 144 122 102 100 98 97 95 95 95 93 91 91 93 95 97 100 100 97 97 95 95 95 93 93 93 93 94 93 95 97 98 93 93 93 93 90 83 83 91 88 83 133 188 185 186 162 135 157 146 148 146 159 185 185 185 183 164 146 155 166 168 165 160 160 158 155 148 148 149 149 149 151 151 149 153 153 153 153 157 160 162 162 159 160 159 155 155 153 152 149 148 148 144 148 143 129 123 123 123 125 127 127 127 127 129 129 128 129 129 131 133 135 135 135 135 135 135 135 136 135 135 135 138 138 142 140 138 140 142
144 146 148 155 155 151 149 146 142 140 136 127 122 125 129 129 125 125 125 126 123 123 125 133 138 141 148 151 151 151 151 153 157 161 162 159 151 144 133 122 116 112 111 112 111 109 109 114 125 144 151 135 107 91 86 83 80 81 84 82 79 80 80 80 80 80 80 79 79 79 80 80 80 80 80 80 80 84 86 85 81 82 82 80 82 83 82 86 95 102 105 104 101 102 100 101 104 109 112 118 123 131 144 149 153 160 180 200 199 204 211 214 222 224 228 232 235 238 238 238 238 239 239 239 240 241 241 242 241 239 237 235 234 231 232 232 236 236 237 239 241 244 242 240 240 242 244 249 252 253 253 253 252 252 251 249 244 241 242 243 244 244 246 246 247 247 247 247 246 248 249 248 249 248 247 249 250 249 243 241 240 240 240 239 240 240 239 240 239 240 242 243 242 240 237 237 239 241 241 238 239 241 243 244 241 241 238 240 243 240 230 229 233 223 160 137 120 112 111 113 112 109 105 102 97 95 95 91 91 90 85 83 82 82 80 82 82 80 79 80 80 79 82 82 83 85 88 90 93 97 104 105 104 107 107 104 102 102 94 91 91 90 91 93 92 93 93 97 97 100 103 117 120 120 124 135 142 150 168 169 169 173 175 173 173 176 173 171 166 158 131 111 120 127 98 133 125 97 85 79 80 80 80 80 77 75 74 74 74 74 76 75 75 74 75 78 77 80 83 83 82 83 84 80 82 81 82 82 83 86 87 90 93 93 91 88 92 94 95 95 95 95 95 95 97 97 97 97 125 149 146 136 120 109 105 98 95 97 97 97 97 95 97 97 97 97 102 105 107 105 104 104 104 104 105 105 104 104 100 100 98 98 98 97 97 95 100 142 159 173 137 91 151 181 180 185 188 178 176 176 180 178 180 188 189 196 196 191 168 162 163 160 157 155 149 142 142 144 144 144 142 140 142 142 146 146 142 144 148 149 155 153 153 155 154 155 155 155 151 148 150 146 144 142 138 131 120 118 118 120 121 118 118 118 118 123 125 125 125 125 124 125 129 129 129 129 131 133 133 135 136 135 136 138 138 140 138 138 139 142
127 131 136 139 138 140 140 138 133 131 125 120 114 116 120 122 120 118 116 114 112 112 116 123 129 136 138 140 140 143 143 149 154 157 157 151 146 139 124 120 114 114 114 114 111 104 104 109 123 136 140 127 118 105 97 95 98 97 90 86 80 80 80 80 80 80 80 79 79 79 77 77 77 77 77 77 77 77 77 79 79 79 79 80 80 83 83 87 95 100 100 98 98 98 98 98 100 104 109 112 118 123 125 138 149 154 164 181 175 191 200 211 221 221 225 227 232 236 238 238 238 238 238 239 239 241 241 241 240 239 238 236 234 233 234 234 236 237 238 239 241 242 243 244 245 248 249 251 253 253 252 253 254 251 245 243 241 244 243 244 245 245 246 247 247 246 246 245 246 249 253 251 249 246 242 245 249 248 242 240 241 239 239 239 240 237 236 235 237 238 240 241 238 234 234 234 233 232 232 230 232 236 239 242 242 243 241 239 241 243 239 237 238 226 168 141 136 129 127 123 120 109 105 104 97 95 90 88 86 85 80 80 79 79 77 79 78 79 77 77 77 77 78 80 83 85 86 88 86 88 91 97 100 98 95 90 91 88 90 90 89 90 91 93 91 91 97 100 104 109 109 125 136 136 138 152 160 159 164 166 166 168 164 166 173 175 175 175 175 173 164 151 153 160 140 133 144 131 107 82 80 80 81 80 77 75 74 74 74 74 75 74 75 74 75 80 83 83 82 83 82 83 82 80 82 83 83 83 88 93 98 102 98 97 97 97 100 98 100 100 98 98 98 98 98 98 97 98 127 148 146 135 122 112 114 113 109 109 107 100 102 102 100 100 98 102 106 111 113 114 114 118 118 118 118 114 113 111 107 105 105 102 102 101 99 102 162 201 204 201 190 148 166 180 180 180 177 171 166 169 168 168 169 176 176 188 196 186 159 157 159 153 148 142 138 136 136 139 138 138 138 138 136 136 138 136 135 138 142 142 144 148 149 155 155 155 157 155 149 144 146 138 138 136 123 120 120 116 117 116 114 116 116 116 116 120 123 123 123 123 124 123 127 127 127 129 131 131 133 135 136 136 136 138 138 138 137 138 140 143
114 118 122 123 122 123 123 123 122 118 112 112 111 109 111 111 107 106 107 107 109 109 109 112 122 127 127 130 129 135 138 136 135 136 135 135 138 131 116 109 109 109 111 109 101 95 98 105 114 123 127 120 122 120 129 138 140 120 100 107 104 95 86 81 79 80 79 75 75 74 74 71 73 73 74 74 74 74 77 75 75 74 75 79 79 80 82 86 93 95 93 91 91 91 93 93 95 98 102 109 114 118 122 127 140 144 146 155 160 193 194 201 218 219 220 224 232 236 237 238 239 238 238 239 241 242 243 242 240 238 236 235 234 234 234 234 234 236 239 240 240 241 243 245 246 250 250 250 250 250 249 249 249 247 243 243 242 243 243 245 246 246 247 246 246 246 245 245 246 248 251 252 250 247 246 246 245 243 240 239 239 238 238 238 238 235 232 233 234 235 236 235 232 231 233 234 234 233 231 232 233 234 237 239 242 244 244 241 241 245 245 244 244 232 193 160 162 149 138 129 123 111 104 100 93 90 85 83 82 82 75 75 78 79 77 79 79 77 77 75 74 74 77 79 80 83 85 85 84 85 86 88 90 90 88 86 86 86 88 90 93 93 97 100 100 98 104 112 129 131 127 140 155 164 168 166 166 166 166 164 166 164 160 162 169 173 175 174 176 176 177 171 169 166 155 148 149 155 144 105 90 80 79 80 79 77 75 74 74 74 75 74 74 74 80 83 85 83 83 83 82 84 83 85 83 83 88 90 91 98 104 105 98 98 98 100 100 100 102 102 102 100 102 102 100 98 95 93 104 144 151 149 132 116 120 125 123 120 118 111 112 120 120 118 120 123 116 118 118 118 116 116 118 122 124 122 122 120 114 111 111 107 105 105 104 127 185 199 199 193 178 166 171 180 180 178 173 168 165 164 162 160 160 159 162 171 171 166 155 155 152 149 142 138 138 136 136 138 136 135 136 138 135 133 133 133 133 133 136 140 142 149 151 153 159 159 157 155 144 136 138 131 131 127 114 116 120 117 112 112 112 116 116 116 116 118 122 123 125 127 129 129 129 131 129 131 131 131 133 135 136 136 136 136 136 136 136 135 138 138
100 104 107 109 109 108 109 109 109 107 104 104 104 104 100 98 98 98 102 104 105 105 105 104 111 111 111 114 118 120 116 112 112 114 114 114 114 110 100 95 95 98 102 102 93 91 95 97 105 114 118 116 118 136 155 166 160 133 116 118 125 95 90 86 83 80 79 75 75 75 73 71 70 69 73 74 74 74 74 74 75 75 75 77 79 79 82 86 90 90 88 88 88 88 90 91 91 95 97 102 106 112 116 120 131 131 131 136 166 196 194 206 214 214 216 221 232 234 235 236 236 238 238 240 242 244 245 244 244 241 236 235 234 234 233 234 234 236 241 241 240 242 244 245 245 247 246 243 245 247 245 245 245 243 243 243 244 244 244 245 246 247 246 246 246 245 245 245 245 248 252 250 250 248 245 246 245 242 240 238 238 239 238 238 238 236 232 232 234 233 231 232 231 233 234 236 236 236 234 235 235 235 236 236 242 245 245 243 242 245 244 245 242 233 207 176 181 158 131 123 122 107 102 95 88 85 79 77 79 79 76 75 77 77 79 79 79 78 79 75 75 74 79 77 80 83 85 83 85 85 86 89 90 88 88 90 90 93 93 98 101 107 112 120 129 129 133 140 149 153 153 153 160 168 169 168 166 166 166 168 168 164 162 166 168 171 173 173 171 173 173 169 169 164 157 153 157 155 135 107 95 83 80 80 79 77 75 75 77 77 77 77 77 79 83 85 85 82 83 83 83 82 83 85 85 86 88 91 95 100 104 105 107 104 101 102 102 100 102 104 104 105 104 104 100 98 93 93 104 151 155 144 125 113 112 116 118 118 118 120 140 162 166 162 159 153 138 131 127 125 129 131 127 133 133 131 138 138 129 120 118 112 111 111 105 131 180 181 180 175 160 160 171 179 176 173 168 165 164 164 157 155 153 153 153 159 157 153 148 146 144 138 138 136 136 136 138 137 135 130 131 131 131 131 134 133 133 131 133 142 148 152 153 159 164 160 155 142 129 122 120 120 119 132 135 125 123 118 114 114 114 114 116 116 116 118 123 125 125 127 129 129 129 131 130 131 131 131 133 135 136 135 135 133 133 133 133 133 135 135
90 91 93 93 94 95 95 98 97 97 95 95 93 93 94 91 90 90 93 93 94 93 92 95 93 92 93 100 105 102 102 103 100 98 97 97 97 95 91 88 88 91 93 90 88 91 91 91 93 102 107 112 114 129 151 162 158 136 114 118 114 95 90 86 86 85 82 79 75 74 73 73 71 71 71 71 74 73 70 70 70 71 73 73 73 73 79 81 83 83 83 83 82 82 85 90 91 93 95 97 100 105 108 114 125 127 127 135 169 193 201 208 210 206 203 213 230 229 229 231 234 236 238 241 243 244 244 244 243 244 243 241 237 236 236 238 237 241 244 244 243 244 241 240 244 243 243 240 240 245 245 244 244 243 243 243 243 243 244 245 245 247 247 247 246 246 245 245 245 249 252 252 252 249 243 244 244 241 240 237 238 238 237 237 238 238 235 234 233 232 232 232 232 234 235 236 237 236 236 238 240 240 238 236 238 244 245 243 245 245 245 242 239 224 203 178 162 131 116 118 122 104 95 90 86 82 79 77 79 79 75 76 75 77 79 79 80 80 82 83 86 83 82 80 82 85 86 86 88 88 90 90 91 91 95 98 102 107 107 105 111 123 123 127 140 155 160 164 162 160 161 157 162 166 166 168 169 169 169 169 168 168 166 166 168 168 168 168 168 168 166 166 167 162 160 159 158 155 127 109 95 91 90 86 83 82 80 82 82 85 88 88 90 90 90 86 86 85 83 83 82 82 83 88 88 86 91 95 98 104 105 105 105 106 105 109 107 105 107 107 109 111 109 103 100 97 97 95 118 151 148 135 115 111 111 116 114 116 125 130 155 162 162 151 146 141 136 131 132 133 135 136 136 135 136 140 142 144 138 127 123 127 120 118 113 125 170 178 176 169 168 167 166 166 168 173 169 166 166 162 156 151 149 149 148 144 147 146 143 140 136 133 135 136 133 131 133 133 127 127 125 125 125 125 129 131 133 136 140 151 155 155 155 160 162 148 133 127 123 122 122 120 127 155 159 153 148 146 141 135 116 113 122 131 135 125 123 125 125 127 127 127 131 131 131 131 133 131 131 133 133 133 133 133 133 133 133 131 135 135
82 83 83 83 85 88 86 83 83 83 86 86 85 85 85 83 83 82 83 83 82 82 83 83 83 83 85 88 86 86 86 86 88 88 84 85 85 85 86 86 86 86 83 83 83 86 86 83 83 88 95 102 109 116 127 144 149 135 111 118 105 102 98 98 95 91 90 88 86 80 77 77 73 71 71 70 67 67 67 67 67 68 68 69 68 70 74 77 78 79 77 75 75 77 80 85 86 90 95 100 100 102 102 105 116 125 130 152 178 183 194 200 208 207 210 221 228 227 227 229 232 234 239 241 243 243 243 244 243 244 245 245 242 242 241 236 238 231 219 226 222 218 206 208 206 194 193 194 201 222 240 245 244 244 245 245 244 243 244 245 245 246 247 247 246 246 247 247 249 253 237 233 245 247 242 243 243 242 240 239 238 238 237 237 240 240 238 232 233 231 232 232 231 232 233 234 235 236 236 240 242 242 238 237 237 237 242 242 245 246 246 239 227 204 189 161 142 117 113 119 112 98 91 90 85 82 80 80 79 77 75 75 75 75 77 80 80 85 90 98 102 100 95 97 97 102 104 100 100 99 97 97 97 100 104 105 108 108 109 109 112 120 122 119 118 138 157 157 155 151 153 160 166 168 168 169 169 169 168 168 166 162 162 162 162 162 162 162 160 162 164 164 162 160 159 159 159 155 131 112 109 111 109 104 100 96 93 91 95 98 102 104 105 100 98 95 95 93 85 83 85 85 91 98 98 97 97 100 102 105 105 105 105 105 105 109 109 107 107 109 109 109 107 104 100 97 98 107 136 144 140 131 118 118 118 114 118 123 135 148 159 159 156 140 127 125 122 122 127 127 129 131 136 136 136 140 140 136 136 125 125 129 129 131 129 140 168 171 169 169 171 168 166 168 167 169 169 168 168 166 160 148 142 142 141 138 138 136 135 135 131 130 129 127 127 129 127 123 120 120 120 122 123 123 127 135 138 145 151 157 157 155 153 151 146 135 125 120 120 122 122 122 125 149 159 153 153 157 155 151 131 127 135 140 142 133 125 125 125 129 129 129 129 129 129 131 133 131 131 133 133 133 133 133 135 133 135 136 136 138
79 79 79 79 79 82 80 79 79 79 79 79 79 79 79 79 79 79 77 77 77 79 79 79 78 79 79 79 79 79 79 79 80 82 81 80 77 75 79 82 80 80 80 79 79 80 80 81 79 80 85 88 93 105 111 138 146 138 118 120 114 111 112 118 112 109 119 118 106 93 83 80 75 71 70 68 66 65 64 63 64 63 64 67 67 67 68 71 74 73 74 74 73 75 76 80 82 85 91 95 97 97 97 100 109 118 129 149 173 181 187 196 208 210 208 219 226 229 230 231 231 232 236 239 243 243 244 243 243 243 245 245 243 243 238 232 221 185 180 176 175 173 180 180 178 171 169 175 176 183 204 227 236 238 235 244 245 244 244 245 246 247 247 247 247 248 245 248 252 245 196 183 191 189 196 223 242 244 241 239 238 238 238 238 239 238 233 227 229 227 232 232 231 230 234 237 237 236 237 238 241 238 239 233 234 238 237 241 245 246 246 245 228 191 173 149 132 114 112 120 111 97 90 88 83 83 82 80 80 77 75 75 75 75 78 80 85 91 101 107 111 112 116 120 123 136 131 120 119 118 122 131 123 107 105 105 104 104 107 111 111 115 116 114 116 125 139 142 151 157 155 162 166 169 169 169 169 168 164 164 162 161 157 155 155 155 156 156 155 157 162 164 161 157 157 157 160 153 138 124 117 120 116 112 111 109 107 102 104 109 111 111 111 110 111 107 106 100 95 91 93 95 102 109 111 111 111 112 111 107 105 107 109 108 105 105 105 105 105 104 105 107 104 104 102 100 104 123 138 133 129 122 120 118 118 122 131 138 151 160 160 160 153 142 131 122 120 125 140 144 146 140 142 140 135 133 133 131 129 127 123 123 132 142 142 159 162 157 160 168 169 169 166 162 160 160 162 166 169 164 148 138 136 133 131 131 129 125 122 122 123 122 122 120 118 118 122 118 120 123 122 125 127 127 135 142 147 150 155 160 160 155 148 144 142 136 133 128 123 123 127 125 133 142 146 151 154 151 151 151 146 140 138 138 138 138 136 131 129 136 138 136 133 135 136 136 136 136 135 136 135 136 135 136 138 136 136 140 144 141
75 74 74 74 71 73 74 74 74 74 74 74 73 73 73 74 74 75 79 79 79 77 78 77 77 75 75 75 75 75 75 75 74 74 74 74 71 70 71 74 74 77 79 75 75 77 77 80 79 79 80 82 85 94 110 135 141 133 122 123 116 111 109 112 112 112 120 118 112 100 85 79 74 73 70 68 67 66 65 64 65 65 65 64 64 63 65 67 70 71 71 71 68 68 73 74 77 79 82 85 88 91 91 95 104 111 120 140 162 175 186 200 212 211 210 212 220 229 231 231 232 232 232 236 237 242 244 243 244 244 244 243 244 240 234 237 189 168 168 168 169 168 169 169 168 164 160 160 162 168 171 176 181 181 189 218 243 245 245 245 246 246 247 248 247 245 238 242 248 201 180 180 171 166 165 168 207 235 233 240 240 240 240 239 235 231 224 224 227 224 226 227 233 225 212 228 239 238 240 239 237 235 230 204 213 238 235 238 244 245 244 244 229 193 171 140 129 133 131 123 111 98 91 86 83 83 80 79 77 75 75 75 77 77 79 80 95 109 135 130 125 125 118 132 183 194 157 154 151 148 140 136 123 105 102 109 111 109 112 112 114 119 122 120 114 114 123 138 151 166 160 164 164 168 169 167 168 166 166 166 162 160 155 151 153 150 153 153 151 153 160 160 159 159 159 157 157 149 138 132 125 122 120 118 118 118 116 112 112 113 112 112 112 115 114 116 116 111 109 107 108 109 111 112 116 121 125 127 122 109 105 105 107 105 105 104 100 102 100 99 101 104 102 104 100 100 111 118 116 112 116 116 111 116 146 168 169 168 168 168 169 164 159 157 146 129 127 138 151 147 146 138 133 131 127 125 125 127 129 127 123 120 118 136 148 164 163 153 151 164 168 166 159 144 142 144 144 144 148 138 127 127 125 123 122 120 118 116 115 113 112 114 116 116 116 114 116 118 120 122 124 133 138 137 142 146 149 153 153 160 164 157 151 146 144 138 136 136 133 129 129 129 138 138 136 144 149 151 154 151 144 138 136 138 138 142 142 140 140 144 146 146 148 149 149 144 146 144 144 146 148 144 144 146 148 146 147 148 149 149
74 73 71 71 71 71 70 71 70 68 68 68 67 68 71 71 73 75 79 79 79 79 79 79 77 75 75 75 75 75 74 73 71 71 71 71 71 71 71 71 71 73 73 73 74 75 75 79 79 80 80 83 85 93 109 122 122 118 116 112 114 112 116 122 129 129 118 112 104 90 83 79 75 73 70 67 67 67 67 66 64 64 65 67 67 67 67 67 68 70 67 68 67 67 70 73 73 74 77 79 83 86 88 93 103 109 118 135 149 168 188 201 207 214 218 227 226 227 233 235 234 234 234 233 233 236 242 244 244 245 243 243 245 242 235 235 188 162 157 151 155 162 164 166 164 160 159 157 157 160 167 169 169 162 160 171 201 238 246 247 247 247 246 242 246 234 232 222 210 181 176 175 168 163 162 164 173 186 181 220 242 240 240 234 227 220 214 222 223 208 201 207 232 232 223 204 214 231 239 228 223 222 221 212 201 231 238 236 239 236 242 238 227 210 185 155 144 164 155 127 114 112 104 95 93 86 81 81 79 77 75 75 77 77 79 86 110 131 149 131 117 122 118 129 201 201 166 178 199 201 157 127 122 125 125 135 142 142 146 148 144 148 150 151 160 153 149 159 169 185 175 164 164 166 169 169 170 169 170 168 163 155 149 149 149 149 149 149 149 149 151 153 155 157 159 155 149 148 138 133 129 127 127 129 123 122 122 116 116 114 114 114 114 116 116 116 116 116 116 116 118 120 119 120 122 131 135 133 133 125 118 112 111 109 109 105 100 98 98 98 102 105 107 111 112 116 118 121 122 123 125 127 132 159 171 173 171 168 164 162 159 157 153 151 144 135 138 142 142 136 132 125 123 123 123 123 127 129 123 123 122 118 116 135 159 163 148 149 149 149 148 140 135 135 135 131 131 131 129 125 123 120 118 118 116 113 112 112 111 111 111 112 114 116 116 120 120 122 125 127 130 138 138 138 140 141 146 151 151 155 157 155 149 148 146 137 136 135 133 129 133 133 138 136 140 144 146 148 150 150 149 145 142 140 142 144 146 147 149 149 149 149 153 153 154 157 157 153 153 157 159 159 159 159 157 155 157 155 153 153
73 73 73 71 71 71 71 70 70 67 67 67 67 67 68 68 71 73 74 77 79 79 80 80 80 75 75 74 75 75 75 74 71 71 71 71 71 71 69 70 70 70 69 71 73 75 75 77 77 80 83 85 86 91 98 104 105 102 105 107 111 112 125 136 142 144 129 111 93 85 82 77 73 71 70 68 68 68 68 67 67 67 67 68 70 70 70 67 67 70 68 68 68 68 70 71 71 73 74 74 77 83 84 93 104 112 122 133 144 163 183 203 207 219 228 237 238 237 242 242 236 234 234 232 232 231 238 241 235 232 241 244 240 234 227 214 201 159 144 142 146 155 160 160 159 159 159 160 159 162 166 166 159 157 155 160 173 204 235 247 248 240 226 221 234 224 207 183 173 168 162 163 159 157 155 157 169 177 175 211 236 236 234 231 219 214 213 206 197 188 189 196 228 236 232 193 180 210 227 208 191 196 216 217 178 197 232 238 236 232 238 237 233 227 212 189 180 181 175 146 142 139 123 112 105 93 88 85 82 79 79 79 80 83 86 111 140 153 140 114 111 116 117 127 157 153 176 211 225 204 168 166 176 183 185 181 180 176 171 181 194 191 194 191 197 196 191 195 201 200 181 162 164 164 166 169 169 169 172 168 160 155 148 144 146 144 140 140 144 147 146 148 149 155 153 151 148 144 138 135 131 129 131 133 131 127 123 120 116 114 115 114 114 114 116 118 122 120 120 123 123 129 131 131 133 135 136 136 138 140 136 127 122 116 115 111 109 111 111 111 114 122 129 135 133 135 136 138 138 138 138 140 155 168 169 169 164 155 151 149 147 140 138 138 133 133 135 133 129 124 122 118 120 123 126 127 129 127 123 123 122 117 122 131 146 145 129 135 140 136 131 127 131 129 127 125 123 122 120 118 120 118 114 114 111 111 112 111 106 111 111 112 114 116 116 120 121 123 129 135 136 138 138 138 138 138 142 146 150 149 148 146 146 146 144 138 138 140 139 137 138 138 142 144 146 144 146 149 148 149 151 152 151 149 149 151 155 155 155 155 155 155 153 153 162 166 164 160 159 160 162 164 165 167 165 160 161 160 157 155
71 73 74 74 71 71 71 68 68 67 67 67 67 67 66 67 67 70 70 73 74 77 80 79 80 79 80 83 83 82 82 80 75 74 77 77 74 73 68 68 68 68 68 70 73 75 75 75 75 80 83 86 86 91 91 95 97 97 102 105 105 110 117 122 125 131 120 97 85 80 77 74 71 71 71 70 70 70 68 70 70 70 70 70 73 73 73 70 68 69 67 67 68 70 70 70 71 71 70 73 75 80 83 91 105 114 123 133 142 159 181 203 201 206 216 226 240 243 245 244 232 223 216 210 206 206 218 213 197 200 221 232 208 189 180 178 186 159 146 145 144 144 149 153 155 159 157 157 160 162 161 159 155 155 155 155 164 183 229 246 247 238 227 221 217 208 189 168 161 155 149 149 150 151 151 150 159 169 173 186 214 224 231 226 216 216 211 194 181 176 176 179 217 233 223 194 178 193 207 191 176 206 207 189 176 206 234 242 238 238 236 236 236 236 234 223 207 188 181 180 180 175 164 157 135 114 109 102 94 88 86 86 88 91 111 153 194 194 163 140 133 135 140 138 153 173 210 224 219 216 200 198 197 201 200 204 210 210 203 204 216 218 216 208 201 200 204 204 201 189 171 164 162 163 162 162 160 168 169 169 160 155 148 144 142 138 138 138 144 145 142 142 146 149 148 148 144 138 133 129 125 125 125 125 125 120 120 116 116 114 114 114 114 112 112 118 123 122 122 129 129 131 133 133 137 136 136 136 138 138 135 131 129 127 127 127 127 129 131 133 133 136 138 136 136 136 137 140 142 142 142 144 162 164 160 159 149 146 144 142 138 133 131 131 128 125 125 125 120 116 118 119 120 121 125 127 125 123 130 142 140 123 118 118 120 120 127 127 127 129 131 125 122 120 120 120 120 120 120 120 118 120 115 114 114 114 114 112 112 112 114 112 115 116 116 118 120 124 127 133 135 135 138 138 138 138 140 142 146 144 142 144 144 144 142 144 151 153 153 155 155 153 155 157 155 148 149 153 153 151 149 151 153 154 153 155 157 155 155 156 155 155 153 162 170 169 168 168 165 164 164 166 166 166 166 164 164 164 164 162
69 68 70 68 68 67 67 65 65 65 65 65 65 67 64 64 65 65 68 70 71 73 77 79 80 83 88 91 90 88 86 85 83 81 82 80 80 77 71 71 70 70 70 74 74 75 75 75 80 82 84 85 86 90 90 91 98 102 107 111 112 109 108 105 105 102 97 88 80 78 74 71 71 71 70 70 70 71 70 71 71 70 70 71 73 73 79 74 70 67 67 67 67 67 67 67 70 70 67 71 74 77 83 93 104 114 125 129 133 144 169 189 183 196 220 224 232 236 241 243 228 200 185 185 185 186 185 181 181 188 197 200 189 170 166 164 155 149 144 140 140 135 136 143 149 152 151 151 155 155 159 160 159 157 160 159 171 203 230 244 246 241 230 224 197 192 177 157 150 146 142 142 141 148 149 151 155 164 168 176 197 211 225 224 217 216 219 208 191 178 174 176 185 207 208 201 188 180 171 173 175 189 191 175 175 221 240 242 241 241 238 236 238 238 238 230 222 218 213 214 217 212 208 199 164 146 133 122 111 102 95 95 91 111 155 207 236 234 216 185 188 189 185 181 192 200 207 226 218 221 207 194 180 196 207 216 220 222 221 220 220 219 218 206 204 204 206 202 196 183 168 162 164 164 164 160 157 160 166 166 160 153 146 142 142 140 139 140 142 142 144 144 144 146 142 138 138 135 125 120 118 114 114 114 112 111 111 110 111 106 107 107 107 111 112 113 122 124 125 125 123 122 123 123 125 127 125 123 125 125 123 125 127 127 129 135 134 135 132 131 129 128 131 133 133 133 135 135 135 136 142 152 164 159 155 153 144 142 138 136 135 135 135 129 122 119 116 114 112 112 113 120 120 120 120 123 124 120 122 129 129 116 112 116 118 122 127 127 125 127 127 123 115 120 120 118 118 118 118 118 120 120 120 120 116 116 116 114 114 114 116 114 114 112 114 116 116 120 125 127 129 129 133 133 136 138 138 138 137 140 140 142 144 141 145 148 153 153 151 160 169 166 166 166 160 153 159 162 157 153 151 151 153 153 153 155 155 157 155 153 157 160 161 168 176 173 171 171 171 169 168 166 168 168 168 166 166 166 168 169
65 65 65 65 65 64 64 65 65 64 64 64 64 63 63 63 65 65 65 65 67 68 72 75 77 80 86 88 86 86 85 85 86 87 85 85 85 83 79 80 80 80 80 82 82 85 85 85 83 82 83 85 86 88 90 90 98 105 112 114 114 112 112 111 111 107 100 88 80 79 75 75 74 74 73 73 75 80 82 74 70 71 73 74 75 83 88 79 70 65 65 68 67 67 67 67 70 70 70 71 74 75 83 90 97 104 111 121 133 136 162 176 171 196 217 199 189 201 217 223 204 175 168 173 172 173 175 176 176 173 171 175 171 153 149 149 140 136 135 127 127 127 127 131 137 138 138 142 146 146 146 146 144 151 160 157 159 200 219 229 235 236 236 236 224 178 157 149 144 140 140 140 142 146 149 148 149 153 155 162 185 200 211 212 212 211 213 201 188 176 169 170 168 173 180 185 181 171 157 157 159 171 178 176 170 185 221 243 241 241 241 238 239 238 237 234 236 236 236 235 236 234 230 220 207 183 155 144 133 126 135 135 134 173 212 236 243 242 232 210 218 207 186 185 196 201 200 203 212 211 189 181 167 175 198 213 217 220 224 223 223 219 212 201 208 211 211 208 200 183 168 164 168 169 168 160 155 151 155 151 151 147 144 142 143 142 142 142 142 142 144 144 144 141 139 135 135 133 123 120 114 107 109 109 107 105 105 105 104 100 98 98 98 102 105 107 104 107 109 110 105 105 109 111 110 107 111 110 109 111 110 111 112 114 116 114 114 116 116 114 116 116 118 118 122 123 122 122 125 136 151 155 153 155 153 144 136 136 133 130 127 125 123 116 109 105 102 104 105 105 107 111 111 112 112 107 107 107 105 105 110 109 116 120 123 127 129 129 129 125 123 118 114 111 114 114 116 120 119 120 120 120 123 122 116 116 116 114 112 112 113 109 107 109 109 111 111 112 118 123 125 126 127 127 131 136 138 138 138 140 142 144 144 142 144 152 162 153 146 155 166 171 175 175 166 160 169 168 162 155 153 151 152 151 153 154 153 153 153 153 160 168 171 175 175 173 171 171 171 169 169 171 169 170 169 171 169 169 170 169
63 63 63 63 63 65 65 64 63 63 63 63 63 63 63 63 63 63 63 63 65 66 68 70 74 75 79 81 80 82 83 83 85 87 86 86 87 86 88 88 88 88 90 93 93 92 95 100 98 97 95 92 90 86 86 88 93 104 111 111 109 111 109 111 114 111 102 91 83 81 79 78 79 79 77 82 93 104 93 79 77 80 80 79 86 98 100 90 77 70 67 67 67 67 65 65 70 68 68 70 74 79 83 88 93 102 107 122 148 159 173 178 176 183 183 181 185 188 191 196 197 171 157 159 160 164 164 165 164 160 155 153 149 137 134 135 132 127 125 122 122 122 123 125 129 129 129 132 133 136 140 140 142 148 155 160 167 180 210 223 214 231 225 238 234 181 162 140 135 133 135 135 136 138 144 144 142 146 149 151 169 183 202 210 212 211 203 188 175 167 163 153 155 160 166 160 159 151 144 142 142 146 157 169 171 169 193 239 242 242 241 241 240 240 238 236 238 239 239 238 237 237 238 234 226 209 201 201 194 185 193 190 210 231 240 244 244 244 238 225 223 218 218 223 222 217 216 221 226 210 186 175 166 162 182 200 213 216 218 220 219 212 210 210 216 217 216 214 211 194 164 163 176 176 176 153 151 149 148 147 146 146 146 144 144 144 144 144 147 146 144 146 144 142 138 135 133 125 120 116 107 105 104 105 107 104 103 102 97 97 97 98 98 100 102 100 100 100 98 97 95 95 97 98 95 93 98 98 97 98 100 98 100 104 105 104 104 105 105 107 107 109 111 111 114 116 120 122 131 146 152 142 138 142 138 129 129 125 121 123 118 114 112 107 104 102 100 100 98 98 98 102 107 108 107 102 100 100 104 105 112 120 122 125 131 132 127 125 123 118 114 112 113 112 112 112 114 118 116 116 120 120 123 118 116 112 114 112 109 107 107 107 107 107 105 105 107 110 114 118 120 120 124 127 127 133 138 140 138 142 144 142 140 140 144 157 175 169 157 155 164 178 176 168 164 162 165 166 162 160 157 155 155 157 155 153 151 150 153 157 162 171 175 175 175 173 173 173 173 171 171 173 173 169 171 175 173 171 171 168
63 63 62 63 63 64 64 63 63 63 62 63 62 63 63 63 63 63 63 63 63 65 64 67 70 73 75 75 75 77 79 80 82 82 82 81 83 83 86 86 86 88 88 90 91 91 94 98 103 105 105 104 98 93 90 88 90 98 105 107 105 105 107 105 109 107 98 91 83 80 80 79 82 85 86 102 112 112 105 104 107 105 100 100 107 100 97 98 91 83 78 74 73 75 74 73 70 70 71 73 74 80 82 88 91 98 109 125 149 169 176 175 173 168 162 163 166 173 178 180 183 169 148 148 149 149 148 148 148 142 142 142 137 129 122 123 120 116 116 119 121 123 122 120 123 122 122 122 123 129 138 141 140 144 149 164 183 188 189 224 232 203 178 211 216 196 181 149 133 129 129 129 125 127 135 140 141 142 143 148 155 169 193 210 216 213 199 180 166 162 161 149 146 149 148 138 137 135 131 129 129 129 135 153 160 159 184 235 243 243 242 241 241 242 241 240 240 241 241 238 237 239 241 240 238 236 237 240 237 226 223 226 235 243 245 246 246 245 242 238 237 238 239 240 239 236 235 236 234 230 211 186 173 172 181 189 200 203 204 206 204 203 208 218 219 218 218 218 216 200 169 159 164 169 171 149 147 149 149 148 148 148 146 144 144 144 144 147 148 148 146 146 144 138 133 129 133 135 129 111 107 107 107 107 107 104 102 100 97 98 97 98 98 97 97 98 98 98 102 93 93 97 91 90 86 85 86 88 91 91 88 85 88 91 91 95 95 97 97 95 98 100 102 102 102 104 129 131 142 151 149 140 136 131 127 123 123 120 116 116 114 112 107 104 102 100 98 98 98 98 98 98 104 107 107 105 105 105 109 112 120 127 127 129 131 129 123 118 112 109 105 107 107 107 107 107 106 107 108 109 115 114 118 116 111 107 111 109 105 104 104 104 104 102 102 106 105 105 110 114 116 118 121 123 127 133 138 144 146 146 149 150 156 162 166 173 171 164 153 151 153 162 166 151 151 166 160 157 160 162 162 160 159 157 157 157 155 153 153 155 159 166 175 175 176 175 175 175 175 173 173 175 175 175 175 175 173 171 171 168
70 70 70 70 65 65 68 65 65 65 63 63 63 61 63 63 63 63 63 63 63 63 63 63 64 70 70 70 70 70 71 73 74 74 74 74 77 77 79 82 83 83 83 83 83 86 86 90 95 100 104 104 104 104 105 100 95 97 102 106 104 104 106 110 109 105 95 85 82 80 86 88 88 107 111 118 121 118 112 114 122 124 111 107 114 116 118 117 122 133 122 107 105 114 118 112 114 112 97 90 90 93 93 95 98 104 111 125 143 159 164 162 161 156 151 151 151 155 162 164 164 155 142 137 137 138 133 133 133 129 125 123 120 116 114 111 109 109 109 111 111 114 115 114 114 112 112 112 116 125 129 129 135 138 142 157 175 189 196 217 213 178 166 166 180 188 171 149 131 125 125 123 122 125 132 138 140 140 142 148 151 164 181 196 211 220 213 186 164 157 155 151 151 148 140 131 127 125 122 119 120 120 127 138 144 149 197 243 244 244 242 242 242 243 243 242 241 242 241 240 239 240 241 241 242 242 243 244 246 244 244 245 244 244 245 245 245 245 243 243 243 244 238 234 239 240 241 239 238 234 225 210 193 186 189 196 200 200 191 194 200 201 201 217 219 219 219 220 216 199 168 159 159 157 157 151 149 149 149 149 149 149 148 148 148 148 149 149 149 149 149 149 146 136 135 142 146 169 169 166 162 157 154 149 142 118 102 98 98 98 97 93 90 86 86 88 88 86 104 97 128 114 86 83 83 83 82 83 85 85 85 85 85 83 83 88 88 85 86 86 88 90 91 86 88 107 133 135 146 153 149 142 135 127 123 118 114 112 111 111 109 107 103 100 102 102 98 97 98 97 95 95 98 104 109 116 119 122 123 125 127 131 131 131 127 123 120 112 109 106 104 100 100 102 104 104 104 102 104 104 105 107 109 109 105 102 104 102 100 100 100 100 100 100 100 105 107 110 109 111 116 120 120 123 129 133 142 159 162 166 171 175 176 176 178 173 159 151 153 144 144 138 139 144 155 173 165 159 160 161 159 159 160 159 159 158 159 155 151 151 157 163 175 178 180 178 175 176 176 176 177 176 176 176 176 175 173 171 171 171
77 77 77 77 77 77 77 75 74 74 70 65 65 65 63 63 63 64 64 64 64 63 61 61 61 66 65 64 64 65 65 67 68 68 69 68 71 71 73 75 79 77 77 80 80 80 80 83 86 88 95 97 98 102 105 104 104 104 105 109 111 111 112 117 118 114 104 97 95 95 95 97 107 125 130 127 127 125 120 116 122 125 121 116 116 130 154 173 175 166 158 148 142 140 138 131 151 164 138 136 134 129 123 125 125 129 125 131 146 151 149 148 144 140 140 140 138 140 144 144 144 142 142 138 136 133 123 120 120 114 112 111 107 104 100 98 99 104 104 105 107 109 109 107 107 104 104 104 109 116 118 118 123 131 137 148 162 183 218 218 196 175 178 177 175 174 159 138 127 122 118 118 114 122 131 133 133 135 136 140 146 153 166 173 191 217 207 183 168 155 149 142 144 140 135 127 122 116 114 115 114 116 122 130 140 151 178 241 246 245 241 241 242 244 244 243 242 242 240 240 240 242 242 243 244 244 243 244 245 247 247 246 245 244 245 247 245 244 242 238 241 234 213 211 229 238 236 240 238 233 229 218 203 189 189 194 203 203 193 200 212 214 214 219 219 217 219 219 211 196 169 155 153 148 149 149 149 149 149 150 150 149 149 148 148 149 149 148 149 149 149 149 148 142 151 180 173 169 169 170 166 162 162 164 162 148 114 95 93 93 90 89 93 93 81 83 83 80 83 104 160 135 86 77 80 82 82 82 85 83 83 83 83 82 82 82 82 81 80 79 79 80 82 80 91 126 131 135 146 149 146 138 129 122 119 112 109 107 105 100 98 98 98 102 105 105 102 98 97 95 94 97 100 111 116 123 130 135 135 135 133 131 133 129 122 116 109 106 105 102 100 100 100 104 102 100 100 102 103 100 100 100 100 102 102 100 100 100 100 97 98 98 98 98 102 105 107 109 109 111 114 120 119 125 127 134 153 175 176 176 176 180 176 176 176 173 169 166 166 168 166 159 159 155 169 181 180 175 173 169 159 153 155 157 157 157 157 152 151 153 159 164 173 178 178 178 180 178 178 178 176 178 176 175 173 173 172 169 169 169
93 94 95 92 91 95 91 89 86 83 80 75 71 70 70 68 67 65 64 65 65 64 63 63 63 64 64 64 63 65 64 64 66 67 67 67 68 70 71 71 73 73 73 77 79 77 77 79 83 85 86 85 86 91 97 98 104 104 105 111 114 113 114 120 120 122 118 120 118 116 116 120 125 130 127 127 124 125 127 125 127 135 137 136 135 136 153 164 164 157 155 151 146 144 146 140 148 157 144 151 153 155 161 157 146 146 144 142 142 138 133 133 131 129 131 129 129 133 136 135 142 153 166 142 127 123 111 111 109 104 100 99 97 91 90 88 93 104 104 104 104 100 100 100 100 100 98 100 104 105 107 112 114 123 133 146 160 193 219 199 170 171 178 173 159 160 164 144 122 116 112 112 112 118 122 123 125 121 125 129 135 140 148 168 186 200 202 183 162 148 138 125 127 127 122 116 112 111 111 109 107 113 116 123 135 148 159 226 246 246 241 241 240 244 245 245 244 242 241 241 241 242 243 244 244 244 245 245 245 247 248 246 245 245 245 245 245 242 235 214 206 196 218 224 225 227 232 238 237 234 232 227 219 210 183 183 193 201 203 204 212 217 218 218 217 208 200 200 194 183 173 159 151 150 149 149 149 149 149 149 149 149 148 148 149 149 149 149 149 149 151 151 149 144 153 176 166 157 157 157 150 146 146 144 149 159 159 146 120 116 91 88 97 102 83 82 80 85 109 140 142 122 91 86 85 85 85 86 86 85 85 84 82 80 80 79 77 77 79 79 77 75 78 73 90 112 118 140 143 142 137 133 122 114 109 102 97 97 97 95 95 94 97 102 105 107 107 104 98 94 95 98 104 116 122 129 133 136 136 136 135 129 127 119 111 105 102 102 100 98 98 98 98 100 97 97 98 97 97 98 95 95 95 95 95 95 97 97 98 97 97 97 97 100 105 107 109 111 112 112 111 118 119 127 144 167 178 178 177 176 176 176 176 176 176 176 176 176 175 175 176 174 173 171 178 180 180 178 176 176 168 157 155 155 155 155 155 150 151 153 160 164 171 176 176 178 180 178 176 175 173 175 170 169 164 162 162 162 160 160
121 122 123 116 111 109 104 98 97 93 92 85 83 79 79 75 73 71 68 67 65 65 65 67 67 67 65 63 64 64 64 64 65 67 67 67 70 71 73 73 74 73 73 74 74 75 75 77 80 80 80 81 82 85 90 91 92 95 100 109 112 111 111 112 112 114 112 114 116 118 120 126 127 129 125 125 122 123 129 131 133 142 146 144 144 144 148 147 146 146 149 148 144 142 146 149 144 142 142 146 155 159 160 149 142 136 136 138 131 125 122 120 120 120 120 122 123 127 127 131 148 188 200 166 133 114 107 105 100 94 91 90 91 88 88 88 92 97 97 98 97 93 91 91 91 95 95 98 98 100 102 107 112 120 127 138 155 175 193 176 171 167 164 159 148 151 148 127 116 114 113 112 111 112 112 111 111 111 116 122 128 133 142 171 194 183 183 167 144 135 129 120 116 114 109 105 105 107 105 104 104 107 112 116 125 140 155 193 221 244 245 245 241 241 245 247 247 245 245 243 242 243 245 245 245 244 245 247 245 247 247 246 245 245 245 243 242 242 242 231 207 204 216 226 232 232 232 236 236 234 233 234 232 223 189 191 197 202 208 204 199 196 197 199 203 191 171 166 169 159 162 159 152 151 151 149 149 149 149 151 151 151 149 149 149 149 151 155 153 153 155 155 157 159 166 176 162 157 149 146 140 138 135 135 138 142 151 156 144 148 129 102 88 88 93 98 98 120 127 123 140 135 104 97 102 90 84 85 85 86 88 85 80 80 80 80 80 79 79 77 77 75 75 71 85 90 116 148 144 138 132 123 114 107 102 97 95 91 92 92 95 97 98 100 102 104 105 104 102 102 101 104 109 118 125 135 135 136 136 136 131 123 114 109 100 98 98 97 95 95 95 96 95 91 90 93 93 95 96 93 94 93 93 93 94 93 95 97 97 98 100 98 100 105 109 111 111 114 116 118 118 127 138 153 175 178 180 178 176 176 176 178 178 176 173 171 173 176 176 175 178 180 176 172 173 179 178 178 180 176 171 162 159 156 153 153 155 153 153 153 159 167 175 176 176 176 176 175 171 171 170 168 166 164 161 160 161 162 157 153
146 146 146 149 157 153 130 131 142 136 123 106 98 96 88 85 79 79 75 71 73 74 75 78 77 74 70 68 68 71 71 71 70 70 70 70 70 71 74 74 75 70 71 73 74 75 75 75 75 77 77 77 79 80 83 83 86 86 91 104 107 109 109 105 105 107 108 107 107 105 107 111 116 122 122 120 118 120 123 129 133 136 142 144 142 146 148 148 148 149 146 142 136 131 135 138 141 140 142 140 142 142 140 135 130 129 129 129 124 116 113 111 109 109 109 111 121 125 127 138 162 188 191 181 140 118 111 105 98 91 90 90 88 88 88 86 88 91 91 91 91 86 86 86 86 88 93 95 97 97 100 105 112 122 126 130 135 142 147 169 178 164 157 157 157 151 131 122 122 123 120 105 107 107 103 102 102 103 106 114 120 129 148 151 158 151 136 129 129 125 125 120 111 107 105 102 102 102 102 102 102 105 109 114 135 153 157 175 219 244 246 245 242 242 247 249 248 248 246 248 246 247 242 229 220 218 221 234 238 248 248 246 245 245 244 243 243 243 242 243 236 232 220 204 214 229 236 238 236 235 234 235 233 216 194 193 197 201 201 196 188 178 171 176 181 176 170 161 159 157 157 157 151 152 151 149 149 149 149 151 151 153 151 149 146 157 171 170 168 168 166 166 171 173 176 171 162 157 145 135 135 131 129 133 135 135 138 142 146 149 138 120 86 88 149 160 148 125 123 150 168 162 125 93 95 83 82 82 82 82 82 80 80 80 80 79 80 79 77 75 75 75 74 82 86 105 133 146 138 133 122 116 111 105 102 100 102 104 102 98 98 97 100 100 98 98 102 107 114 114 115 116 120 125 131 133 133 133 133 129 123 116 107 102 97 97 95 93 91 91 93 90 88 90 90 88 88 88 88 88 91 92 90 93 91 93 100 107 105 102 104 104 109 111 112 114 114 118 126 136 140 150 164 176 176 176 180 178 176 176 176 179 180 176 169 165 164 169 175 176 176 180 176 170 171 176 173 175 176 173 171 168 162 160 155 155 157 155 153 151 151 160 176 176 175 174 175 173 171 169 169 166 167 164 164 164 164 164 157 149
153 151 151 173 212 204 193 188 185 180 147 131 116 111 104 102 100 97 93 86 86 86 86 88 88 88 83 80 83 82 79 79 75 74 74 74 74 75 75 75 75 75 73 74 74 74 74 74 74 74 73 74 77 79 79 80 83 82 88 98 100 100 98 98 98 100 100 104 100 98 97 98 104 107 113 120 122 123 123 131 133 132 138 142 146 151 162 176 185 189 169 142 131 127 125 127 136 138 136 135 131 127 127 123 123 120 116 114 111 107 107 105 105 105 105 107 112 118 125 138 160 180 180 160 136 123 111 104 98 91 90 90 86 86 86 87 88 88 88 88 86 83 83 83 83 85 90 91 93 95 97 105 114 122 134 149 149 162 175 173 175 164 153 155 159 145 125 123 129 127 119 104 102 102 97 98 100 100 100 104 109 118 135 133 129 136 136 136 131 125 123 114 109 109 104 98 100 108 116 116 114 112 118 138 162 183 189 204 240 245 245 243 244 246 247 248 248 248 248 248 246 238 214 194 193 193 191 194 199 219 245 248 246 245 244 243 244 244 243 238 240 241 236 212 201 221 238 239 239 237 236 236 232 213 194 188 197 201 189 197 197 176 185 166 164 166 162 159 159 160 159 157 153 153 153 151 151 151 151 151 151 153 155 152 155 172 173 164 160 162 168 171 169 163 159 149 149 140 133 131 131 131 135 135 136 135 131 133 138 144 146 151 138 146 162 159 153 155 166 173 164 162 152 116 82 80 80 80 80 80 79 80 79 79 79 80 80 80 80 79 79 79 75 91 111 122 133 143 138 133 122 117 112 109 107 111 116 114 114 112 111 107 107 107 105 106 109 112 122 123 125 125 127 128 133 134 129 125 122 118 112 107 100 98 95 96 93 91 90 90 90 88 86 88 88 88 86 86 86 88 88 89 90 91 95 97 107 112 114 111 111 114 120 123 127 136 138 144 151 155 151 148 151 168 176 175 176 175 175 174 176 178 175 168 169 169 169 171 175 176 175 176 175 173 176 175 173 173 175 171 171 169 169 166 162 159 159 151 151 153 149 160 175 176 175 175 175 173 171 168 166 166 164 164 164 164 162 159 153 149
138 142 148 156 210 219 211 201 193 176 153 140 138 127 124 125 131 135 127 109 104 105 97 97 98 102 97 95 95 91 86 82 80 80 80 80 80 80 80 79 75 77 75 74 74 73 73 74 74 74 74 73 75 77 77 77 79 79 82 85 88 90 89 90 88 90 97 98 98 97 97 98 100 104 112 122 125 127 133 135 133 133 142 146 151 169 178 186 197 204 191 159 133 129 125 122 125 127 122 118 114 112 112 109 109 107 102 100 100 100 100 101 104 105 105 105 111 114 120 133 144 148 146 136 135 129 123 111 98 93 90 90 88 88 88 88 87 86 88 86 82 82 83 82 83 85 87 90 89 91 95 104 118 136 142 149 148 153 173 169 164 159 146 149 153 140 123 125 125 120 116 104 98 97 93 94 97 97 98 98 104 116 138 148 144 142 142 142 138 135 136 133 144 148 144 131 133 141 146 148 148 155 169 180 186 195 194 222 247 247 245 244 245 245 247 247 245 247 249 248 242 216 191 183 181 181 181 185 188 189 226 236 238 238 244 241 240 238 240 234 229 234 232 214 203 218 240 238 238 238 237 234 223 206 196 200 211 208 199 206 221 220 200 158 160 159 160 160 160 160 160 159 155 157 157 153 153 153 153 153 153 153 153 157 169 166 160 153 155 156 166 168 160 151 142 136 136 133 131 129 128 133 138 140 142 143 135 133 136 142 149 155 159 157 155 153 148 151 159 169 159 151 151 138 86 80 80 81 80 80 81 79 79 79 77 79 80 79 77 79 79 79 74 93 122 123 124 138 140 136 131 125 122 122 122 118 114 114 120 127 127 123 122 122 120 118 116 116 120 123 125 127 129 133 135 131 127 122 118 116 109 104 98 97 95 95 93 91 90 89 90 88 88 88 88 88 88 88 88 88 90 90 97 98 98 98 107 112 122 129 129 133 138 144 150 151 153 157 155 151 149 148 149 164 173 171 171 173 173 173 173 171 166 166 166 168 169 169 171 171 173 174 173 175 175 175 175 174 175 171 172 169 169 169 169 166 162 151 148 153 159 159 168 179 175 175 175 175 171 166 166 161 162 163 163 164 160 158 155 153
120 131 144 149 176 208 217 216 197 166 155 162 168 160 151 142 142 148 136 125 123 122 107 102 104 104 104 102 102 101 99 93 86 85 89 90 88 91 90 91 93 95 92 85 85 80 77 75 75 74 74 74 74 74 75 75 75 75 76 76 80 82 83 83 86 88 93 97 98 97 97 100 102 109 112 122 127 129 131 133 138 144 149 149 168 188 191 191 196 186 186 187 144 128 123 116 114 112 111 106 104 100 101 97 97 93 92 93 93 93 95 98 100 102 104 104 106 109 114 123 125 125 129 131 133 133 136 129 116 102 97 97 95 95 91 90 91 90 88 90 83 82 82 83 83 86 86 88 89 90 97 107 122 140 144 136 136 140 162 171 164 159 151 149 151 149 144 146 131 120 112 104 100 98 93 95 95 97 98 100 105 123 142 155 151 148 149 149 144 140 155 168 186 194 191 181 178 175 175 178 180 192 199 197 196 196 204 235 249 247 247 246 243 227 227 241 246 248 248 235 219 206 191 184 174 171 171 172 180 183 185 191 203 237 245 241 229 222 231 231 230 230 228 224 214 226 240 239 238 236 236 227 206 200 199 201 211 207 207 211 217 199 164 159 160 160 160 160 160 160 160 160 160 159 159 155 155 155 155 155 155 155 153 159 166 166 166 153 146 149 157 153 149 143 138 137 135 133 131 131 131 138 151 153 148 145 140 131 135 140 142 140 140 138 136 133 134 135 138 140 142 140 141 144 104 82 83 83 82 82 82 82 83 80 83 88 79 80 80 80 78 77 82 86 98 97 104 116 125 122 118 116 114 107 107 100 95 98 100 112 125 127 122 120 116 109 107 107 112 122 131 133 133 135 135 133 131 125 120 114 109 105 100 100 98 100 98 95 93 95 95 93 91 91 91 90 93 93 93 95 97 105 107 114 120 122 123 127 133 138 146 148 149 149 151 151 157 164 159 155 151 149 149 162 168 170 169 169 169 169 169 166 167 166 166 166 166 166 166 166 168 169 169 169 171 171 171 171 170 171 171 171 171 171 171 175 173 166 164 164 162 162 169 175 176 177 176 175 171 168 166 162 162 164 164 164 162 162 160 160
111 120 134 147 166 181 201 218 204 175 168 173 190 203 169 153 145 146 135 127 125 120 106 101 105 107 107 109 112 114 116 112 97 90 86 90 93 98 105 107 111 112 111 105 98 100 104 102 93 88 84 83 79 77 75 75 75 75 75 74 74 79 82 83 86 88 91 97 98 100 105 114 118 118 123 133 140 136 135 142 155 170 175 171 186 199 197 194 186 178 175 171 133 120 114 107 107 107 106 102 100 97 95 93 93 91 91 93 93 94 95 98 100 100 104 104 104 104 107 111 112 112 116 122 125 135 149 166 173 164 162 162 148 144 127 114 105 100 97 97 93 85 83 82 82 85 86 86 89 90 97 105 118 133 133 127 131 144 171 171 162 160 166 159 144 140 148 144 123 114 109 102 100 100 98 97 95 98 102 118 136 149 168 181 193 191 183 178 178 176 189 203 203 206 201 196 194 189 188 193 194 196 194 193 194 194 197 235 248 236 241 248 237 201 193 204 227 246 248 227 199 189 180 169 164 164 164 166 171 171 173 183 201 240 245 241 228 226 224 227 231 227 217 219 217 234 235 239 235 232 227 225 221 216 203 193 200 207 222 219 193 171 159 160 160 160 160 160 160 160 160 161 160 159 159 155 155 155 155 155 155 155 153 157 162 164 166 156 148 149 149 151 151 151 151 149 146 142 136 135 136 147 157 156 155 153 146 136 133 138 142 138 135 129 126 127 129 131 133 135 138 138 135 136 120 98 83 83 85 85 85 83 82 82 112 105 97 93 83 82 85 102 93 83 86 90 93 91 95 92 91 97 97 91 91 90 95 93 93 97 100 102 104 104 104 105 109 109 120 135 133 133 133 136 136 135 135 131 122 112 112 111 109 107 107 107 104 99 100 98 95 93 93 93 93 93 98 102 104 107 112 122 125 133 143 151 149 148 146 146 149 149 148 148 149 153 153 157 155 155 155 155 159 163 165 168 169 168 168 169 169 166 166 166 166 167 166 166 166 165 168 168 168 169 169 169 170 171 171 171 171 171 171 171 171 175 175 175 173 173 171 169 175 176 176 176 176 175 169 169 171 168 169 168 168 168 168 169 168 166
120 125 138 162 168 175 187 190 183 181 178 160 173 184 151 138 136 129 122 123 120 112 107 105 105 109 111 112 122 125 123 120 114 109 97 95 97 105 109 112 112 114 122 131 140 142 153 155 157 151 136 114 104 90 88 88 88 88 93 93 85 84 98 102 105 107 111 114 116 114 120 133 140 144 144 143 144 144 148 157 175 189 188 189 193 189 183 171 159 162 157 135 120 114 111 111 109 107 104 98 98 95 95 93 93 90 89 90 90 93 95 97 100 100 104 104 105 104 102 106 109 111 114 122 125 136 149 181 206 223 224 222 211 199 181 161 148 131 117 109 107 107 100 97 93 90 88 86 91 91 97 107 118 120 120 118 123 136 166 163 144 157 188 176 149 131 131 127 120 114 118 118 118 116 114 114 111 114 136 178 194 197 201 201 206 204 203 202 206 203 207 212 210 208 205 201 197 196 196 193 192 191 186 189 197 214 231 246 243 217 220 239 227 197 189 188 193 221 227 204 188 178 164 159 155 155 156 157 157 160 169 176 194 212 236 240 219 222 227 228 225 217 212 212 216 232 228 232 228 220 226 236 237 234 232 219 217 226 232 230 224 168 160 159 160 160 160 160 160 160 160 160 160 159 160 158 157 157 157 157 158 157 155 153 173 171 166 166 160 160 160 163 166 166 159 154 149 142 140 142 146 151 159 155 149 144 138 131 133 140 149 149 144 136 136 138 140 140 138 136 140 142 138 136 111 102 86 83 85 85 85 83 85 91 112 102 102 95 83 88 136 196 186 112 83 91 93 93 95 93 93 93 93 92 97 100 98 98 98 98 100 102 100 105 107 107 109 118 126 133 130 131 133 135 136 136 136 133 127 123 123 122 118 114 111 111 104 100 98 97 97 97 97 97 97 100 105 109 114 122 122 129 133 142 148 151 149 149 148 148 148 146 148 150 149 151 155 155 155 155 157 159 160 160 160 160 162 164 164 164 162 164 164 165 160 162 164 164 160 162 164 164 164 164 164 164 168 168 169 168 169 173 173 169 169 169 169 171 171 171 171 171 172 173 173 173 173 171 169 169 169 169 169 169 170 169 169 169 168 166
157 160 169 174 173 176 176 169 183 191 189 164 162 151 136 131 133 127 120 120 117 111 109 107 107 111 112 116 123 125 125 123 123 131 122 116 114 109 118 120 116 118 125 133 144 149 153 159 166 168 166 164 157 146 147 142 144 153 164 169 157 160 175 176 180 185 186 181 178 169 166 175 183 186 180 168 157 168 178 178 183 186 181 179 180 171 163 155 149 146 134 120 116 112 109 107 105 104 100 97 95 95 95 91 91 88 88 88 91 93 91 91 98 100 100 101 104 104 102 104 109 112 118 123 136 146 159 173 206 236 234 232 234 234 232 219 211 204 187 171 169 157 138 138 127 105 93 90 93 104 111 117 120 120 120 120 116 127 159 169 162 160 175 178 173 162 164 163 157 151 155 168 157 161 179 185 176 173 200 218 218 222 227 222 216 216 219 220 217 207 201 201 201 201 200 198 197 196 194 189 188 185 186 189 194 221 238 235 229 208 203 206 196 185 180 173 175 176 183 176 166 160 147 146 144 144 142 145 147 149 157 160 169 185 221 227 217 219 227 223 214 212 211 213 221 230 228 231 213 227 243 242 241 240 237 237 238 235 234 236 235 193 153 160 160 159 160 160 162 161 160 161 160 160 160 160 159 159 158 158 159 159 157 162 213 218 216 189 166 166 168 168 168 164 159 149 144 142 146 148 149 155 159 153 146 136 131 135 146 160 181 180 168 156 151 155 151 142 157 159 148 135 142 136 98 90 85 83 85 85 85 85 88 98 100 93 85 85 98 98 144 208 214 180 98 91 95 95 95 95 98 100 100 102 107 110 111 107 107 105 107 109 111 111 111 111 114 121 127 129 131 131 133 135 136 136 136 136 135 134 127 120 118 114 111 109 104 100 100 98 97 100 101 104 105 114 116 122 127 132 135 140 142 146 149 151 149 149 148 148 148 148 149 151 150 153 155 155 155 155 157 157 159 159 154 151 151 157 157 155 153 157 159 157 155 155 157 160 155 159 160 160 160 160 164 164 165 164 166 164 164 164 166 166 166 164 165 169 169 169 169 169 168 168 168 168 166 168 168 168 167 165 166 166 166 164 166 168 166 164
159 160 168 186 188 188 180 171 159 168 176 149 138 135 136 139 136 127 122 112 112 110 112 109 109 111 111 114 120 125 125 125 130 135 138 140 142 131 123 120 122 122 120 129 138 144 149 155 153 155 157 159 164 169 175 168 166 175 186 194 198 203 207 206 208 214 219 217 212 212 218 218 207 207 217 224 227 217 203 188 176 176 169 168 166 164 157 148 144 142 135 123 114 107 100 100 100 98 97 98 93 91 93 91 91 91 91 91 93 95 95 93 97 102 100 104 104 107 108 111 114 123 133 144 164 189 207 208 221 236 241 242 243 240 238 238 237 234 228 224 220 189 188 180 162 131 105 100 100 111 118 122 122 120 120 118 114 122 146 166 181 191 181 176 182 189 199 213 207 197 200 211 204 207 220 232 227 219 223 226 223 224 229 227 224 222 222 217 200 198 193 193 194 194 193 194 196 196 193 186 186 186 186 186 193 203 213 210 204 193 183 181 181 169 164 160 159 164 169 155 140 137 136 133 132 131 134 133 135 135 135 138 148 169 194 203 207 208 220 216 217 222 223 224 225 225 227 227 225 238 239 234 237 241 236 235 232 237 238 235 232 225 203 160 159 159 159 160 162 162 160 160 161 160 160 160 160 160 160 160 160 160 155 171 208 207 206 197 168 165 166 164 160 159 159 155 153 155 155 153 151 159 157 151 149 151 157 175 178 189 191 183 171 169 166 159 149 160 194 196 186 144 120 127 95 91 90 90 90 90 91 88 90 83 118 191 176 149 186 191 204 221 220 218 193 118 93 98 97 97 103 111 114 119 118 116 120 121 120 121 120 120 118 116 123 127 131 131 136 138 134 135 135 140 140 144 142 136 133 131 127 122 118 112 109 109 110 109 107 107 111 118 123 125 125 125 126 131 133 135 140 146 148 148 148 148 148 148 145 146 146 149 153 155 155 155 154 155 154 155 155 155 157 157 151 151 149 146 146 148 148 151 154 151 151 151 153 155 155 155 157 157 158 159 160 160 162 159 159 160 160 159 162 164 162 160 162 162 162 162 162 162 162 162 162 162 162 162 162 161 159 160 160 157 157 155 155 155 157 153
151 160 173 201 203 206 207 171 142 148 157 133 133 138 144 146 140 129 120 111 105 104 104 105 105 109 112 114 118 121 120 122 129 136 140 142 144 142 135 129 135 138 138 148 148 146 149 153 149 148 149 153 159 162 168 171 173 176 180 185 191 197 204 201 204 204 207 206 201 201 210 217 216 214 211 216 217 191 185 171 164 157 151 151 149 145 140 135 135 132 129 127 120 109 98 98 100 98 97 95 93 93 93 95 95 98 100 100 100 98 100 100 104 105 107 111 116 120 127 133 137 144 159 180 206 234 240 238 241 242 243 242 235 224 230 234 236 237 237 238 237 216 193 204 185 149 124 114 115 114 112 116 121 123 120 122 125 131 151 178 208 217 224 222 213 207 211 226 234 231 230 232 231 226 230 231 225 219 223 226 227 227 226 226 222 213 212 200 188 191 193 193 189 191 193 194 196 194 189 188 186 185 185 185 188 193 196 196 188 178 169 164 164 159 150 146 140 148 144 127 120 118 122 123 123 123 123 125 120 120 122 125 129 148 174 189 194 196 219 222 223 224 223 225 226 225 224 218 223 235 234 232 229 232 230 227 222 230 235 238 236 234 228 189 164 162 159 160 164 164 162 162 161 162 162 162 162 160 160 162 160 159 169 186 196 191 186 180 189 208 212 204 201 199 175 164 155 157 158 153 151 159 159 151 153 173 183 199 191 188 183 172 166 166 159 157 183 204 205 203 196 183 112 90 90 91 93 95 93 93 90 93 93 102 207 231 229 231 220 208 219 223 222 219 216 168 98 99 102 104 107 114 116 122 123 128 129 131 129 131 131 131 136 140 142 144 146 146 148 149 151 151 151 148 148 149 146 136 135 131 125 120 118 118 120 120 122 123 130 141 151 155 151 148 148 144 145 144 142 144 146 148 148 148 148 148 148 148 148 151 149 151 155 156 155 155 155 155 155 155 155 155 153 153 153 151 149 149 148 148 149 151 153 151 151 151 153 153 153 151 153 153 153 153 152 153 151 151 151 151 153 153 153 153 153 155 157 157 160 159 157 157 160 160 159 160 162 160 159 155 153 153 153 151 149 148 149 146 146 144
151 164 186 193 192 197 188 162 140 138 140 135 129 133 135 138 138 133 127 114 98 95 97 98 100 102 107 109 112 112 111 116 125 132 136 135 138 138 138 140 143 144 146 144 142 140 142 146 146 144 146 149 155 159 166 169 174 176 176 176 183 186 190 194 197 197 196 197 197 194 197 200 206 211 214 204 194 181 166 158 153 144 142 142 136 136 136 133 125 123 123 123 123 120 109 107 104 104 104 102 100 100 102 107 107 107 107 110 106 107 107 107 109 109 116 122 135 148 165 173 178 180 201 208 234 245 244 243 245 244 244 242 238 236 235 236 239 239 240 240 240 231 214 206 185 164 148 148 146 135 131 133 136 140 138 140 148 166 183 200 221 228 234 235 234 234 236 236 237 236 236 235 228 224 227 218 214 213 216 218 218 222 218 219 211 193 189 186 186 189 194 194 194 194 193 191 191 190 185 185 181 181 181 185 185 185 186 180 168 159 151 148 151 146 136 133 127 127 122 112 112 112 112 112 114 114 114 114 112 112 116 122 129 135 157 171 185 199 223 224 224 225 225 225 220 225 226 210 213 227 232 232 231 229 227 221 219 219 219 233 238 237 227 201 171 168 171 164 162 162 162 159 157 160 162 164 162 164 164 164 162 169 183 192 194 189 181 176 176 193 213 228 237 236 227 220 199 175 180 158 146 149 148 142 160 180 179 191 188 180 173 164 162 162 164 183 206 204 210 207 199 200 171 116 112 97 87 95 95 95 144 111 100 136 204 225 230 233 232 229 227 225 224 224 223 181 127 116 106 109 107 107 109 112 118 122 122 125 131 131 133 133 129 131 132 136 140 142 145 142 146 149 148 148 146 148 144 138 138 136 133 131 135 140 135 133 135 144 151 158 160 159 159 159 159 157 155 148 151 151 148 146 148 146 148 148 146 148 153 153 153 155 155 155 155 151 151 151 151 151 148 148 146 146 149 148 146 148 148 148 146 146 146 146 147 146 147 146 145 146 140 138 135 135 133 132 133 133 133 133 137 139 140 143 144 149 151 149 149 148 149 149 148 148 148 148 149 146 144 146 146 146 146 144 144 140 138 140 140 136
171 167 173 171 171 186 171 153 140 136 140 138 123 124 125 125 125 127 129 119 100 95 93 93 95 95 97 106 107 105 107 110 116 118 122 125 127 131 133 135 136 136 136 134 135 135 135 137 136 136 138 144 151 159 168 171 175 176 178 178 178 178 181 181 184 186 188 193 196 193 194 197 200 206 210 203 194 173 159 157 149 142 140 140 144 144 144 142 136 129 127 127 127 129 135 135 133 137 131 122 118 118 122 128 113 107 111 112 111 111 109 112 112 112 122 131 148 160 175 189 197 207 213 204 223 236 233 234 242 244 244 245 242 241 240 240 242 243 243 242 240 233 227 210 199 188 186 186 170 164 164 159 162 172 175 176 175 193 205 221 227 226 226 227 233 235 238 239 237 237 237 223 207 210 204 204 207 207 206 203 208 212 211 210 200 186 181 180 183 185 191 191 186 180 179 180 181 181 181 178 176 175 176 178 176 169 166 162 151 142 138 140 138 133 126 116 114 111 107 102 100 102 102 104 107 109 109 109 109 112 114 120 131 141 157 162 175 194 220 226 226 225 219 213 211 216 216 208 206 218 231 233 229 226 226 225 219 216 212 210 222 222 217 222 218 216 200 160 160 164 168 189 199 197 169 164 168 166 166 164 169 185 194 194 194 189 183 172 168 176 208 231 235 237 237 237 233 217 226 207 212 207 186 181 180 181 176 178 174 168 169 166 164 162 168 191 201 206 213 207 205 207 214 217 216 168 97 95 96 102 185 148 153 213 213 222 230 234 234 232 228 228 227 227 228 220 185 148 116 116 120 123 125 107 112 114 114 121 129 140 169 168 146 127 125 127 131 133 133 136 137 138 138 140 140 144 144 146 146 144 142 140 144 148 144 142 148 157 158 155 151 151 153 155 155 153 149 146 146 146 148 146 148 148 148 148 148 149 153 152 151 149 149 151 148 142 142 142 142 144 142 142 140 140 140 140 138 140 141 135 134 133 131 131 131 133 131 127 127 125 122 118 114 114 112 114 118 119 118 122 125 131 135 136 136 131 129 129 131 131 131 131 133 135 135 129 127 131 135 136 136 138 138 136 138 133 131 136 138 130
210 206 201 189 175 186 173 155 146 141 144 140 120 116 116 116 112 114 120 116 107 102 100 93 91 91 91 97 100 102 102 104 107 109 111 116 122 127 125 122 123 127 129 129 129 130 129 127 127 127 131 136 144 155 164 169 173 175 176 176 175 173 176 180 183 181 185 188 195 196 199 201 203 206 207 205 194 176 162 167 162 155 151 153 159 160 159 160 162 161 159 160 157 160 182 183 185 193 188 180 178 178 166 156 133 117 112 111 109 107 105 107 111 118 130 136 148 159 171 186 193 196 200 194 196 199 201 205 219 223 225 229 234 237 236 235 238 242 242 242 239 234 227 207 206 201 206 206 199 191 186 178 178 178 183 199 206 214 219 225 225 216 208 207 217 219 221 232 234 237 234 218 203 186 185 194 197 193 189 193 201 208 196 193 188 183 180 178 180 181 175 162 160 156 155 159 162 168 171 169 169 168 160 157 151 144 140 138 136 129 129 128 122 114 109 100 98 96 97 97 97 97 97 98 104 104 107 109 112 118 122 123 131 142 155 166 173 178 200 213 212 211 211 207 210 208 206 203 196 208 222 220 219 225 225 220 213 203 196 195 203 210 217 227 230 229 208 176 180 159 208 235 232 232 211 168 169 168 162 160 188 210 214 205 197 191 191 186 183 188 213 233 237 238 238 241 238 231 230 227 226 225 227 228 211 186 183 184 173 169 169 168 168 163 166 189 221 220 216 212 224 227 229 227 225 221 191 112 95 95 139 191 213 227 222 222 230 232 231 229 230 231 226 226 229 227 219 199 149 148 180 196 180 125 107 109 111 114 118 129 178 180 171 149 159 146 144 146 146 136 135 135 136 138 140 145 144 147 144 142 144 140 138 137 138 140 140 136 136 136 136 136 136 136 136 136 135 136 136 140 144 142 146 146 146 148 148 149 148 148 144 138 136 137 137 136 136 136 133 129 129 129 129 129 125 125 122 123 121 116 116 114 111 109 109 107 105 104 104 104 105 102 105 107 107 106 104 107 107 109 109 111 111 112 114 118 118 120 123 125 129 129 131 133 133 133 135 135 138 140 138 138 137 140 140 136 136 140 138 129
207 207 204 200 191 181 168 155 149 140 135 133 120 112 107 105 102 105 107 107 107 105 104 98 93 91 88 86 88 90 91 95 98 100 102 107 112 116 114 114 120 122 123 127 129 129 123 116 118 121 125 127 135 146 149 157 162 168 169 171 175 174 173 176 177 178 180 185 194 196 200 204 207 207 206 206 206 201 189 181 180 178 178 174 176 181 185 186 189 196 197 200 203 202 207 211 207 206 204 201 201 198 186 170 149 129 112 105 102 104 102 102 104 114 125 140 156 160 168 181 185 181 179 180 186 191 196 210 222 219 218 218 219 224 227 227 234 238 236 233 235 232 224 212 200 199 203 204 203 201 197 193 191 186 188 197 201 206 206 207 208 201 196 191 196 204 206 223 225 224 216 206 189 181 185 190 188 183 181 188 193 199 185 178 180 181 178 177 176 171 153 142 142 142 140 144 151 159 160 159 159 151 140 136 133 127 125 120 122 122 120 114 104 98 93 93 93 91 91 93 98 99 98 100 104 104 105 111 120 125 135 138 136 142 151 157 168 176 186 191 196 195 196 203 208 207 200 193 189 197 201 200 203 219 220 208 204 200 186 185 188 203 214 216 225 226 224 227 229 201 224 238 237 236 232 189 164 160 172 186 186 210 219 214 208 207 208 207 211 213 228 238 237 238 238 241 236 232 232 229 225 229 227 228 225 210 186 175 166 168 171 171 171 168 165 168 197 219 220 227 233 232 231 227 224 223 214 178 111 104 192 218 227 225 219 219 227 227 227 227 230 230 229 227 227 222 218 206 178 186 206 208 201 183 157 129 153 151 117 127 169 182 178 168 169 168 171 171 173 163 136 133 133 138 136 135 133 129 128 129 127 128 125 125 125 125 122 120 118 120 122 123 127 129 130 130 131 133 133 135 138 138 140 140 144 144 142 140 135 133 133 131 131 129 125 123 123 123 120 116 113 112 111 111 111 109 105 105 105 107 107 105 105 105 105 105 104 100 102 102 104 104 107 105 100 100 102 101 104 107 107 111 110 116 122 127 133 133 129 129 133 133 133 138 140 140 142 146 146 144 140 140 142 142 140 140 135 138 138 131
203 190 173 163 157 151 140 136 133 127 120 118 112 105 100 100 100 95 94 95 93 95 95 93 90 90 86 82 83 85 85 86 90 90 93 98 102 107 109 109 113 112 114 118 123 123 118 116 116 118 122 123 122 127 133 140 146 151 151 159 166 164 164 166 166 169 171 177 186 189 193 197 200 200 201 203 207 208 207 201 199 199 196 196 196 196 201 204 199 200 201 204 210 212 213 210 210 211 207 204 206 206 201 159 142 138 117 105 98 97 97 98 104 112 118 129 153 160 171 181 183 180 181 191 199 201 207 221 232 231 236 238 234 227 221 218 217 232 233 227 226 227 223 223 222 217 213 212 216 213 207 203 197 193 191 191 189 186 186 185 185 187 186 189 197 203 208 213 208 197 194 183 180 183 186 189 185 180 180 178 183 181 173 169 171 176 176 168 161 149 138 129 127 125 125 136 144 149 150 146 136 133 123 118 114 111 105 100 100 100 101 97 91 90 91 93 93 93 91 93 97 100 100 105 107 107 109 114 118 123 126 131 134 137 148 151 159 169 178 185 180 178 180 192 203 201 197 188 188 191 193 193 196 207 199 194 197 197 189 185 178 188 203 208 206 200 200 221 228 227 234 238 239 239 235 216 183 208 228 233 223 207 214 216 214 212 211 208 223 234 236 235 236 238 238 240 238 237 227 230 227 219 206 224 226 226 200 176 168 168 171 171 171 168 164 162 169 207 225 232 232 231 230 227 223 222 214 213 166 164 216 224 229 230 222 217 220 225 225 227 229 230 231 229 223 218 218 207 166 169 203 201 200 203 204 199 210 207 166 158 178 185 183 175 168 168 171 171 171 160 131 129 129 137 125 120 120 116 112 111 111 112 118 117 114 112 111 114 114 116 116 120 123 129 131 131 131 131 129 131 133 135 133 133 133 133 131 127 125 122 122 122 122 118 112 111 109 105 105 105 105 105 102 102 102 102 102 104 105 104 105 105 104 106 105 105 105 105 107 109 111 111 111 111 109 111 111 112 118 123 125 127 127 129 133 136 140 142 140 144 144 142 140 144 146 146 146 148 146 144 140 143 143 142 142 144 140 140 140 136
183 166 155 148 136 131 127 123 120 114 109 107 102 97 95 95 91 90 88 86 86 86 86 86 87 88 86 86 83 82 85 86 86 85 86 88 93 98 104 101 99 102 104 107 109 109 109 111 112 114 116 118 118 120 122 127 129 133 136 142 148 151 153 151 151 155 160 168 176 180 185 186 185 186 191 194 200 203 203 204 204 200 199 200 199 199 203 210 214 212 206 203 207 210 211 207 214 218 212 207 207 208 212 187 149 144 125 107 93 93 95 98 102 111 123 138 160 188 196 199 199 203 206 218 222 219 225 234 237 238 240 240 235 236 238 234 231 232 231 225 225 227 227 227 227 225 221 217 219 217 206 206 196 185 185 183 178 176 173 175 194 207 210 210 211 207 207 210 217 207 189 181 180 181 185 185 185 180 171 172 176 180 173 166 162 162 160 153 138 131 127 123 120 120 125 133 136 136 135 127 122 116 114 114 112 107 102 100 95 90 90 90 86 88 90 90 91 90 90 91 91 93 97 104 107 109 109 109 112 118 120 122 125 131 138 144 149 159 169 173 168 173 178 189 200 197 197 197 193 193 193 194 193 193 186 186 189 189 180 173 171 180 191 191 181 189 197 204 208 219 226 231 233 235 234 230 221 226 235 232 221 211 201 206 212 212 213 217 225 229 230 234 234 239 237 235 239 230 227 219 197 191 186 206 224 214 213 196 185 180 176 175 169 164 164 159 159 193 219 227 229 228 230 228 225 221 214 210 199 194 213 225 228 231 224 220 220 223 224 226 228 230 232 227 222 219 212 191 159 179 196 194 196 199 207 218 218 208 189 175 183 191 188 179 175 171 171 173 173 160 125 133 141 137 111 107 107 108 107 105 106 105 109 110 111 112 112 112 114 114 116 118 120 122 122 123 123 119 120 120 122 122 123 124 118 118 116 116 118 116 116 112 109 109 110 108 107 105 105 105 105 105 104 104 104 104 104 104 104 104 104 104 104 107 108 109 107 111 114 114 118 120 123 122 122 127 127 129 135 136 138 140 140 136 136 140 142 142 142 147 148 144 140 140 142 142 144 142 142 142 142 142 142 144 144 146 144 142 142 142
193 175 174 159 144 131 125 116 112 107 104 103 100 97 95 93 88 88 86 85 83 83 83 88 90 90 90 88 86 83 84 83 85 85 88 88 86 90 93 93 93 95 97 100 100 102 102 104 104 105 105 104 109 111 112 116 120 123 127 129 131 135 135 135 136 140 144 155 164 169 169 169 169 173 178 181 183 189 197 199 199 197 194 194 194 197 200 204 210 213 208 204 207 210 213 210 210 212 212 207 206 208 212 213 201 180 169 153 123 104 95 97 100 108 131 169 190 217 219 221 227 232 232 235 236 236 240 240 239 236 236 236 235 236 240 234 230 231 229 225 225 227 229 230 225 219 217 216 216 204 196 200 187 175 175 176 173 171 176 200 222 231 232 232 220 210 216 211 218 218 204 186 185 183 180 181 183 175 164 168 174 175 173 169 160 149 143 138 129 124 122 120 118 118 123 125 125 122 118 116 112 109 111 114 111 109 102 100 95 92 90 90 88 88 90 88 88 90 90 88 88 90 91 95 99 100 104 104 109 111 116 115 120 125 135 140 145 153 162 164 162 168 175 186 191 191 199 197 189 189 193 196 191 181 178 181 180 176 166 160 168 173 175 173 176 186 188 191 200 218 224 222 217 219 226 221 203 191 206 209 203 200 196 200 207 214 219 220 221 222 218 225 229 232 230 227 223 219 207 185 180 175 176 190 208 204 201 189 186 181 176 168 164 162 162 157 155 171 186 176 207 229 230 227 225 221 217 203 193 188 201 218 224 230 228 226 224 222 224 226 228 230 229 222 218 217 181 151 180 194 185 183 189 200 207 215 214 200 185 175 180 185 180 175 176 175 171 171 172 162 136 147 146 138 118 102 104 104 105 105 107 107 107 107 109 109 109 110 112 114 114 116 118 113 112 111 109 109 110 109 107 105 107 107 105 107 107 107 107 107 107 107 107 109 108 109 109 105 105 105 105 105 104 104 104 104 104 104 104 104 104 104 104 107 107 107 107 109 112 112 116 116 122 125 127 133 135 136 138 140 140 142 140 135 135 138 140 140 138 135 134 131 127 129 135 135 136 138 138 140 140 140 140 142 142 142 142 140 140 140
223 220 218 207 178 157 162 160 142 131 117 111 102 98 97 91 94 93 91 90 88 90 90 91 93 96 95 97 93 90 90 90 91 91 91 91 88 90 91 91 95 98 101 102 102 104 100 100 100 100 100 100 102 104 102 105 109 114 119 120 122 120 120 118 118 122 127 127 136 146 149 145 149 153 159 162 168 173 183 189 188 188 183 185 188 189 194 197 201 208 208 206 207 207 210 203 201 206 206 204 204 207 210 211 212 212 212 206 193 169 151 129 129 133 155 199 219 230 231 232 234 237 240 242 239 236 239 239 236 234 232 232 234 236 236 228 229 229 227 226 227 229 227 219 214 214 212 211 207 191 188 189 180 173 171 198 214 218 222 228 232 233 231 232 222 217 227 224 224 222 214 191 185 176 171 172 171 166 164 173 178 176 174 166 151 142 134 129 123 122 118 116 114 114 114 114 111 109 109 109 109 110 111 111 105 104 98 98 95 95 92 91 90 90 90 88 86 88 88 90 91 90 91 91 95 100 104 109 112 116 118 123 127 135 138 140 142 146 149 151 157 160 166 180 183 183 192 188 186 189 189 189 186 185 185 181 177 175 175 176 176 173 171 175 180 181 181 181 193 207 214 216 212 213 213 206 188 179 185 197 207 213 218 213 208 214 217 217 218 218 212 216 229 227 227 231 227 204 180 176 170 166 171 181 183 180 178 175 169 169 168 162 160 159 159 157 155 149 149 146 169 213 224 221 218 213 204 188 185 183 183 210 219 224 227 227 223 221 223 226 227 227 226 219 219 220 216 210 194 186 186 180 189 199 207 211 208 200 188 176 169 166 168 180 183 180 171 169 175 169 157 155 140 127 118 105 105 105 105 105 107 107 105 105 103 104 105 105 107 107 105 105 105 104 104 104 104 105 105 105 105 105 105 105 104 107 105 107 109 107 105 107 109 109 109 109 108 105 105 105 105 105 105 105 104 104 104 104 104 104 104 104 104 104 102 105 107 109 111 109 116 118 122 133 133 135 136 136 136 135 135 131 125 127 127 126 129 131 127 121 125 127 129 135 136 136 135 136 138 138 138 138 138 138 138 139 138 138 138 138
224 225 224 224 218 214 214 208 173 148 131 122 112 109 104 102 104 101 98 97 93 91 90 93 93 91 91 90 90 91 91 91 93 95 95 95 92 93 95 97 98 102 104 107 107 104 97 97 98 98 98 98 98 98 97 98 100 104 105 107 109 111 111 107 105 107 109 112 114 115 122 123 131 136 140 142 149 157 168 175 176 175 173 180 186 189 191 193 197 200 207 208 207 207 203 199 197 200 197 201 206 206 207 206 208 212 213 219 219 216 216 211 202 201 206 216 226 231 234 237 238 241 243 245 244 241 242 242 234 230 228 231 233 230 225 226 227 226 227 226 227 226 220 212 212 212 211 210 197 188 191 189 183 189 204 225 232 233 233 233 231 230 226 230 235 234 231 225 229 223 208 193 180 171 169 165 157 155 159 166 173 173 164 155 148 138 132 127 120 116 112 109 105 108 105 105 102 104 105 104 105 105 105 105 100 98 95 92 93 93 93 91 90 90 90 88 89 88 88 90 90 90 91 95 98 105 109 112 118 125 131 136 140 144 142 142 142 142 144 146 149 151 157 171 175 175 181 185 186 188 185 178 180 181 180 180 178 178 178 181 181 176 175 174 176 181 180 180 186 196 194 191 194 201 203 200 193 194 194 194 207 224 229 220 210 208 210 208 204 200 204 199 208 218 227 232 226 194 173 167 164 166 168 166 157 152 155 153 159 159 159 159 160 157 153 151 151 153 148 146 153 169 208 216 201 190 186 178 176 180 194 211 214 221 223 222 218 220 226 226 227 227 222 219 214 207 208 213 204 188 191 196 199 202 207 208 207 207 189 175 169 169 173 180 181 180 178 175 173 169 157 146 133 122 114 107 107 105 105 105 104 102 102 102 100 99 102 100 100 100 100 100 100 99 100 102 104 105 105 105 105 105 105 106 105 107 107 107 109 107 105 109 108 109 109 109 109 105 105 105 105 105 105 104 102 104 104 104 102 104 105 104 104 107 107 109 114 118 118 116 122 123 129 135 133 133 133 131 129 125 123 122 120 123 123 122 122 123 127 125 127 129 135 138 140 140 137 138 138 138 138 138 138 138 136 135 135 138 138 137
220 221 222 222 223 222 217 200 175 159 155 143 133 138 135 123 116 111 107 101 95 91 90 90 90 88 86 86 86 86 88 91 90 93 95 95 95 95 100 104 105 107 109 109 104 102 98 95 95 95 93 91 93 95 95 95 97 98 100 100 100 97 97 97 97 98 100 104 107 111 112 116 125 140 151 148 140 151 160 171 175 173 175 178 186 189 188 188 197 200 207 206 201 201 202 197 193 194 196 197 199 201 201 201 203 210 215 221 227 230 233 232 231 231 231 231 232 234 237 241 241 242 244 245 245 244 245 245 232 227 227 228 225 213 218 222 225 225 223 222 224 222 221 217 214 212 210 206 194 199 207 206 203 208 224 233 234 236 234 233 228 227 226 228 233 231 223 218 220 213 194 181 169 166 164 157 155 157 162 166 176 175 160 149 144 135 127 116 112 109 104 100 100 100 100 100 101 100 100 100 100 102 97 97 97 95 93 87 88 91 90 90 86 86 86 86 88 86 87 90 90 93 93 97 103 105 111 115 120 124 135 138 144 149 148 142 142 142 142 146 145 146 149 160 168 175 180 183 183 178 171 168 168 169 171 176 176 175 175 176 175 171 169 168 171 176 180 180 185 189 185 178 185 194 197 196 196 196 193 196 204 213 219 217 210 206 201 194 189 185 185 185 193 210 217 211 188 171 168 164 158 157 155 149 142 140 142 144 149 149 151 153 155 153 148 148 149 155 160 159 164 180 197 200 186 181 176 169 168 188 206 212 214 218 212 210 210 219 230 227 225 227 224 216 212 210 208 207 208 208 211 216 207 201 208 208 208 210 193 178 175 178 181 181 181 178 175 171 169 162 140 118 114 114 111 109 107 105 104 104 102 100 98 97 100 100 100 100 100 102 104 105 104 104 104 104 103 105 105 105 105 105 105 105 105 105 109 109 109 107 105 107 107 108 107 107 107 107 107 105 107 109 105 104 104 107 107 107 106 111 114 114 114 120 125 125 129 129 128 125 125 125 129 130 125 122 123 123 123 122 122 122 122 123 123 123 125 127 127 129 133 133 136 138 140 140 138 138 138 138 138 137 136 136 136 136 136 138 138 138
219 221 220 221 222 219 212 197 194 200 191 175 175 166 148 129 123 116 114 107 101 97 91 88 87 86 85 88 86 84 86 85 88 90 91 97 100 107 112 116 116 118 121 120 112 104 97 93 91 88 89 88 90 91 91 90 89 88 88 90 90 90 90 91 93 97 97 100 105 111 114 122 135 151 162 162 159 172 179 180 180 178 175 178 181 181 181 188 204 206 200 197 194 194 196 194 194 194 195 191 194 194 194 196 200 207 214 220 222 224 229 232 232 232 232 232 233 235 238 241 242 244 244 244 245 245 245 242 228 224 223 221 208 201 207 216 221 220 218 220 224 222 220 217 213 209 206 203 201 213 220 220 222 221 221 227 232 231 227 229 222 221 223 223 224 219 214 217 210 193 178 164 157 157 149 146 155 164 166 166 168 166 159 143 135 122 114 109 104 98 97 96 95 97 97 98 98 98 98 98 97 91 90 90 90 90 90 90 88 88 88 86 85 85 86 88 88 88 90 90 90 95 95 97 100 102 107 111 117 125 135 140 145 149 148 142 138 138 137 142 146 146 146 155 166 173 175 175 169 162 159 159 162 164 170 171 173 168 168 168 166 164 166 168 169 171 175 178 185 188 186 181 188 197 196 194 194 196 197 194 200 199 199 201 203 201 196 181 176 173 173 175 185 196 201 191 169 161 159 155 149 144 142 138 136 136 138 142 144 146 149 149 148 146 148 149 153 173 185 189 185 186 189 184 175 173 164 159 162 189 206 214 213 211 208 204 212 224 232 229 225 226 227 214 188 188 191 194 204 211 210 212 206 199 208 211 208 207 194 183 178 180 181 180 176 171 166 166 164 153 129 111 111 111 109 107 107 104 104 104 102 100 100 100 102 102 102 102 102 102 104 104 104 104 104 104 104 105 105 105 105 105 105 105 105 107 109 109 107 109 109 111 109 110 111 112 111 111 111 109 111 111 109 112 114 116 120 122 122 125 125 129 132 131 133 131 131 125 123 123 122 122 122 122 118 118 120 120 122 122 123 122 123 131 131 131 133 136 135 136 136 136 140 140 142 140 140 139 136 138 140 138 136 135 136 138 138 138 138 138
214 214 214 217 218 214 208 207 207 208 199 191 188 176 153 135 127 120 114 111 107 104 98 95 92 91 86 86 86 86 88 95 100 98 102 111 114 118 120 122 122 128 131 125 116 104 97 93 90 86 85 83 82 84 83 83 85 85 85 86 86 88 90 91 93 98 98 98 104 107 114 123 135 146 155 162 168 180 181 181 181 180 175 175 175 175 176 191 206 200 193 193 188 186 185 186 188 186 183 181 185 185 183 188 198 204 211 216 220 222 224 228 231 232 233 232 233 234 238 241 242 241 241 244 242 241 239 231 226 222 216 208 203 200 200 204 210 211 210 213 218 220 217 214 210 204 203 207 211 219 223 224 226 223 216 216 218 220 219 219 207 204 210 212 213 210 203 199 194 171 159 153 155 153 142 136 144 153 155 149 148 142 142 135 125 114 109 109 104 98 98 98 95 97 98 98 98 98 98 98 97 90 90 90 88 86 88 90 88 89 88 88 88 88 88 88 88 90 90 89 90 91 93 93 97 100 105 109 114 122 131 136 140 139 142 141 138 141 143 146 149 147 148 159 168 168 164 162 159 155 153 153 153 153 159 160 160 158 159 159 159 159 162 165 166 168 169 175 181 185 186 186 185 189 189 191 194 197 199 194 189 184 183 188 188 188 189 183 175 172 171 173 185 193 193 189 171 157 157 149 144 143 144 146 146 144 142 148 151 151 153 152 149 151 166 169 173 194 203 201 191 186 182 169 169 168 166 162 166 196 213 214 211 204 208 212 222 228 232 231 228 225 220 213 183 162 177 185 195 206 209 207 199 196 203 208 200 189 178 175 175 176 175 171 169 166 164 166 149 133 131 114 114 109 107 105 105 103 102 102 103 104 105 107 104 104 104 104 104 104 102 102 104 105 105 105 105 105 105 105 105 105 105 105 105 105 107 109 109 109 111 111 110 109 112 118 116 116 118 118 122 122 123 127 131 129 127 130 127 127 127 125 125 122 120 118 118 118 117 118 118 118 118 118 120 120 118 122 126 125 129 131 135 136 138 140 140 142 140 138 138 138 142 142 142 142 142 140 138 140 142 142 142 140 138 138 138 138 138 138
201 203 204 207 204 191 185 197 207 214 208 196 188 175 162 151 146 138 122 111 104 105 100 98 98 95 95 93 93 95 107 130 133 123 122 124 122 116 114 116 118 121 122 112 105 98 93 90 88 83 80 80 79 80 79 79 85 85 85 85 85 85 90 95 95 98 100 102 104 107 112 122 128 148 169 173 175 180 180 180 176 173 171 172 173 171 173 191 194 185 181 178 173 173 173 173 175 178 176 171 171 169 170 176 186 197 206 209 216 219 219 222 223 224 228 233 234 235 234 237 240 232 231 236 233 230 227 226 225 222 213 204 203 197 194 191 196 204 204 207 212 216 216 213 210 208 211 211 213 219 223 220 221 222 213 210 212 214 214 200 191 189 193 193 189 182 171 169 169 162 159 160 162 159 152 144 140 144 142 140 138 131 127 124 123 114 111 108 107 104 98 98 97 98 97 97 98 98 98 97 93 91 91 88 88 86 88 88 88 88 88 88 88 88 86 87 86 86 88 88 88 90 90 93 97 101 107 109 112 116 123 127 129 135 138 136 138 140 142 146 149 152 153 159 162 160 157 154 151 151 149 149 148 148 148 148 146 148 148 144 148 153 155 158 164 166 169 176 180 181 181 181 181 180 181 188 193 194 188 186 180 176 176 178 173 170 171 176 175 175 175 176 180 186 184 181 171 157 149 142 138 155 191 191 172 164 161 162 162 164 164 166 168 173 181 185 191 207 214 206 194 183 168 159 164 169 171 169 186 208 217 213 218 221 200 208 224 230 232 232 229 224 218 206 189 180 176 180 186 201 205 200 193 191 197 191 186 176 166 171 173 171 168 166 162 164 159 149 128 112 116 114 114 111 109 108 107 107 105 104 105 109 109 109 107 107 107 107 105 104 104 104 107 107 107 109 107 105 107 111 109 109 109 108 104 107 111 114 112 114 116 115 116 122 125 130 129 129 132 131 133 135 133 128 129 127 125 123 122 118 116 118 118 116 116 116 118 122 122 121 120 120 123 125 129 128 125 129 131 135 136 138 138 140 142 142 142 144 142 140 140 141 142 142 142 142 144 142 142 141 140 140 140 138 138 138 138 138 136 136
190 188 189 191 186 181 181 183 206 213 212 202 193 189 185 185 184 180 160 146 135 120 109 107 107 118 131 135 133 136 146 146 142 133 125 125 120 114 109 108 111 111 106 102 96 91 88 88 86 83 80 80 80 79 79 78 80 82 86 85 85 87 91 95 97 109 125 126 125 125 127 133 148 169 197 189 180 181 180 178 173 171 173 175 175 171 173 183 175 171 171 164 162 162 160 159 155 157 164 162 159 162 166 172 178 186 196 203 208 210 210 213 217 219 222 226 227 226 225 224 222 221 223 221 224 225 222 222 224 221 217 211 203 197 194 191 188 196 199 203 208 213 213 213 210 208 211 211 209 213 218 216 214 212 208 206 208 210 201 185 178 173 173 169 168 160 151 151 153 149 149 151 162 155 148 144 142 138 135 136 135 133 127 123 123 116 111 107 107 104 97 97 98 98 97 97 97 98 97 98 93 93 91 88 88 88 86 86 88 88 87 86 88 86 83 83 83 83 83 86 87 90 90 95 95 97 105 110 112 117 120 123 125 133 135 133 136 138 138 142 146 153 156 153 151 153 151 149 146 144 142 140 140 138 137 136 138 142 142 144 148 153 155 157 167 169 178 176 176 176 176 175 173 173 176 180 183 183 181 180 176 175 176 175 168 166 173 181 185 188 185 182 183 182 180 180 173 164 153 155 173 186 197 186 181 169 175 175 176 187 186 188 191 191 193 197 206 209 209 199 194 174 155 160 166 170 178 175 193 211 213 219 232 234 216 218 225 224 226 224 223 219 210 191 176 171 173 180 188 194 197 194 189 185 180 175 169 166 164 171 173 169 164 162 159 149 137 114 112 114 114 114 114 111 111 109 109 109 109 107 110 109 109 109 108 109 107 109 109 111 111 114 120 118 118 116 117 114 116 115 118 118 113 122 120 122 127 130 129 134 134 135 135 138 136 135 135 133 133 133 131 131 127 123 122 122 125 123 123 122 123 120 122 125 126 129 131 131 131 131 129 128 129 129 131 132 133 135 136 136 136 138 138 140 142 143 142 144 142 141 142 143 142 142 142 142 144 142 140 138 136 136 136 135 132 135 135 133 131 131
176 178 183 183 178 171 178 189 203 210 207 203 196 193 194 195 196 197 200 194 181 173 162 160 166 166 157 151 149 146 144 138 135 131 125 123 118 113 105 103 102 102 102 99 95 91 88 88 86 83 83 82 82 82 82 79 77 85 90 93 97 102 107 112 122 142 171 173 164 157 155 160 166 183 196 185 178 181 178 175 173 175 176 173 173 175 181 176 175 175 168 168 162 157 151 149 149 150 149 153 155 159 160 164 173 181 189 196 199 203 207 211 213 217 218 218 216 212 213 213 211 213 212 213 214 216 213 212 211 212 214 214 210 208 206 208 206 200 196 201 204 204 207 207 206 208 209 206 204 204 204 207 207 203 200 200 200 197 193 181 176 168 160 157 157 153 149 149 149 146 148 144 146 142 140 135 133 131 131 135 138 138 132 128 125 127 120 118 112 109 108 105 102 102 99 100 98 102 98 98 93 91 90 85 88 90 88 86 85 85 86 86 85 84 83 82 80 82 83 85 86 88 90 91 91 95 98 100 107 109 112 112 118 123 127 125 129 133 135 138 140 144 146 142 144 146 144 142 135 133 133 131 131 130 127 129 133 136 141 144 149 153 157 160 166 175 175 173 169 169 168 169 169 168 171 176 175 175 175 175 175 173 173 176 173 173 180 191 189 188 185 181 186 185 186 186 186 183 176 194 203 201 197 196 189 181 178 180 185 191 197 197 197 197 199 207 208 206 200 196 188 166 155 151 151 186 183 173 186 201 209 221 229 230 228 226 224 220 218 216 213 212 205 193 176 166 169 185 186 188 193 188 185 181 176 171 162 160 162 166 164 162 160 153 142 131 127 119 120 118 116 116 116 114 111 111 111 111 111 111 111 111 111 111 111 111 114 116 116 120 122 123 129 127 127 129 129 130 131 135 138 138 138 140 140 138 136 135 135 133 133 133 133 133 131 129 129 129 129 127 127 127 123 123 123 123 127 127 126 126 125 125 125 127 129 131 131 130 131 131 131 131 133 135 135 140 142 140 136 138 138 141 140 140 142 144 142 143 142 142 142 142 142 142 142 140 140 138 136 136 136 135 131 131 129 133 131 129 129 129
160 166 181 185 175 173 185 196 199 197 197 196 194 193 193 194 196 199 203 198 180 173 164 160 166 162 147 140 140 140 136 130 129 127 125 125 120 114 107 105 107 107 106 102 97 97 91 86 88 86 88 88 91 91 93 95 104 114 123 123 129 135 140 146 155 175 189 186 182 178 183 189 186 191 194 175 173 180 176 181 189 181 178 178 176 172 178 176 172 168 164 166 162 157 151 148 149 149 149 151 151 157 159 160 168 175 188 194 199 204 206 208 211 213 213 212 208 203 201 204 203 204 204 204 204 204 201 200 197 196 199 206 210 211 210 207 207 207 203 201 201 199 200 196 197 199 196 191 188 188 189 193 193 191 194 193 191 188 186 181 178 171 162 168 176 171 166 164 160 155 148 143 138 135 131 129 127 129 131 136 143 149 146 143 139 135 133 135 135 131 136 140 135 131 123 120 114 105 102 100 97 98 97 98 97 97 97 97 98 98 98 98 98 97 92 93 93 90 88 84 86 86 87 89 88 92 96 95 102 104 104 104 105 109 109 109 111 118 120 125 123 125 127 127 127 130 127 127 120 120 122 122 123 125 127 128 131 136 137 140 144 150 153 159 162 169 170 168 168 166 164 166 166 162 164 164 164 162 164 166 169 176 176 181 183 186 189 191 189 189 189 189 191 196 199 198 199 206 214 220 212 208 207 199 189 189 191 191 193 195 196 196 194 194 193 194 196 196 195 193 181 162 153 153 151 178 185 194 207 206 207 216 222 220 219 218 216 211 208 208 203 201 197 183 171 169 176 188 188 189 193 183 178 179 173 162 157 160 162 162 160 160 148 127 120 127 127 120 118 118 116 116 116 119 114 112 111 111 111 112 112 114 116 116 123 125 129 129 127 129 129 131 135 133 133 131 134 135 133 135 136 135 134 133 129 127 125 127 125 123 122 123 123 123 123 125 125 125 127 129 129 129 133 133 135 133 129 131 131 129 131 130 129 128 129 131 131 131 131 133 135 137 138 138 140 141 142 140 138 142 143 142 142 142 144 144 142 140 143 142 140 140 142 141 142 138 135 136 136 136 136 134 131 130 129 133 133 131 130 131
160 171 183 185 186 189 196 199 201 196 189 188 186 186 189 193 197 200 201 188 173 164 159 151 149 142 130 125 124 125 124 120 120 123 129 129 128 129 135 138 138 136 136 133 127 119 118 115 112 107 107 107 109 112 125 133 146 164 175 175 178 185 188 189 189 191 189 186 183 178 176 178 176 178 181 162 166 171 173 180 200 193 185 185 180 168 166 171 166 160 157 159 164 159 152 148 149 151 153 153 155 155 160 160 166 173 181 196 206 207 207 207 208 210 206 201 197 194 193 193 193 191 191 191 191 189 189 191 193 194 197 199 197 194 193 193 196 199 199 199 198 194 188 185 185 183 181 178 180 180 180 180 185 185 183 184 185 180 178 176 176 173 171 176 180 176 171 167 164 155 149 148 144 140 136 135 133 135 136 135 142 146 145 148 146 140 140 140 142 148 158 173 178 175 172 157 138 129 129 125 123 122 116 116 114 114 112 116 127 129 127 125 125 125 122 120 112 105 95 88 86 86 88 86 86 90 93 95 97 102 105 104 104 103 105 105 105 107 109 114 114 114 116 116 119 118 115 116 114 112 112 113 120 122 122 125 128 133 135 138 142 144 149 157 159 166 171 171 173 169 165 162 162 159 157 160 161 160 169 175 175 176 178 180 181 184 186 186 189 193 194 197 203 208 211 213 216 221 219 213 206 204 201 197 194 194 195 194 196 196 194 192 189 188 186 183 183 182 181 180 171 159 153 152 155 154 173 200 208 209 207 210 210 207 206 204 200 199 194 189 186 180 175 166 159 178 191 191 189 186 185 176 171 171 164 153 151 157 159 157 151 148 135 123 125 127 127 126 122 122 122 122 118 120 122 116 116 116 119 120 122 125 127 127 127 127 127 127 126 127 129 131 131 131 131 131 131 131 131 133 131 127 125 125 123 122 125 123 125 122 122 123 123 125 126 126 127 127 130 134 136 136 138 140 140 142 138 136 135 133 133 131 131 131 131 136 135 136 138 144 144 144 142 142 144 144 144 142 144 144 144 144 144 144 143 140 142 142 142 144 140 139 140 140 142 140 135 138 139 136 136 136 135 135 135 135 135 136 136 136
166 176 183 182 185 181 181 180 183 185 180 180 183 185 188 193 197 201 194 171 159 155 150 146 141 135 127 122 116 112 111 111 112 116 118 122 124 127 133 136 140 136 136 138 135 138 138 142 144 146 153 158 159 162 166 175 183 191 197 199 196 201 207 201 196 193 191 188 183 178 176 171 169 168 168 154 151 155 162 173 193 188 183 180 175 166 164 166 160 159 160 164 160 153 150 148 149 151 154 155 155 162 183 183 188 194 200 203 205 207 208 206 206 203 193 188 181 178 175 175 176 171 169 169 169 171 173 176 178 181 175 175 176 171 173 178 183 185 186 186 185 183 173 169 169 166 168 175 180 180 176 176 178 177 173 173 171 168 168 166 164 164 171 173 168 166 160 160 159 153 151 149 146 147 144 142 142 140 140 138 142 142 142 144 144 144 144 146 153 168 175 181 186 194 193 188 186 183 181 166 157 148 140 133 133 140 148 154 156 159 155 153 148 140 135 131 123 118 107 95 98 104 93 88 90 90 96 95 100 104 105 112 111 109 105 105 105 104 105 109 109 109 109 111 110 111 107 107 114 116 115 116 120 120 120 122 123 128 131 135 136 140 144 151 157 164 169 168 169 166 162 160 159 159 160 160 162 173 181 181 181 176 178 178 177 178 181 185 189 191 196 200 208 213 218 223 226 226 211 199 197 197 193 189 191 193 194 194 194 194 191 188 185 185 185 185 183 181 178 168 159 153 151 149 151 151 166 181 193 196 194 191 188 188 189 189 194 193 188 181 175 168 159 155 160 181 188 189 188 183 173 166 157 153 149 146 142 146 148 142 133 131 127 129 127 127 127 129 131 131 132 131 127 127 127 125 125 127 127 127 125 125 127 127 127 127 127 127 127 127 125 127 127 129 129 130 129 131 131 133 136 133 131 131 127 127 125 125 128 127 126 127 128 131 131 131 131 136 139 139 140 142 144 144 143 142 140 138 138 135 135 138 138 138 138 138 141 142 144 148 146 146 146 146 144 144 144 144 146 146 146 146 146 144 144 144 144 146 146 146 146 146 144 144 142 142 142 141 138 138 136 136 136 140 140 140 138 138 136 136
169 173 178 175 171 171 166 162 162 164 169 175 176 180 186 191 196 203 194 169 162 159 151 140 136 133 125 115 109 105 102 102 102 102 104 107 109 114 118 122 122 123 125 129 129 131 133 135 138 149 169 176 178 176 178 181 183 188 193 197 200 206 207 200 196 194 191 189 185 178 178 176 171 162 159 164 180 186 183 185 194 186 178 171 166 162 159 159 155 164 171 166 155 146 145 148 151 155 159 159 159 163 186 191 195 193 189 191 197 199 200 196 190 186 176 169 168 164 157 153 149 144 144 142 146 148 149 153 151 149 151 157 160 160 169 176 180 178 176 173 166 160 160 160 159 160 160 168 169 169 169 169 166 164 160 159 157 157 157 155 155 153 151 148 146 144 144 146 142 142 144 140 138 138 138 138 138 140 142 142 142 142 142 144 146 148 148 153 162 175 181 181 187 193 196 199 208 220 214 200 185 168 151 146 155 173 175 169 168 166 169 166 160 157 153 140 131 120 109 104 112 112 109 105 104 105 102 100 109 120 114 125 120 114 111 105 105 104 104 105 105 105 105 105 107 109 111 111 116 116 116 116 115 116 116 116 116 125 135 133 133 135 140 144 149 153 159 160 160 160 160 159 159 157 157 160 169 176 180 176 176 175 176 176 176 176 180 183 181 186 192 197 204 211 218 219 214 201 194 194 193 191 191 191 191 191 193 193 193 193 186 182 178 180 186 191 188 177 168 159 153 149 149 149 148 146 159 171 176 183 180 173 171 171 175 181 186 188 185 178 167 162 157 159 168 180 180 180 180 178 166 159 153 149 149 148 138 136 140 135 131 131 133 133 129 129 133 133 133 133 133 135 131 129 129 129 129 127 127 127 127 127 126 127 127 127 127 127 126 127 127 125 123 127 127 127 128 129 131 136 136 136 136 136 133 131 131 133 135 137 138 138 138 136 135 135 135 136 144 144 142 142 144 144 148 146 145 142 140 142 142 144 144 148 146 144 144 144 146 146 146 146 148 146 144 144 144 144 148 148 148 149 147 146 148 149 149 149 148 148 149 149 148 146 143 142 140 142 144 142 140 140 140 140 139 140 140 140 139 140
153 151 151 153 157 157 155 154 155 153 162 168 169 175 181 188 196 200 199 201 196 183 180 162 138 133 123 114 112 104 100 100 98 98 98 104 104 105 109 114 120 123 127 135 136 138 138 136 142 151 162 173 173 173 175 178 185 189 193 195 204 211 204 197 196 193 189 189 186 180 180 176 169 160 151 176 212 203 193 194 191 184 176 166 160 155 153 157 160 167 168 166 157 146 146 149 157 159 162 166 167 168 173 181 182 180 176 176 178 181 178 175 173 168 156 153 151 149 138 129 125 123 123 125 127 129 131 133 136 140 144 150 153 157 164 173 175 173 171 171 166 153 153 155 155 159 157 159 159 159 159 155 153 151 150 148 148 148 148 149 149 144 136 129 127 125 127 127 129 130 131 133 131 133 135 133 135 136 140 142 142 142 140 140 142 144 146 153 160 169 175 180 185 193 197 203 208 206 211 208 211 188 144 138 159 186 177 166 166 169 164 164 168 164 157 145 138 133 122 131 133 118 107 112 118 118 118 127 120 136 125 129 127 122 114 107 105 102 100 100 100 102 104 107 109 111 114 117 115 114 114 114 112 114 114 114 114 120 133 136 133 132 135 140 144 148 153 155 155 159 160 161 159 168 175 172 173 175 176 171 173 175 175 175 175 175 175 180 181 183 188 194 200 208 213 207 193 185 188 189 188 186 189 189 193 194 194 194 194 191 185 178 175 180 181 182 180 166 157 153 150 151 149 149 149 148 151 164 168 176 173 162 157 160 168 175 178 180 180 178 168 160 155 159 168 178 175 171 171 168 157 151 146 146 146 144 140 138 137 137 136 138 136 136 135 136 136 136 136 136 136 136 135 135 133 133 133 129 129 129 129 129 129 129 128 129 127 127 129 129 130 129 127 128 129 129 129 131 133 136 136 136 136 137 140 140 142 142 140 140 138 140 142 139 138 138 138 140 142 144 144 142 146 146 148 148 146 144 142 144 144 146 148 149 149 147 148 148 149 149 149 149 149 148 146 147 144 146 148 148 149 146 146 148 148 151 151 149 148 148 149 149 148 148 148 149 149 149 149 148 148 148 146 144 145 146 146 146 148 148
129 127 129 140 148 146 144 144 146 148 157 168 176 181 179 188 203 211 216 222 222 214 212 201 162 150 140 125 114 111 107 105 105 105 107 111 111 112 117 131 138 149 157 160 157 148 148 148 155 164 162 166 173 173 175 186 195 194 194 194 200 201 196 194 196 191 188 188 188 183 181 178 175 166 160 180 210 199 192 190 185 178 169 163 159 157 153 153 159 160 157 157 151 148 148 149 157 160 169 169 168 169 169 168 166 160 159 160 160 160 157 157 157 151 149 148 144 136 127 118 116 118 118 120 120 123 125 129 133 140 144 148 153 157 160 168 168 168 168 166 159 151 154 155 155 159 155 155 153 151 153 149 146 146 140 138 140 140 140 140 140 140 135 125 122 122 122 126 125 127 127 133 140 142 140 136 136 136 140 142 142 144 138 131 133 138 146 155 159 166 166 173 168 180 193 197 204 203 210 219 219 197 149 138 146 166 159 155 157 164 160 160 162 159 148 140 138 131 126 125 127 126 114 114 114 111 118 175 159 153 136 140 133 116 104 100 103 98 97 97 98 97 100 102 103 104 107 109 110 109 105 107 110 111 112 112 112 112 122 129 135 133 136 142 146 148 151 151 149 153 163 173 176 178 183 180 175 173 169 171 171 171 169 168 168 168 169 175 178 176 178 186 193 196 197 188 178 181 180 183 181 183 188 189 189 189 191 191 191 189 185 181 177 178 175 171 168 162 157 156 153 149 149 149 149 149 151 160 162 168 162 151 147 151 162 168 173 175 169 168 162 157 155 159 168 171 168 166 164 153 147 144 142 144 144 142 142 138 138 138 138 138 136 136 138 138 138 138 137 138 138 140 142 142 138 138 138 136 135 133 130 131 131 129 129 129 125 127 129 130 132 131 131 133 135 135 135 131 133 135 135 135 136 138 144 144 144 144 144 140 136 140 142 142 142 142 142 140 142 144 144 143 146 148 149 149 149 149 148 148 148 149 149 149 149 149 149 149 149 149 149 149 149 149 150 149 149 149 149 151 153 146 144 144 148 148 148 151 153 153 153 153 153 154 155 155 155 155 155 153 153 153 153 149 151 153 153 153 155 157
116 111 116 128 136 135 135 131 132 136 144 159 173 181 185 189 205 213 216 217 217 214 212 203 196 189 180 157 139 135 131 127 125 122 122 122 121 123 136 151 155 157 159 157 152 149 149 151 162 171 168 169 171 175 194 201 204 201 199 197 194 194 194 194 194 193 188 189 188 186 185 180 178 186 201 206 212 206 199 189 180 168 161 155 155 154 151 147 146 146 146 147 148 148 148 153 158 162 175 179 166 159 157 153 149 146 149 151 155 157 159 159 153 148 151 148 136 125 120 116 114 118 120 121 125 125 133 138 144 148 153 152 155 157 160 160 160 159 157 155 153 152 153 153 156 154 152 149 146 144 142 140 138 137 133 129 131 131 129 129 129 131 129 120 120 123 129 128 133 136 140 142 155 155 149 140 139 138 138 144 144 140 131 125 125 129 136 148 149 151 155 157 151 171 194 200 211 217 218 209 197 160 136 138 146 151 148 146 153 162 162 159 157 151 142 140 138 129 120 116 120 138 133 115 112 109 116 176 181 164 149 148 125 107 100 102 100 98 97 95 95 95 97 98 100 102 102 102 104 104 104 104 105 105 105 109 111 111 118 125 131 136 142 144 146 148 149 149 153 159 166 173 175 175 175 171 169 169 166 166 162 160 157 157 157 159 168 169 171 173 176 178 180 180 180 178 176 173 173 175 176 180 181 183 181 181 183 181 181 181 181 176 175 171 167 165 159 157 155 155 149 144 146 148 148 152 153 151 153 160 155 142 144 149 160 164 171 169 160 153 151 153 155 160 164 162 162 157 149 144 142 142 142 136 139 144 138 140 138 138 138 138 138 138 138 138 138 138 138 140 140 142 142 142 140 138 138 140 138 136 135 133 131 131 131 131 132 132 131 131 131 131 131 133 133 133 133 133 135 136 135 136 136 138 144 142 142 148 149 148 148 146 146 144 144 144 144 143 146 146 147 148 149 149 149 149 150 149 151 149 149 151 151 151 151 149 149 150 149 149 149 149 148 148 148 149 153 153 155 155 150 173 201 183 188 191 181 157 155 155 160 159 160 160 159 159 159 159 159 157 157 155 155 157 157 157 157 157 159 159
104 100 104 112 123 123 123 122 120 122 127 142 160 169 180 186 186 188 194 193 189 183 179 173 175 173 175 178 178 175 175 173 166 159 157 157 157 159 164 165 159 159 159 155 149 149 151 159 165 169 168 171 178 197 200 201 207 207 207 203 199 193 191 193 194 193 189 189 188 186 188 185 180 200 210 208 211 209 204 193 176 166 155 151 151 151 149 144 141 140 146 148 151 158 155 153 158 160 173 185 168 155 150 143 138 138 138 142 151 159 164 166 169 171 160 153 149 144 138 142 142 140 138 133 136 140 148 151 153 153 153 149 146 148 151 151 151 151 149 151 151 153 151 151 151 148 144 140 138 140 135 133 128 127 127 123 125 123 123 123 122 122 122 123 123 129 131 129 135 142 140 140 146 144 133 127 129 129 129 136 135 129 122 120 120 122 125 133 138 138 142 142 142 153 175 180 194 201 197 168 148 142 136 144 155 157 162 166 162 158 157 155 155 149 144 140 136 131 122 120 120 136 136 125 122 124 133 166 171 156 148 136 122 108 107 105 102 98 95 95 95 95 95 97 98 98 97 98 98 98 102 102 102 104 105 109 111 111 114 120 122 127 136 141 142 142 148 149 153 157 159 165 166 164 160 159 159 159 153 151 148 144 140 148 155 159 168 168 166 169 170 169 166 166 168 168 167 162 162 164 164 166 166 166 168 169 171 168 169 169 168 163 160 160 157 157 153 151 151 148 146 144 148 151 151 148 144 142 144 155 153 142 144 149 157 160 164 160 149 144 142 148 153 159 160 160 152 146 138 140 142 140 157 178 169 144 136 140 140 138 138 138 138 137 138 138 138 138 138 140 143 142 142 142 140 138 138 138 136 135 131 131 131 131 133 133 133 133 133 134 133 133 133 133 133 133 133 131 135 135 135 136 138 138 140 138 138 144 146 146 146 148 148 148 147 148 148 148 149 151 149 149 149 149 149 149 149 149 149 149 149 152 153 153 151 149 149 149 149 149 149 149 149 151 151 151 151 155 159 159 159 200 233 231 238 241 240 220 223 183 160 166 164 164 160 161 166 164 162 162 163 163 162 162 162 162 160 156 159 157
86 88 93 100 109 114 122 120 116 112 114 127 136 144 151 155 157 157 162 160 159 160 162 162 162 160 162 162 162 162 162 162 164 162 162 166 166 164 164 164 164 160 159 152 147 151 155 160 164 164 164 168 185 194 196 197 200 199 197 200 206 207 189 188 193 193 193 191 188 188 188 185 183 203 206 208 213 211 204 189 169 157 155 153 151 148 148 144 138 141 151 151 155 168 168 160 162 162 168 178 160 151 144 135 133 133 135 145 153 162 168 171 178 180 178 176 178 175 166 164 164 166 164 153 149 151 151 149 144 144 146 144 144 146 144 146 148 146 146 141 144 146 148 146 144 140 138 136 133 133 129 129 123 123 122 118 115 116 116 114 114 115 118 122 122 123 123 123 125 126 129 129 129 128 123 120 118 118 118 122 123 118 112 112 114 114 116 120 122 122 127 129 136 144 151 150 159 169 168 153 142 144 152 164 171 173 171 168 161 148 144 144 146 140 135 130 129 127 127 125 131 140 143 153 151 151 155 162 162 153 142 127 122 116 109 105 101 95 91 91 88 90 90 91 91 91 93 93 91 91 97 98 100 102 105 107 105 107 113 116 120 123 129 136 137 136 138 138 140 144 148 153 155 155 149 149 149 146 144 141 136 135 133 146 155 158 162 165 162 159 153 151 153 157 159 160 160 157 153 155 153 149 151 153 153 153 158 159 157 155 155 151 149 151 151 149 146 146 144 138 140 142 144 169 166 146 136 136 144 153 149 142 148 153 155 157 158 157 151 149 153 153 155 153 155 153 147 142 140 140 136 148 194 212 210 186 149 138 140 140 140 142 140 142 142 142 141 140 140 142 142 141 142 142 142 138 138 135 135 140 146 151 153 146 131 136 132 135 135 135 135 135 134 135 131 131 131 133 136 136 163 140 136 138 138 138 138 138 138 142 146 148 149 151 151 151 153 153 153 153 149 149 148 149 149 149 151 149 148 149 149 149 149 149 149 149 149 151 151 149 151 151 153 153 156 155 153 159 160 161 166 201 226 234 242 246 245 240 242 229 176 173 171 169 168 168 169 167 168 166 166 164 165 164 164 162 160 159 160 160
77 80 86 91 91 98 107 111 105 107 112 123 125 127 133 125 125 127 131 129 129 133 136 135 135 135 135 135 136 136 136 136 136 136 142 147 151 149 147 146 146 146 146 146 151 151 155 160 164 164 169 178 190 196 199 200 193 196 203 208 213 217 212 199 193 194 193 186 185 185 185 181 173 172 173 181 191 199 189 169 157 155 157 153 151 144 144 140 136 140 157 160 153 162 168 160 162 165 171 171 149 146 151 158 157 157 155 160 166 166 160 160 162 162 164 169 169 169 164 157 157 159 160 155 148 148 146 140 136 135 136 138 135 140 144 144 148 148 149 140 142 141 142 138 135 133 131 131 125 122 122 120 114 114 112 111 111 110 107 107 109 109 109 112 112 114 114 113 114 114 118 118 113 112 109 109 109 107 107 109 109 107 104 104 104 102 103 107 111 113 120 122 123 127 129 135 148 154 157 157 158 160 166 166 164 164 162 157 148 135 133 132 127 125 127 125 126 127 127 129 136 157 169 178 181 178 166 159 149 142 136 124 122 114 105 100 97 92 90 86 83 85 86 83 85 86 86 86 86 88 91 95 98 102 105 105 105 104 107 112 116 118 122 120 120 123 126 130 133 135 138 144 145 144 142 144 144 136 136 133 131 129 127 136 146 149 151 151 149 144 146 151 153 151 151 149 149 145 140 142 143 138 138 140 140 142 146 148 149 149 151 151 151 148 146 144 138 136 135 131 133 135 142 164 157 146 136 138 146 144 142 144 146 153 156 155 153 159 165 164 164 163 160 154 151 149 145 142 142 153 160 171 191 203 208 201 151 140 142 142 142 142 142 142 142 140 140 142 142 142 140 140 140 140 140 138 138 155 181 191 204 207 199 175 162 169 146 133 136 135 136 136 136 135 132 133 132 135 131 148 194 169 136 138 138 138 138 138 138 144 149 149 149 153 153 152 153 151 151 151 149 149 146 146 149 149 148 148 146 148 149 149 149 147 148 148 149 151 153 155 155 155 159 160 161 164 168 171 173 173 170 186 231 241 241 245 247 245 241 234 183 176 176 175 175 175 172 171 169 168 166 164 164 164 162 159 160 159 159 159
73 74 79 80 80 85 88 88 91 95 98 104 111 112 107 107 105 105 105 107 111 111 114 116 116 116 120 123 124 125 129 133 129 128 133 135 138 138 136 136 135 136 136 136 140 146 149 155 162 166 170 185 188 185 197 201 194 199 212 210 219 227 227 227 227 210 180 176 178 180 178 176 159 140 144 160 168 169 171 169 159 157 155 149 144 138 138 137 136 142 158 164 162 155 157 157 162 171 175 166 153 153 157 164 171 168 159 152 155 157 151 146 148 151 151 155 162 159 149 144 144 142 142 138 135 135 135 135 135 131 129 131 125 133 142 142 146 144 136 131 133 135 135 133 131 127 124 123 120 114 116 112 107 104 104 104 104 102 101 101 100 98 100 102 104 105 105 105 105 105 106 107 107 102 98 98 98 98 98 97 98 97 95 93 93 91 91 98 104 107 114 116 111 111 123 142 159 173 175 166 160 157 157 155 151 151 149 143 131 123 123 122 118 123 127 127 127 127 131 140 142 153 166 171 180 171 160 149 136 131 126 122 114 107 100 97 91 85 85 83 80 82 82 82 82 83 85 86 86 86 90 90 93 98 104 105 105 102 102 105 107 112 114 114 112 116 120 122 127 127 129 131 131 131 133 133 131 129 129 127 127 129 127 127 131 140 138 135 131 130 135 142 140 141 138 136 136 133 133 135 135 133 133 135 138 140 142 146 148 148 148 148 148 142 138 135 136 133 129 129 131 140 149 151 155 143 138 140 148 149 153 162 162 161 153 155 159 168 169 168 166 162 160 159 155 148 146 138 169 204 208 204 203 204 206 204 155 144 148 147 144 144 142 141 140 140 140 142 142 140 138 138 136 138 138 138 151 188 207 206 210 207 201 185 176 174 146 138 140 140 140 140 140 136 173 189 180 166 153 175 199 201 166 142 146 147 149 150 149 151 153 153 153 153 153 153 151 149 148 148 148 148 146 148 149 148 144 146 148 148 149 149 148 146 146 149 155 160 162 164 168 173 173 175 178 178 180 180 177 177 173 191 227 237 240 243 245 245 243 235 193 175 176 176 176 176 175 171 171 169 168 164 162 160 160 160 160 160 159 159
75 75 75 77 77 78 81 85 85 87 86 83 83 83 85 85 86 86 86 88 93 95 98 102 105 110 116 127 127 131 133 135 132 135 129 129 129 131 133 135 136 135 132 129 131 137 142 151 160 168 175 181 188 191 197 204 195 197 214 200 218 232 232 231 227 208 178 169 171 171 169 168 160 147 140 146 151 160 171 173 164 155 152 142 138 136 133 138 147 153 159 160 160 169 173 173 169 171 171 164 155 153 151 152 160 164 151 144 146 145 138 132 136 140 140 140 140 138 131 127 129 131 131 125 122 123 125 129 129 127 123 122 122 136 146 144 140 140 135 127 127 129 129 127 125 122 118 113 111 106 105 100 98 94 95 96 95 93 91 91 91 92 91 93 95 95 95 97 95 93 95 95 93 91 91 91 92 93 93 88 86 83 85 83 85 86 85 90 102 114 120 111 104 107 133 160 176 181 171 160 144 138 137 136 138 135 129 123 116 111 110 111 118 125 127 127 127 137 142 140 142 146 159 169 169 157 146 136 123 118 116 111 104 100 97 93 88 83 83 83 83 83 83 84 83 83 86 87 86 88 88 88 88 95 100 102 102 104 105 102 104 105 109 111 109 112 116 116 118 118 116 118 122 125 123 121 118 122 123 123 127 132 125 123 125 123 120 118 118 123 127 129 125 128 129 127 130 138 148 146 153 159 162 160 153 149 148 149 148 144 140 140 140 136 135 136 136 140 138 133 131 133 153 162 158 146 146 148 157 160 166 173 173 175 189 191 186 173 164 163 164 168 169 168 159 144 151 172 204 217 216 213 213 211 208 205 171 144 148 151 159 159 151 142 142 142 142 142 140 138 135 142 144 136 138 135 149 196 206 208 211 211 203 183 168 168 146 140 144 144 144 144 144 153 201 216 219 220 218 220 214 212 206 169 151 156 157 157 157 157 157 155 155 151 152 151 149 148 146 146 146 146 146 146 147 149 149 153 154 159 162 167 169 171 171 173 176 178 176 176 176 179 181 181 181 181 183 182 180 180 188 204 226 236 243 246 246 246 245 240 222 175 178 176 176 176 175 173 171 169 167 164 162 160 160 160 160 160 159 157
86 86 83 79 80 82 82 85 85 85 85 86 85 84 82 82 82 82 80 85 88 93 100 105 107 116 122 128 129 131 131 132 138 144 131 123 122 127 131 131 133 133 131 131 131 135 142 149 160 166 173 180 189 200 197 197 186 183 210 207 206 219 228 227 207 186 178 166 168 165 162 162 160 156 149 142 135 139 154 155 157 155 144 136 136 131 125 146 171 168 162 157 160 164 168 176 169 159 157 157 153 144 136 140 148 155 149 149 151 144 134 131 129 127 127 126 126 122 123 120 118 122 122 120 122 123 118 120 123 125 122 118 121 136 149 144 136 135 131 123 125 127 123 123 120 116 109 107 102 97 95 91 88 88 86 86 86 85 83 82 82 83 84 85 87 86 85 82 83 83 85 85 84 83 83 83 83 83 82 78 80 79 80 82 83 86 91 97 104 123 129 118 116 125 146 157 159 161 148 131 123 122 123 123 122 118 114 111 107 102 102 102 109 114 118 118 122 127 131 129 135 140 148 151 151 144 131 121 111 107 105 102 97 91 88 85 82 80 80 80 80 80 80 80 80 82 82 83 82 80 80 82 85 88 90 97 98 97 97 97 97 98 100 104 109 111 112 111 111 111 111 112 116 118 118 120 120 123 125 135 133 125 133 146 131 123 118 122 129 135 131 123 122 122 125 127 131 155 188 199 216 218 218 212 207 200 200 200 196 186 182 183 181 183 183 183 183 177 171 144 138 144 159 169 166 166 162 160 159 157 160 168 166 178 210 213 219 216 204 185 169 188 207 208 193 173 193 217 218 218 218 216 216 213 211 204 172 140 146 157 177 176 164 144 140 142 142 140 136 143 180 197 178 133 142 135 160 210 213 217 214 211 206 166 148 148 146 142 146 149 148 151 151 164 193 210 218 220 224 225 225 217 217 194 153 155 155 155 155 153 153 149 149 149 149 149 148 148 148 148 149 149 153 153 157 166 169 171 173 173 178 181 181 182 181 181 181 178 180 181 181 181 185 185 185 183 181 183 180 184 204 222 235 242 245 247 248 248 247 241 224 178 180 178 175 175 174 175 171 167 168 166 166 160 160 160 159 157 159 157
93 93 91 87 86 85 86 86 86 85 86 88 88 88 86 87 85 84 85 90 93 100 109 114 118 120 122 123 125 127 129 133 142 142 133 123 122 125 127 129 133 138 138 140 140 140 146 153 166 168 173 178 185 196 186 181 178 173 188 193 196 207 204 189 180 178 169 160 160 155 151 152 155 153 143 125 122 125 131 142 145 140 138 135 131 135 129 136 149 149 148 149 159 146 153 155 155 148 140 148 146 134 129 133 136 140 136 136 138 136 136 131 122 122 122 122 120 116 116 118 119 116 116 116 115 116 114 114 121 123 120 112 118 129 138 136 131 129 122 120 125 123 118 115 113 104 102 98 93 90 86 83 80 79 79 79 79 75 74 74 73 73 75 75 77 77 75 74 74 74 71 71 75 75 75 75 75 74 73 74 74 79 80 83 85 86 98 109 115 122 127 131 138 140 136 133 131 132 123 116 118 114 111 107 102 97 98 97 93 90 91 91 95 100 104 104 107 111 116 120 127 133 136 135 135 130 118 107 104 100 91 88 86 84 80 79 77 77 77 77 77 77 77 77 75 74 76 77 77 77 76 77 80 82 83 85 85 83 83 85 86 88 90 95 98 104 104 104 105 107 107 109 112 120 123 127 136 149 159 186 185 186 206 206 208 186 146 142 144 138 133 124 123 122 125 127 131 146 185 216 225 225 227 227 222 218 218 221 222 219 221 219 218 212 208 206 207 204 185 160 164 175 178 175 178 178 177 173 159 160 166 169 168 181 200 201 208 211 211 208 210 221 221 223 214 193 203 223 225 221 217 216 218 218 213 203 162 142 146 162 181 180 155 142 140 141 140 138 138 176 207 206 159 155 203 197 212 227 226 226 218 213 210 188 159 148 144 149 153 155 155 157 157 164 184 207 219 220 224 226 227 225 216 203 164 150 153 151 149 149 149 151 151 153 155 157 159 160 162 164 168 169 174 175 178 183 183 184 183 179 181 183 183 185 185 181 181 184 183 185 183 183 186 185 185 183 181 183 181 189 213 230 241 244 247 250 249 248 247 242 227 191 183 178 178 176 173 169 166 168 168 166 164 160 160 160 159 159 159 157
93 91 90 88 88 88 88 88 86 85 86 85 85 85 85 84 83 86 90 91 96 102 107 111 114 116 116 118 118 120 125 135 140 142 140 140 138 136 132 135 139 142 142 146 148 148 154 162 166 175 173 166 165 175 181 175 164 164 171 181 186 180 168 168 171 164 157 159 157 150 149 149 149 149 148 127 118 118 123 135 131 131 136 136 136 146 138 135 138 142 142 140 139 120 131 123 116 115 116 129 131 118 118 118 118 120 120 122 115 115 114 116 119 118 114 111 111 109 111 114 112 112 112 112 114 111 112 111 122 122 116 107 113 118 122 130 125 115 101 104 111 109 105 105 104 95 91 87 78 75 74 75 74 71 71 71 71 68 65 67 68 65 65 65 65 65 67 65 65 67 67 67 65 66 68 70 72 71 71 73 74 75 80 82 86 86 91 98 102 102 109 114 111 111 112 111 109 107 102 102 100 97 93 88 86 86 86 87 83 82 82 82 87 91 95 95 98 100 104 105 114 116 120 118 112 109 104 97 88 86 85 82 82 82 77 77 79 75 75 75 75 75 75 75 74 73 74 75 77 79 79 77 77 80 80 80 80 80 80 82 83 85 86 90 91 95 98 100 103 109 111 112 119 125 135 148 183 195 211 225 232 232 233 226 225 218 180 154 142 138 135 128 123 117 122 122 123 133 164 207 220 227 229 227 225 223 220 221 221 221 221 218 216 212 210 204 203 201 197 189 191 199 199 189 186 188 188 186 176 171 169 168 166 169 173 173 176 191 203 211 218 229 228 229 223 201 211 227 230 226 217 212 211 213 210 189 153 143 142 166 193 178 155 140 136 136 136 135 140 191 201 204 186 203 220 225 226 227 227 225 218 213 214 211 196 171 159 155 157 157 156 157 157 164 178 199 218 220 222 223 225 225 214 199 173 157 159 159 159 157 159 164 164 168 171 173 173 175 176 176 178 180 179 180 181 181 182 181 181 181 181 183 186 185 183 182 183 185 185 184 186 185 185 185 185 183 181 181 181 186 208 226 239 244 247 248 248 248 248 245 238 222 189 186 227 232 225 217 207 197 188 169 166 160 160 159 159 157 159 159
90 88 88 88 86 86 86 86 83 82 80 79 80 80 80 81 82 83 86 90 93 97 98 102 105 107 111 114 115 116 122 127 133 140 146 148 146 144 140 141 140 141 142 146 149 151 153 153 155 162 164 159 151 155 168 168 159 159 159 164 167 166 160 153 152 157 159 159 155 151 149 150 148 148 148 132 116 116 122 129 120 122 135 142 149 140 128 129 135 136 131 123 114 102 107 105 100 100 104 111 114 112 107 102 104 102 104 106 109 112 109 107 102 101 104 104 104 104 104 105 104 107 108 105 105 104 105 104 111 111 107 104 107 111 114 118 109 104 93 88 90 91 90 88 85 79 77 74 70 67 68 67 68 65 63 60 61 61 61 61 60 61 61 60 60 60 60 61 61 61 63 63 63 64 64 65 68 68 68 69 70 73 74 75 75 75 75 79 79 79 80 83 88 88 90 91 91 90 85 86 86 85 83 82 79 77 77 77 74 74 71 73 79 82 82 85 88 88 91 93 97 98 100 100 97 93 91 88 83 83 83 83 80 79 77 77 79 75 75 75 75 75 75 75 74 75 78 77 79 79 79 79 79 79 79 79 79 79 80 82 82 83 85 86 91 95 98 99 104 107 114 123 131 140 140 169 202 203 185 199 227 234 237 230 217 213 193 157 142 136 129 125 127 131 142 160 169 176 181 206 219 224 228 228 228 227 222 223 222 221 221 220 216 213 212 207 201 200 204 203 196 197 199 193 191 191 189 189 186 183 181 178 173 168 168 175 176 181 194 206 221 228 232 231 224 219 222 227 230 227 216 211 197 196 188 155 151 144 147 176 196 188 174 155 140 144 176 175 176 201 206 189 196 208 214 222 223 222 217 214 214 216 216 211 204 200 192 185 169 159 160 160 157 164 178 199 216 222 222 220 221 220 209 189 169 168 171 173 175 171 175 176 178 178 180 180 180 180 180 180 180 180 180 181 180 180 181 181 182 181 181 181 184 183 180 181 183 183 183 184 182 183 183 184 181 181 180 181 181 183 208 226 238 243 245 248 248 248 249 249 246 240 223 213 236 238 237 239 238 231 221 200 178 162 160 160 159 159 159 157
86 85 83 83 83 86 85 82 79 75 75 74 75 77 77 77 79 79 79 83 85 88 90 95 97 98 104 105 107 112 114 116 122 131 136 141 140 140 142 140 138 138 142 144 148 153 153 155 157 160 162 149 140 144 155 160 157 157 156 157 156 153 149 140 140 151 155 149 149 148 149 149 148 146 135 122 116 116 113 112 109 112 129 127 118 111 105 104 104 105 104 95 93 93 93 90 82 82 88 93 97 100 102 97 88 84 85 86 95 100 100 100 97 97 98 98 98 98 98 98 98 97 97 95 95 97 98 95 98 95 98 100 97 98 99 91 90 86 75 74 74 74 73 70 68 67 67 65 65 63 63 60 61 61 61 60 58 59 59 59 59 58 58 59 59 59 59 59 59 61 60 60 61 63 61 63 63 63 63 63 63 65 64 64 64 64 65 65 65 65 68 68 72 73 74 78 80 80 76 75 74 74 71 70 68 65 66 65 64 64 65 65 67 71 75 75 77 80 85 85 86 90 90 88 88 85 83 83 80 79 79 79 76 75 74 74 74 74 74 74 75 75 75 75 75 75 77 79 77 77 77 77 77 77 77 79 77 77 79 80 80 82 86 90 93 95 97 96 98 104 109 118 123 138 135 183 212 189 185 210 219 225 235 229 232 229 216 166 153 155 146 159 186 206 220 226 227 227 227 228 225 227 230 231 229 227 228 228 225 222 221 219 212 210 210 207 201 203 210 204 194 195 196 188 185 185 183 181 178 176 175 175 173 171 169 180 201 206 217 227 230 230 232 228 224 224 224 227 229 227 218 214 194 171 153 148 149 165 181 189 197 197 193 194 181 180 200 210 207 199 194 183 194 205 213 216 214 210 209 211 212 213 207 197 196 197 195 191 188 180 171 164 162 166 176 199 214 218 218 213 213 210 199 185 175 175 175 175 178 176 173 173 179 180 180 180 180 180 180 180 180 180 180 180 181 180 180 180 180 181 181 181 180 181 181 181 181 185 181 181 180 180 178 180 178 178 180 178 176 181 204 222 234 239 244 248 249 251 250 249 248 245 244 234 228 231 232 233 234 232 226 220 188 164 161 160 159 159 159 157
81 82 80 79 77 77 77 74 74 74 74 74 74 75 75 74 73 73 74 75 79 83 83 86 90 95 98 100 104 109 111 112 114 122 129 133 136 138 139 138 136 140 144 144 146 151 157 160 159 168 164 142 135 136 142 149 148 144 151 157 149 145 138 129 131 140 143 140 142 142 142 142 136 136 125 112 111 109 105 98 95 100 102 93 90 90 90 85 86 86 91 86 79 77 79 82 75 73 78 82 80 82 90 89 75 75 75 75 80 85 88 96 93 93 95 95 95 94 95 95 98 95 86 85 86 90 88 86 86 80 80 82 79 75 75 74 72 66 63 64 64 63 61 59 60 60 60 60 60 59 58 59 56 55 58 56 55 55 55 55 56 55 55 55 55 55 55 55 56 55 55 55 55 55 55 55 58 58 56 58 58 59 59 56 55 56 58 58 59 60 60 59 63 63 63 64 65 65 64 64 64 63 63 63 61 61 61 61 59 58 59 60 61 64 67 68 71 74 74 79 79 77 79 79 76 75 75 75 74 74 73 73 73 71 71 71 71 70 71 73 74 75 74 75 75 74 77 77 80 80 82 82 82 86 86 85 82 77 77 79 80 86 90 91 91 95 95 97 102 104 105 114 125 140 168 206 218 216 223 224 220 220 230 230 229 228 225 206 204 214 220 223 229 230 225 233 236 232 232 231 229 232 233 233 231 227 227 227 224 218 213 211 206 204 206 200 199 204 207 201 194 193 188 181 178 178 175 175 175 175 173 175 182 186 194 207 219 223 227 230 229 227 228 227 227 227 227 227 228 225 222 222 206 159 160 157 149 181 197 194 199 197 194 194 197 196 191 199 200 188 175 175 188 196 200 197 197 197 197 200 204 203 192 183 185 183 183 183 181 178 176 168 166 164 171 199 208 208 207 203 199 196 189 181 176 176 173 168 168 171 171 164 171 176 176 178 178 178 178 178 180 180 180 180 178 178 180 180 180 180 181 180 180 181 181 186 214 220 211 213 220 216 196 171 178 176 175 180 199 207 199 208 228 237 243 247 248 249 249 248 248 245 246 241 229 227 227 228 229 228 226 221 196 164 162 160 159 159 159 159
79 77 74 74 74 71 71 71 73 73 73 73 71 71 71 70 70 70 68 68 74 75 77 80 83 86 90 93 97 100 106 111 112 116 127 133 135 135 138 139 140 142 144 144 144 144 149 164 169 169 159 140 131 132 135 129 129 133 144 160 155 142 129 120 123 133 133 136 136 136 133 133 127 127 129 116 107 104 102 93 90 86 82 80 80 77 75 73 70 71 70 70 68 67 68 68 64 64 65 68 68 68 74 72 70 73 70 68 68 79 88 94 89 88 91 91 90 90 90 93 91 86 80 77 77 79 77 75 73 68 65 64 63 64 65 67 64 63 63 63 63 61 60 59 59 60 59 59 59 59 59 59 56 54 54 54 53 53 52 53 54 55 54 52 53 52 52 53 51 50 49 50 52 52 52 52 54 55 53 54 54 53 53 54 55 54 54 54 55 55 55 55 56 56 56 55 55 55 55 55 55 56 56 56 56 56 56 56 56 56 59 59 59 60 60 63 64 64 65 65 65 67 67 65 67 68 68 68 70 70 71 70 70 70 71 71 70 70 70 73 74 75 79 80 80 81 82 83 82 86 97 102 109 111 111 111 105 101 98 100 102 107 109 111 114 127 142 158 168 167 166 171 193 218 226 228 227 222 221 219 222 226 227 230 229 229 230 231 232 235 236 237 230 224 229 232 234 234 234 234 232 234 234 233 231 227 226 220 213 208 206 201 200 200 199 194 194 197 201 197 193 189 185 178 176 176 175 176 178 180 183 189 196 202 213 217 223 227 229 229 229 229 227 227 227 227 227 227 226 224 224 224 220 201 200 194 165 177 186 186 193 193 193 194 196 194 188 183 180 180 175 171 176 180 183 180 178 176 177 180 181 180 175 168 171 169 169 171 168 164 164 162 160 160 173 193 200 197 194 188 180 176 174 166 162 165 162 160 160 169 171 171 171 171 173 175 176 176 178 176 178 180 180 180 176 176 180 180 180 180 181 178 181 181 180 187 213 211 219 228 232 231 223 201 176 169 180 217 232 237 231 220 227 233 239 243 245 245 246 248 246 246 245 241 232 227 225 225 224 222 217 208 189 160 159 160 159 159 159 159
75 73 71 70 70 68 68 70 70 70 70 71 70 70 70 70 70 70 68 68 70 73 75 77 79 80 85 90 90 95 102 107 111 117 129 135 133 131 135 138 138 140 141 145 144 146 152 171 155 155 155 144 131 125 125 147 144 129 145 167 148 135 123 120 125 129 127 131 129 125 125 125 123 127 132 129 110 104 98 83 79 79 74 75 71 70 68 65 65 64 63 63 60 60 61 59 60 59 59 63 64 65 65 65 65 65 64 63 63 73 95 98 88 86 88 85 83 83 84 83 80 75 73 70 70 68 68 65 65 65 65 65 65 65 62 63 63 63 61 60 60 60 60 60 59 58 56 54 56 55 55 55 54 53 51 51 52 51 50 51 51 51 51 50 50 50 51 51 50 50 50 50 50 50 50 50 51 51 51 51 51 51 50 51 51 51 52 53 53 53 52 52 52 52 54 53 53 53 53 54 55 55 55 56 56 55 56 58 58 58 61 61 59 60 63 63 63 63 63 65 64 64 63 63 64 67 67 70 71 75 79 71 70 71 73 71 70 79 85 86 88 91 95 97 95 93 93 88 86 91 95 97 104 105 109 112 115 120 116 116 120 136 153 155 160 183 203 213 218 218 216 213 218 220 219 218 214 210 210 207 210 214 216 224 225 222 226 230 229 231 230 227 229 224 232 232 233 234 235 234 232 232 232 229 231 229 225 218 208 204 203 201 201 201 196 191 191 191 191 193 193 193 187 180 176 176 180 185 186 188 193 199 203 207 213 220 225 228 231 232 232 228 224 224 227 227 227 226 221 219 221 221 220 216 206 199 183 178 178 176 178 183 188 187 188 188 181 176 170 168 168 162 166 171 173 171 166 162 164 166 164 160 160 159 160 162 160 159 159 157 157 151 154 164 176 183 185 183 183 178 169 164 162 166 168 168 166 168 168 171 175 175 173 171 169 176 194 200 181 175 175 175 176 180 176 176 178 178 178 181 186 181 185 189 188 186 207 211 219 225 226 224 221 221 193 178 197 217 228 232 233 230 227 229 237 241 241 241 243 245 244 244 244 239 232 225 222 218 216 217 201 175 160 160 160 160 159 159 158 159
74 71 70 70 68 68 68 68 68 68 70 71 68 67 68 68 73 73 70 71 74 75 75 77 80 82 85 90 93 101 109 118 122 125 131 135 133 129 129 135 136 140 140 138 149 157 159 162 146 160 176 169 157 142 133 153 160 155 162 155 129 120 111 109 116 122 120 122 118 114 114 116 118 122 123 122 110 100 90 77 75 71 67 67 65 61 61 60 59 59 57 58 56 56 58 56 56 56 59 64 65 65 63 60 60 60 59 59 59 68 91 97 88 84 82 79 77 75 75 71 67 68 65 64 64 63 63 63 63 63 63 63 64 64 63 63 61 60 59 58 56 56 55 55 54 52 52 52 53 52 52 51 48 48 48 47 47 46 46 45 45 45 46 46 46 46 46 47 46 46 46 46 46 46 46 46 46 46 45 47 48 47 48 48 48 51 50 50 50 51 51 51 52 53 54 54 54 54 54 55 55 56 56 58 58 59 60 61 63 63 65 64 64 64 64 64 64 67 68 71 70 70 73 79 80 81 82 86 88 93 100 107 118 129 129 131 140 144 142 138 127 125 122 123 131 122 114 112 116 120 117 120 123 123 129 139 144 159 164 162 169 184 193 194 196 201 210 215 212 211 208 204 203 206 206 203 200 196 196 196 193 186 181 196 216 212 216 225 220 220 221 219 221 223 231 234 233 234 234 232 232 232 231 229 228 227 225 217 207 203 203 201 203 206 201 194 189 185 185 188 191 196 189 180 178 178 185 188 189 200 206 210 212 216 220 223 226 228 230 231 232 228 222 220 221 218 216 214 212 211 210 211 206 204 201 193 179 180 178 176 173 175 176 176 171 171 169 168 164 160 155 153 155 160 160 159 152 149 149 151 149 151 155 157 159 160 162 157 149 146 146 144 148 166 172 169 173 171 169 164 162 160 164 171 176 176 178 176 176 176 175 175 176 173 176 191 207 208 180 162 164 166 171 176 176 176 175 175 180 196 200 191 188 188 188 194 214 221 221 222 224 222 222 221 217 218 213 214 221 223 222 224 224 227 235 240 242 242 242 241 241 238 234 230 224 218 218 218 220 221 210 194 176 160 161 160 159 159 159 159
74 68 68 68 68 67 67 67 67 68 70 71 70 73 73 71 74 74 75 75 79 77 80 82 82 85 88 90 98 102 111 125 133 133 131 131 129 127 127 127 131 136 138 155 166 160 157 155 151 163 176 173 162 153 138 138 148 159 171 146 122 109 102 97 109 120 118 112 107 104 104 104 107 112 118 112 100 95 85 74 73 70 66 63 61 59 59 56 56 56 56 54 53 54 55 55 54 53 58 63 65 67 61 59 59 59 59 59 59 60 71 74 74 74 73 71 68 64 63 61 60 60 60 60 59 58 58 58 58 58 58 58 60 60 60 59 56 55 55 54 54 52 52 51 50 48 48 50 48 47 47 47 45 45 45 44 42 43 43 43 43 43 44 45 43 43 44 45 45 44 45 45 45 44 46 46 45 45 45 45 45 46 47 46 46 48 50 48 50 50 51 51 53 53 52 53 55 54 54 54 55 56 56 58 60 59 61 61 63 65 67 68 70 70 71 74 79 80 83 86 90 91 90 105 111 114 118 120 118 122 127 140 149 157 153 155 162 168 151 142 144 148 149 157 168 175 183 189 180 180 185 189 189 188 186 196 200 203 203 203 203 199 193 189 188 189 196 204 204 199 194 194 189 188 191 189 188 186 186 182 178 173 171 180 203 200 201 207 206 208 208 210 213 219 228 234 232 232 229 228 228 228 227 227 227 227 226 218 211 204 203 201 200 204 201 199 185 183 183 185 189 193 189 181 180 180 183 188 200 207 211 211 214 217 218 217 221 224 226 225 224 224 221 218 217 208 200 201 203 203 199 193 197 201 196 180 176 176 173 172 171 169 169 166 164 163 164 159 151 148 144 140 140 140 140 140 142 146 146 146 151 155 153 157 159 159 159 155 140 136 138 138 144 153 157 153 159 162 164 164 168 169 169 175 175 176 176 176 175 176 173 173 171 173 189 198 200 206 196 180 178 175 175 173 173 173 171 169 179 189 185 183 183 183 181 194 213 222 220 214 217 220 222 219 217 216 213 211 212 213 212 217 220 225 230 233 235 240 242 238 233 227 224 223 218 217 220 226 234 234 220 206 186 160 157 159 159 160 158 157
73 70 71 67 69 64 64 64 65 71 70 70 74 80 79 75 74 74 74 75 77 78 82 83 83 85 88 93 100 104 111 122 127 124 127 125 123 123 124 125 127 135 144 159 160 155 153 157 151 142 159 171 162 149 142 142 146 148 149 129 107 91 86 86 100 111 109 104 97 96 97 100 101 105 105 100 91 86 85 77 73 70 67 65 63 59 59 58 56 56 56 54 52 52 53 53 52 52 55 59 60 60 58 58 58 58 58 59 55 55 59 61 59 59 58 58 55 54 53 55 54 54 54 55 54 54 53 53 54 53 53 53 54 54 51 52 51 52 52 50 51 50 50 47 47 47 46 45 44 44 44 44 43 43 43 43 43 43 43 43 43 42 42 44 44 44 44 45 44 44 44 44 44 45 46 45 44 43 44 44 44 45 45 47 46 46 47 48 48 50 50 50 50 50 50 52 53 53 53 53 53 53 53 54 56 58 58 59 59 60 64 65 67 68 71 71 74 77 80 83 91 95 97 107 108 112 116 111 107 111 114 127 133 138 140 140 149 160 159 160 159 157 157 164 175 189 197 201 203 196 194 196 196 194 193 199 201 200 199 199 200 199 191 183 178 178 185 190 191 191 188 186 183 178 175 175 173 173 169 166 162 159 160 175 196 194 193 204 208 208 204 206 208 213 223 230 228 227 224 222 223 225 225 226 226 226 222 217 213 206 201 200 198 192 188 186 185 185 185 187 185 182 186 183 180 180 180 183 188 191 197 197 201 201 203 207 216 218 218 217 216 214 213 212 213 216 203 202 196 194 196 192 195 196 188 171 173 168 166 169 166 164 165 160 160 160 155 143 131 129 127 129 135 136 136 143 142 146 151 159 166 155 151 153 156 157 153 146 142 140 141 138 140 146 153 160 164 166 169 173 176 180 178 180 176 176 176 175 176 175 171 168 168 169 186 197 203 201 199 194 186 180 180 170 168 168 171 171 175 175 175 176 175 175 174 183 199 206 206 203 206 210 212 212 211 211 206 201 201 204 206 210 216 222 223 225 228 231 234 226 219 213 212 213 213 214 221 227 227 228 224 211 191 166 159 159 160 162 160 160
90 85 80 75 74 73 72 77 77 77 80 84 86 91 93 88 85 85 85 83 81 83 85 86 86 90 95 100 107 109 110 114 117 116 115 116 118 120 120 120 120 123 129 133 138 144 146 144 135 127 129 142 149 144 140 133 122 114 111 102 88 80 79 77 93 104 100 91 91 90 91 97 98 99 91 83 83 79 75 74 71 68 67 67 63 59 58 56 56 55 54 53 52 52 52 53 52 53 53 53 53 53 53 52 52 53 53 54 53 52 52 53 52 52 52 52 52 52 52 53 51 50 50 52 51 50 50 50 51 51 51 50 51 50 48 48 48 48 46 45 45 45 45 45 45 47 46 46 44 43 43 42 42 42 42 42 43 42 42 42 42 42 41 42 43 43 43 43 43 43 43 43 43 44 45 44 43 43 43 45 46 45 45 45 45 45 46 47 46 46 48 48 48 48 48 49 51 51 51 53 52 52 53 52 53 53 54 55 56 57 58 60 60 61 64 67 70 71 73 79 82 86 91 95 95 100 102 103 104 107 114 120 125 131 137 137 148 153 153 153 153 153 149 159 173 176 183 188 193 194 194 193 193 193 188 188 191 188 185 186 186 183 171 168 168 171 178 178 173 169 169 166 164 159 159 159 160 157 149 145 147 149 151 164 175 180 183 196 199 200 204 207 208 211 219 222 225 222 213 212 214 218 220 219 220 221 214 211 207 199 194 188 186 185 180 180 181 186 186 185 180 178 180 178 176 176 171 171 175 180 181 185 186 188 193 201 212 208 208 208 210 208 204 204 203 207 207 200 194 191 191 193 191 180 169 157 155 151 153 155 153 151 155 151 146 140 131 123 123 125 136 149 157 159 159 153 151 153 160 178 180 164 155 157 157 157 155 151 155 160 162 160 160 166 171 171 175 175 176 176 178 179 180 180 176 178 178 174 169 168 166 164 162 169 180 191 193 191 191 191 187 183 175 168 166 166 170 169 169 168 166 165 160 160 168 169 178 190 191 191 193 192 194 197 199 197 193 191 191 193 198 206 207 212 212 213 214 216 217 214 210 207 207 210 211 208 207 210 207 208 208 199 185 171 160 160 162 164 164 164
97 95 92 91 90 93 95 98 100 100 102 105 102 100 104 105 100 97 100 98 95 95 93 97 98 102 105 107 109 109 109 106 107 105 104 104 101 103 103 104 105 104 105 109 112 116 116 112 107 104 102 107 112 112 104 97 98 95 83 77 76 75 74 74 89 93 86 82 82 80 82 85 82 79 77 73 73 70 65 64 64 63 60 60 59 59 58 59 56 55 54 53 52 52 52 52 52 52 52 51 52 52 51 50 50 52 52 52 52 51 53 52 51 51 51 51 51 51 51 51 52 51 50 50 50 50 50 48 48 47 48 50 47 47 47 46 46 45 43 45 45 44 44 45 44 47 45 44 43 44 44 43 43 43 42 40 42 41 40 42 42 43 43 44 44 44 44 44 44 44 44 44 44 44 44 44 44 44 44 45 45 45 45 44 45 45 45 45 46 47 48 48 49 48 47 50 51 51 51 51 52 52 52 51 52 52 53 55 56 56 56 58 58 59 61 63 64 68 73 77 80 83 91 91 98 107 111 112 116 123 133 131 133 135 136 135 135 134 134 135 138 138 144 151 160 164 166 171 178 183 193 194 193 193 188 186 183 178 173 168 169 166 155 153 155 159 160 160 149 145 144 140 136 136 138 136 136 135 131 131 136 142 146 153 153 169 186 191 189 189 197 204 203 203 208 207 211 211 200 193 197 203 207 208 204 203 204 200 196 193 186 176 173 175 172 175 178 185 185 180 175 171 171 169 168 168 165 169 171 169 169 168 168 175 181 185 191 194 196 199 196 193 193 195 199 197 194 185 180 178 179 175 171 162 148 138 138 136 136 136 136 136 131 129 127 129 133 140 149 151 162 164 160 162 160 152 157 160 169 175 175 181 173 173 171 168 166 169 169 171 172 169 169 171 173 175 175 175 175 175 176 177 176 176 175 176 173 159 153 155 159 160 160 164 174 183 185 185 186 189 191 185 171 166 166 168 164 165 162 158 155 149 148 148 157 160 162 175 178 177 180 182 178 180 180 181 181 181 181 186 191 196 193 194 196 196 201 203 203 204 203 203 204 204 200 189 180 180 181 180 183 181 173 173 164 159 164 166 166 166
97 98 98 98 98 100 100 100 100 100 100 98 97 97 100 109 112 109 110 110 111 112 111 107 107 105 105 105 104 102 100 98 97 97 96 97 93 93 94 93 93 88 88 91 91 88 87 83 83 81 80 80 79 82 77 77 79 80 74 72 73 71 70 73 81 83 76 74 71 71 70 70 65 63 64 64 63 64 61 60 60 59 58 58 58 59 59 59 60 60 60 56 54 54 56 56 56 56 56 55 55 54 54 53 52 52 52 52 51 50 51 52 51 50 50 50 51 49 50 50 50 50 50 50 50 50 50 50 52 51 48 48 47 47 46 46 45 45 45 45 45 45 45 45 45 45 45 46 46 47 46 45 45 46 44 43 44 43 42 42 42 43 44 43 44 44 44 43 44 44 42 43 44 43 43 43 43 44 45 45 45 44 45 45 45 45 45 44 46 47 48 48 48 47 47 50 51 51 51 52 52 52 52 52 52 52 53 54 55 55 59 56 56 60 61 61 63 64 67 70 73 77 83 85 88 91 94 98 100 104 107 109 111 111 109 109 109 111 112 116 120 129 138 142 146 146 148 157 162 164 173 176 175 175 173 173 168 155 151 151 153 148 141 142 145 144 142 142 138 133 131 125 118 118 120 120 120 123 131 135 136 142 155 168 178 183 188 185 173 173 183 193 191 191 194 191 185 181 175 173 175 185 188 189 189 193 191 186 186 188 180 173 169 169 171 175 178 178 178 173 164 157 157 159 153 151 155 159 159 153 151 151 153 159 164 173 176 181 181 181 181 181 183 188 183 173 168 162 155 151 148 147 146 142 135 131 131 131 129 135 144 144 140 144 155 166 173 171 162 160 160 160 160 155 146 142 148 154 164 168 169 173 176 176 176 171 169 166 164 168 169 171 171 171 171 175 175 175 175 175 173 174 173 175 173 168 161 149 144 148 151 159 160 164 168 176 181 176 180 186 188 181 173 174 171 166 160 155 149 146 145 140 140 140 146 148 148 151 160 162 162 168 166 164 162 159 162 164 166 166 171 175 175 176 181 181 178 175 173 175 175 180 181 178 176 173 166 166 164 162 164 164 166 164 162 160 166 166 166 166
98 98 100 98 98 97 97 95 95 95 95 91 91 95 98 105 120 122 122 122 122 123 118 112 105 98 98 98 97 96 95 95 93 93 96 97 95 97 95 92 88 88 88 85 83 83 80 79 76 74 74 74 73 71 69 70 70 70 71 70 70 70 68 70 71 71 68 70 70 68 68 65 61 60 59 59 60 63 61 61 61 63 64 59 61 63 67 68 71 71 70 67 59 59 61 61 63 63 64 64 64 64 60 58 58 56 56 56 56 54 53 53 54 54 54 54 55 55 56 56 56 56 56 55 56 58 59 60 59 58 56 52 49 48 50 49 48 50 51 48 48 46 46 47 48 51 53 52 52 51 48 48 47 46 45 45 45 44 44 43 43 43 43 43 43 44 43 43 43 43 45 44 43 43 44 43 44 44 44 44 44 44 44 45 45 45 46 46 47 48 50 50 50 50 50 50 51 51 52 52 52 51 51 51 51 52 52 54 54 54 56 56 55 56 59 60 59 59 60 60 61 65 68 70 73 74 77 82 82 83 85 86 86 89 91 91 91 95 100 105 109 116 119 126 129 135 138 138 144 149 153 152 149 148 146 144 142 135 133 134 133 129 127 125 127 129 133 133 133 133 135 135 133 136 138 142 149 160 166 169 164 160 169 176 179 175 164 149 148 153 159 171 175 171 168 166 162 160 149 146 148 149 157 166 173 169 166 171 178 183 185 176 166 162 161 166 168 169 169 164 153 149 153 149 136 135 138 142 138 138 135 133 133 135 136 144 155 157 151 151 151 153 138 136 135 133 131 129 129 131 131 135 142 146 148 149 149 153 153 154 155 148 146 151 166 181 181 169 159 153 155 155 155 149 142 140 140 144 151 155 162 168 175 176 175 171 166 160 159 162 168 168 168 169 169 171 171 171 173 173 173 173 171 171 169 162 158 157 157 144 148 155 157 159 159 166 171 171 178 185 183 174 169 166 164 159 151 144 136 135 135 135 133 133 135 140 142 144 146 148 149 146 146 146 146 146 144 140 138 140 144 149 157 158 160 164 160 151 146 151 159 160 164 163 165 166 162 167 166 168 168 164 164 162 162 164 166 166 166 166
98 97 95 93 93 93 95 95 93 96 93 93 98 100 97 111 116 120 122 120 118 114 108 100 91 88 90 91 90 90 90 90 88 86 87 90 93 95 95 90 86 86 83 82 82 80 80 79 75 75 74 73 71 71 68 68 68 67 68 68 70 68 68 69 70 70 68 70 68 73 74 65 70 71 70 70 69 77 82 74 70 79 85 85 81 83 91 86 74 79 80 74 70 68 67 67 70 70 71 75 80 71 64 63 63 64 63 63 61 68 77 77 77 75 74 75 75 68 71 74 74 73 73 73 75 76 77 79 79 77 73 65 65 67 68 70 72 73 73 71 70 68 68 65 67 64 60 59 56 52 51 51 50 47 47 45 44 43 42 43 43 44 45 46 46 46 46 46 44 44 45 45 44 44 45 45 45 45 44 45 45 45 45 46 48 51 50 48 47 47 50 50 50 49 51 51 52 51 51 52 52 50 50 49 51 52 54 54 54 54 55 54 55 56 58 56 55 58 59 59 59 61 64 65 69 70 70 74 75 75 75 80 76 79 82 83 85 90 95 95 97 100 100 102 109 116 125 128 127 123 125 123 118 114 111 111 112 111 111 114 114 118 118 120 122 122 123 123 125 127 129 133 135 140 140 141 149 149 155 162 155 142 135 138 142 136 127 122 117 121 126 131 127 123 122 122 123 123 122 125 127 131 135 142 153 157 159 166 173 176 175 168 153 151 151 157 159 164 162 153 142 138 140 133 127 127 125 122 120 120 116 114 118 118 114 114 127 137 151 155 149 140 138 138 140 140 140 140 146 151 157 159 168 168 168 166 166 168 164 160 149 140 142 148 151 155 160 157 149 144 142 142 142 144 142 142 144 153 155 160 162 164 168 168 166 162 160 157 159 159 162 166 167 169 169 168 168 168 169 171 169 169 168 168 168 164 162 164 162 142 144 146 146 149 149 153 162 168 169 171 166 155 145 140 140 140 134 133 129 127 127 129 129 127 127 131 135 134 136 138 138 135 129 129 135 133 127 125 127 125 130 135 144 146 146 144 144 148 151 157 169 169 171 170 175 176 169 166 168 169 171 169 168 168 169 169 168 166 161 160
95 97 93 92 93 95 95 93 90 91 100 109 111 109 104 111 112 109 109 107 98 95 95 90 85 85 85 83 83 83 82 80 83 83 83 83 90 93 93 88 85 84 80 79 75 73 73 74 73 68 71 70 68 68 65 65 65 65 64 67 68 67 67 68 70 70 68 71 73 80 85 82 82 85 86 86 86 86 86 83 82 85 90 93 91 91 91 86 77 77 77 74 77 74 70 70 70 71 73 77 83 74 67 65 65 68 67 68 71 85 98 97 97 88 82 82 80 79 80 79 80 79 79 80 80 79 80 82 81 82 80 80 79 79 79 77 75 75 74 77 79 80 82 83 82 79 80 75 68 60 56 54 55 55 56 53 51 51 51 54 60 63 61 57 61 65 61 63 61 67 68 68 71 72 73 73 69 65 67 65 63 56 56 56 56 58 61 60 54 54 54 52 52 53 56 58 56 54 53 53 53 51 51 52 53 53 54 54 53 53 56 55 55 55 55 55 55 56 58 58 60 61 62 63 64 65 65 65 68 68 70 70 70 71 71 73 73 77 77 79 82 79 82 85 88 90 104 107 102 100 98 97 94 93 93 93 95 95 95 95 97 98 101 105 105 104 105 105 105 105 105 105 107 107 108 109 109 111 112 114 111 105 101 102 100 98 100 102 100 100 104 107 105 105 105 107 107 109 114 113 117 123 125 133 142 151 159 162 159 166 160 148 142 144 144 149 155 155 147 136 127 125 125 123 122 120 116 116 116 116 116 118 114 120 148 175 183 180 196 196 185 173 169 166 169 169 169 169 166 168 168 168 166 166 166 164 164 162 160 151 142 142 145 144 142 142 140 140 140 142 142 138 136 138 138 142 144 151 153 157 159 159 160 160 162 160 160 159 159 162 163 163 164 165 164 162 162 164 164 164 164 164 164 164 164 164 164 164 162 153 148 148 148 148 150 155 158 162 159 159 158 151 144 138 138 136 131 127 127 125 125 127 127 123 123 123 123 123 123 119 122 123 123 123 123 122 119 126 131 133 136 147 153 153 153 151 153 158 162 171 175 174 178 178 181 186 180 171 168 168 162 159 159 155 151 151 149 148 149 156
95 95 93 93 95 95 95 93 95 98 109 112 109 103 100 100 100 95 93 93 89 86 86 85 82 85 85 82 82 83 82 80 80 80 82 82 85 88 86 83 82 82 80 75 73 70 70 68 67 65 67 67 65 65 65 65 66 65 64 65 65 65 67 68 68 70 68 70 79 86 86 86 88 90 88 86 87 85 85 86 88 90 91 91 90 83 85 85 80 73 73 74 75 74 73 73 73 74 74 74 83 85 80 83 83 75 73 80 91 93 94 95 91 84 75 75 75 75 79 79 79 79 79 80 79 80 81 83 83 82 80 80 79 79 79 77 75 75 75 77 79 80 80 82 82 85 86 82 80 75 71 70 73 74 77 74 75 75 74 77 77 75 75 77 77 79 80 80 82 80 83 82 83 85 91 88 90 90 90 90 90 86 85 82 82 79 79 86 90 90 88 85 83 83 80 80 82 74 63 55 53 53 53 54 54 55 53 53 53 54 54 54 54 54 54 56 58 59 58 61 64 61 63 63 64 65 65 64 63 65 68 68 68 68 68 68 68 71 70 71 74 75 75 75 75 74 77 77 79 79 79 80 80 80 79 83 85 85 85 85 85 87 88 89 90 91 93 95 95 97 98 98 98 97 97 97 97 95 95 95 95 95 92 93 91 90 91 93 95 95 100 104 104 104 104 102 101 101 107 111 112 118 122 129 136 144 153 157 152 149 146 138 138 136 136 142 146 143 136 131 130 131 131 133 131 133 134 136 140 140 136 140 148 169 200 211 206 203 197 189 181 176 168 164 168 169 169 169 169 166 164 164 166 166 166 164 162 159 159 153 146 146 144 142 142 140 138 138 136 136 133 129 127 131 133 134 135 142 144 148 155 157 155 158 160 160 162 162 162 164 163 164 164 159 159 160 160 164 164 162 162 162 164 164 164 164 164 162 159 162 162 164 164 164 164 162 160 160 162 157 151 148 142 138 144 140 135 129 127 125 123 125 127 125 123 123 123 123 119 116 120 122 127 127 130 131 136 142 149 151 153 160 162 162 164 166 166 168 164 169 165 160 164 164 166 164 151 139 136 136 140 144 144 151 155 160 166 164 168 171
95 93 92 93 93 93 93 95 105 114 116 110 104 96 90 90 90 91 93 91 86 85 85 83 82 85 85 82 82 83 83 83 82 82 83 83 82 83 85 83 81 79 77 73 73 71 71 67 65 68 66 64 65 65 64 66 65 64 63 64 65 65 65 67 68 68 68 74 83 87 86 86 86 86 83 83 83 82 83 86 85 84 85 85 85 84 83 83 77 73 74 74 75 75 75 75 75 75 75 75 82 86 86 88 87 77 73 77 85 86 85 86 85 79 75 75 75 75 79 80 80 79 79 81 80 80 82 83 82 80 81 80 79 79 79 77 75 75 75 77 79 80 80 80 82 85 86 85 83 83 83 83 80 80 80 82 85 83 80 79 79 75 75 75 77 79 79 80 80 80 82 83 83 83 86 88 88 90 90 91 91 90 91 93 93 94 97 97 98 98 102 100 98 97 80 93 98 95 93 88 74 64 65 64 63 63 64 64 64 63 64 70 79 77 77 75 71 69 61 59 60 63 61 63 63 64 63 61 60 61 63 63 64 64 64 64 63 67 68 67 69 70 71 73 73 73 73 73 74 77 75 75 79 77 77 82 83 83 83 85 85 88 86 86 88 90 93 95 95 95 98 98 99 98 100 102 102 100 100 100 102 104 102 102 102 102 102 102 104 104 107 109 111 109 104 102 102 98 98 102 104 107 111 122 129 136 136 136 136 136 137 137 140 140 144 148 149 153 151 149 149 149 148 148 146 148 153 159 162 164 169 183 191 197 194 189 189 187 181 176 173 173 171 169 171 169 169 173 173 175 177 176 178 178 178 174 160 151 148 147 146 144 140 138 140 136 137 135 133 131 127 127 127 129 135 135 140 148 153 155 157 157 159 160 160 160 160 162 164 164 164 164 164 160 160 160 160 164 163 161 160 160 162 164 164 164 164 164 164 162 159 162 164 164 164 164 162 160 160 160 155 151 156 159 153 148 142 144 136 129 131 131 135 133 133 133 135 138 140 142 146 148 153 153 155 154 159 159 160 160 159 159 155 153 151 144 136 136 135 133 136 138 146 151 151 153 157 159 162 168 169 168 169 169 170 168 169 169 169 169
95 93 93 93 94 91 91 91 101 111 114 109 104 95 90 90 90 90 90 90 86 86 86 88 88 87 86 85 86 86 85 86 85 85 83 83 83 83 85 85 83 80 79 75 74 73 71 68 67 67 65 64 64 65 65 65 65 64 61 64 65 65 64 71 77 79 79 81 81 82 82 83 82 82 80 80 80 79 79 82 82 80 79 79 80 83 82 75 74 74 74 74 75 76 75 75 75 75 75 75 80 82 81 80 79 73 74 79 81 80 80 80 80 74 75 75 76 75 77 77 77 79 79 79 80 80 80 82 80 80 80 80 79 77 77 77 75 75 75 79 79 80 80 79 82 85 86 85 83 82 82 81 81 80 80 80 80 80 79 79 79 75 76 75 77 79 80 80 80 80 82 83 83 85 88 88 88 90 90 90 90 90 91 93 93 95 98 98 98 98 100 100 98 97 88 95 93 93 93 94 98 98 98 97 98 100 100 100 100 100 102 105 107 105 107 102 93 88 86 93 93 91 80 67 60 60 60 58 59 60 57 58 59 59 60 61 60 63 64 64 64 65 67 67 67 70 71 73 74 75 77 78 77 77 79 80 82 82 83 85 83 85 84 86 88 88 91 93 95 95 97 97 98 100 100 104 104 107 105 107 109 109 109 108 107 107 107 111 112 112 111 111 111 112 114 112 112 112 114 118 116 114 116 120 120 123 123 130 135 138 144 146 146 151 157 159 159 160 159 151 151 149 148 146 144 146 147 151 157 162 168 169 173 175 173 171 171 171 169 175 183 185 183 183 178 176 175 176 178 181 185 185 185 185 185 183 164 149 150 144 138 136 138 138 138 136 136 136 136 136 136 138 138 144 148 151 155 161 163 162 160 160 160 160 160 160 159 162 162 164 164 164 162 160 160 160 162 164 162 162 162 162 161 164 164 164 164 164 165 163 162 164 164 164 164 164 162 160 160 160 159 160 159 162 157 155 155 157 157 151 149 148 153 153 153 155 157 158 162 160 159 159 156 155 149 138 138 135 131 131 131 133 133 135 144 148 149 159 166 165 169 173 170 173 171 171 171 171 166 168 168 169 169 169 169 169 169 169 169 169
95 93 91 91 91 90 88 86 93 104 112 116 118 114 104 93 95 95 93 92 90 90 90 90 90 90 88 88 86 85 85 86 85 85 85 85 85 85 85 84 85 83 82 82 79 78 77 77 75 73 71 70 70 70 73 74 70 70 68 70 70 71 73 75 79 80 82 84 82 80 80 80 80 80 80 80 81 80 80 80 80 80 80 80 80 80 79 79 75 76 74 74 74 74 74 73 73 73 73 73 75 79 77 75 76 73 75 79 80 80 79 80 77 74 75 75 75 75 75 75 75 77 79 77 77 76 80 80 80 80 80 80 79 75 75 75 79 77 75 77 79 79 79 80 80 81 85 83 80 80 80 80 82 79 79 79 79 79 79 79 79 75 75 75 77 79 80 80 80 80 80 80 83 85 88 88 88 90 90 90 90 90 91 93 93 95 95 95 97 98 98 98 98 98 98 97 95 95 98 97 97 100 100 100 102 104 105 107 105 107 109 108 104 97 95 91 91 91 97 135 140 131 127 120 100 85 74 67 63 60 59 59 59 59 60 59 59 61 64 67 68 70 73 74 78 77 77 77 75 75 77 76 78 79 86 90 102 104 104 104 100 101 100 104 105 105 106 105 111 112 120 118 114 114 114 112 112 111 107 107 107 107 108 107 107 107 106 109 111 107 109 109 109 112 120 120 125 129 138 142 142 140 142 144 146 146 144 148 151 155 154 153 153 152 151 153 153 153 151 149 149 149 149 146 142 144 146 146 148 149 153 159 162 166 168 170 171 173 173 176 180 178 178 178 181 181 181 180 176 176 173 173 173 173 168 168 159 156 155 149 144 146 148 144 148 148 146 146 149 151 153 155 154 159 159 160 160 160 160 160 159 160 160 160 160 159 160 160 160 162 164 162 160 160 160 159 160 160 162 164 164 164 159 160 164 164 164 164 164 164 164 164 164 164 162 160 160 160 161 160 160 160 160 162 162 162 163 162 159 157 153 153 153 149 146 144 139 134 133 133 134 133 131 135 140 148 154 157 160 157 164 166 169 171 170 171 171 169 169 169 169 169 171 171 169 169 171 169 168 169 169 171 172 169 169 169 169 169 169 169
95 93 91 91 94 91 96 109 112 114 122 118 114 114 109 98 97 95 93 93 91 91 92 90 90 90 88 86 86 85 85 83 85 85 85 85 86 86 86 85 85 86 85 86 82 83 83 85 82 79 79 79 79 78 76 77 79 79 77 77 79 79 80 77 79 82 83 83 82 79 80 80 81 81 82 82 82 83 82 82 82 82 82 82 83 82 82 80 77 75 75 74 74 74 74 74 77 75 74 74 77 79 79 77 78 75 77 79 79 79 78 79 77 76 75 75 75 74 75 77 77 77 77 79 79 77 79 80 82 82 81 82 79 79 77 77 79 77 76 77 77 79 79 80 79 82 82 82 80 80 82 82 82 76 75 77 79 79 79 79 79 75 75 74 77 79 79 80 80 80 80 80 83 83 86 88 88 88 88 88 88 88 88 91 93 93 95 97 98 99 98 98 98 98 98 98 98 98 100 102 102 102 103 104 104 104 105 106 107 107 109 109 108 104 102 100 100 95 92 109 120 114 112 114 112 107 100 95 86 80 75 75 75 75 75 77 79 82 86 85 79 82 83 84 85 85 85 83 79 80 82 83 85 91 98 107 122 125 125 125 123 125 127 127 127 129 127 127 131 130 133 133 133 134 133 135 135 131 131 133 129 125 127 127 127 125 127 129 129 129 127 127 127 124 131 140 142 140 145 148 148 149 148 146 149 153 153 151 151 151 151 151 149 148 149 148 146 146 148 148 148 149 148 148 148 149 149 153 157 157 157 155 164 170 169 171 171 175 173 171 164 159 160 160 162 162 166 164 160 159 159 157 157 159 157 157 159 155 155 155 153 155 155 153 157 159 159 157 157 159 157 157 159 158 159 160 160 160 160 160 160 160 160 160 160 160 160 160 160 162 164 160 160 162 162 160 160 162 163 161 162 162 160 160 161 162 164 164 164 162 164 164 164 165 165 160 163 163 162 162 162 159 155 151 149 147 141 136 127 123 125 127 129 138 138 144 144 148 151 157 160 160 164 168 166 164 166 166 164 164 164 164 168 169 169 169 169 169 168 166 168 168 169 169 169 171 169 172 173 169 169 169 169 168 168 169 168 166 168 169
96 93 90 91 91 91 109 120 125 120 116 105 104 103 102 98 95 96 91 91 90 91 93 90 90 88 86 85 85 85 83 82 83 85 85 85 86 86 86 86 85 85 85 85 85 85 85 83 82 80 80 80 80 80 79 79 80 80 80 79 76 77 77 77 79 82 82 82 82 80 80 80 80 80 82 83 83 82 80 82 82 82 82 82 83 83 83 79 75 75 75 75 74 74 73 74 79 77 75 77 79 77 77 77 77 79 77 77 77 77 79 79 79 79 75 75 75 75 75 77 77 75 75 77 78 77 79 80 82 83 82 82 80 80 76 77 77 77 79 75 75 77 79 80 80 80 80 80 80 80 80 80 83 77 75 77 79 78 79 79 79 75 75 75 77 79 80 80 80 81 80 80 83 83 85 89 90 89 88 88 88 88 88 90 93 93 97 98 98 97 98 98 100 100 97 100 100 100 100 104 104 104 104 105 105 105 105 105 109 109 109 109 109 109 109 106 107 102 100 98 102 100 100 100 97 95 97 97 98 95 97 111 112 112 114 118 120 119 114 100 86 85 85 85 85 85 86 87 91 93 98 104 107 111 109 111 114 118 120 122 122 123 127 125 127 127 127 127 131 131 131 131 133 133 133 133 134 133 135 135 133 135 135 135 135 135 135 133 135 139 136 136 136 138 148 165 164 144 144 148 148 147 148 149 148 152 149 150 149 149 149 148 148 149 148 148 148 149 149 148 149 149 148 148 149 155 158 162 168 168 162 155 159 157 157 155 155 153 151 151 151 151 153 155 155 155 155 155 156 155 154 155 156 157 158 157 158 155 156 155 155 156 155 155 160 159 159 159 159 160 159 157 159 159 159 160 160 160 160 160 159 160 160 160 159 159 160 160 160 160 160 160 160 159 159 160 160 162 162 160 160 160 163 162 162 162 164 164 163 160 159 159 153 148 143 140 135 129 126 125 123 123 127 132 136 142 146 149 155 157 153 157 160 160 163 166 164 162 162 160 160 160 164 164 163 162 162 162 164 164 164 166 166 166 166 166 166 166 161 159 162 164 168 177 185 188 180 175 176 171 169 169 169 166 166 165 167 166 166 166
97 95 99 98 97 104 116 122 122 112 102 95 97 100 102 95 93 91 90 90 91 93 93 93 90 86 85 83 83 83 83 83 85 85 85 85 85 86 88 86 85 85 85 85 85 82 83 85 83 80 80 80 80 80 80 81 80 82 81 79 79 80 82 79 80 83 83 83 83 83 82 82 80 80 82 82 82 82 82 83 83 83 83 82 80 82 78 74 74 74 75 75 74 74 75 75 77 79 78 77 79 79 79 79 79 79 79 80 79 79 79 79 79 79 76 75 75 75 75 76 79 77 77 79 79 79 79 80 80 80 80 80 80 80 79 77 75 75 75 75 75 75 77 77 76 77 79 80 79 79 79 79 80 77 75 77 79 77 77 77 77 75 75 75 77 79 80 80 80 80 80 80 83 83 85 88 88 88 88 88 87 88 88 91 91 93 97 98 100 100 100 100 100 100 100 102 104 104 104 104 104 105 105 105 105 105 107 109 109 109 108 109 105 102 97 93 91 95 100 103 100 105 112 111 107 104 100 101 102 98 105 107 105 107 110 109 109 111 109 105 100 96 95 95 95 98 102 104 105 107 109 109 109 111 111 112 114 116 116 120 122 125 125 125 127 127 127 127 132 131 133 133 134 135 136 136 133 133 133 134 133 133 133 134 133 133 135 135 136 136 136 136 138 145 149 173 166 146 144 148 148 148 149 149 146 146 149 149 149 149 148 149 150 149 149 151 153 154 153 153 153 148 144 146 151 153 157 159 159 160 159 157 153 149 150 151 151 151 150 151 153 153 155 155 155 156 155 155 155 155 155 155 155 156 155 153 153 155 154 155 155 155 155 155 158 157 158 157 159 159 159 158 159 159 159 161 161 160 159 159 159 159 159 159 155 157 158 160 159 160 160 160 160 162 162 159 162 162 159 157 151 151 148 144 138 136 133 129 127 127 125 129 127 133 131 139 142 148 153 155 159 162 160 162 162 160 159 159 159 160 159 158 157 159 160 162 159 159 159 159 160 160 160 160 160 160 160 162 162 161 165 164 164 164 164 164 166 164 157 162 175 178 185 194 200 197 188 178 180 176 166 164 166 167 166 162 164 164 165 164
97 100 114 114 116 116 112 112 111 100 95 95 97 101 98 88 88 89 90 91 93 93 93 91 86 85 84 83 83 83 86 85 85 85 88 88 88 90 91 90 88 88 88 87 88 83 82 82 82 80 80 80 79 80 80 82 86 88 88 85 85 85 86 86 88 90 89 90 90 90 88 86 86 86 87 85 83 85 86 85 85 83 83 82 79 74 73 74 74 74 75 76 74 74 75 75 77 79 79 79 79 79 80 79 79 79 79 78 79 79 79 77 75 74 75 75 75 75 75 77 79 79 79 79 79 79 79 80 80 80 80 80 80 80 79 77 75 75 75 75 75 75 75 75 75 76 77 79 78 79 79 79 79 77 75 77 79 77 76 75 75 75 75 74 77 79 79 80 80 80 80 80 83 83 85 86 88 87 88 88 88 88 88 90 91 93 95 98 100 100 100 101 101 100 100 102 104 104 104 104 104 104 105 105 105 105 107 109 109 110 109 107 100 97 95 91 93 92 90 91 91 97 111 111 108 105 102 105 105 102 101 102 102 104 104 104 103 107 107 105 107 109 107 105 104 104 105 105 104 105 109 109 109 109 111 112 114 116 116 118 120 124 124 124 125 127 127 127 129 131 134 133 133 135 136 133 133 132 133 133 133 133 133 133 133 133 135 136 135 136 136 135 138 148 178 183 169 146 142 148 148 148 148 149 148 148 149 149 148 149 149 149 149 149 150 151 153 153 153 153 153 146 140 143 151 151 148 146 149 156 155 155 151 151 153 153 153 157 155 153 153 155 155 155 155 155 155 155 155 155 155 155 155 155 155 153 153 155 155 155 155 155 155 155 155 155 159 160 162 162 162 162 160 162 162 160 160 160 160 159 159 160 160 160 157 157 157 157 155 151 148 144 140 136 136 129 125 123 122 123 127 125 129 131 138 142 148 151 153 151 157 157 157 157 158 157 157 157 157 157 157 156 155 157 157 159 159 159 159 157 159 159 158 159 157 157 153 153 157 159 157 157 157 159 160 161 160 159 157 159 159 159 160 162 162 164 164 168 180 191 196 196 196 193 191 189 183 176 180 178 164 154 155 159 159 159 158 159 160 162
102 103 114 116 114 112 107 102 100 97 98 100 102 104 98 93 93 91 93 95 98 100 97 90 85 83 83 83 82 85 95 98 93 88 90 93 95 95 95 93 91 93 93 93 90 83 82 80 82 83 82 80 80 80 81 82 88 91 91 91 91 90 88 91 95 95 97 98 95 94 91 91 91 91 90 90 86 90 91 90 88 88 88 85 74 73 73 74 74 75 75 75 74 74 77 79 80 82 80 80 80 80 80 81 80 81 80 82 80 80 82 79 75 73 74 74 75 77 77 77 76 75 75 79 79 79 79 80 80 80 80 80 81 79 74 75 75 73 74 75 75 74 74 74 74 75 75 75 75 75 75 75 75 75 75 77 79 77 75 75 75 74 74 75 77 79 79 79 80 80 80 80 83 82 85 88 88 88 88 88 88 90 90 91 93 95 97 100 102 102 102 102 102 102 102 104 104 104 104 103 104 105 105 105 107 109 109 109 109 109 109 105 102 100 100 102 102 102 100 102 102 104 107 109 109 109 111 111 109 107 102 102 102 102 100 102 104 105 111 112 112 116 112 105 104 104 104 104 105 105 105 107 109 109 111 112 114 116 116 123 122 125 125 127 127 127 127 127 131 131 131 131 133 133 133 133 133 133 133 133 133 131 131 133 135 135 133 133 133 135 136 135 135 153 183 180 155 143 142 144 146 149 148 149 149 149 149 149 149 149 149 149 149 151 151 153 153 153 153 153 149 142 144 144 149 153 156 153 153 155 155 155 155 156 155 155 155 159 159 157 157 155 157 157 155 155 155 155 155 155 157 157 157 155 153 153 153 155 155 155 155 155 155 155 159 162 162 162 166 167 166 166 164 165 166 164 164 162 157 151 149 142 135 135 130 127 123 123 125 125 129 131 133 135 138 144 149 151 155 155 157 160 161 160 162 159 153 149 153 153 155 155 155 155 155 153 151 151 151 151 151 151 153 153 155 155 155 155 155 155 155 155 155 153 155 153 153 153 153 153 155 155 155 156 155 155 155 155 157 155 155 155 155 157 159 162 164 171 183 188 191 188 186 181 180 176 176 173 175 171 160 153 153 155 153 153 153 152 157 157
104 99 104 111 112 108 104 105 104 105 104 105 105 102 102 107 107 104 100 102 104 105 102 93 86 83 83 83 83 86 98 102 102 98 97 97 100 100 100 98 97 97 97 95 90 83 80 80 82 83 82 80 80 80 79 79 86 97 93 93 93 90 91 93 96 98 100 102 100 97 93 93 93 93 93 88 80 86 93 91 90 88 79 77 74 73 74 74 73 73 75 75 74 73 75 82 90 87 88 88 88 88 88 85 87 88 88 88 86 85 86 83 80 75 75 74 75 76 79 79 77 76 75 77 78 77 79 80 79 80 80 80 81 79 75 75 75 74 74 74 74 73 73 73 74 74 74 74 74 75 75 74 75 75 75 77 79 77 75 75 75 74 74 75 77 79 79 79 81 80 79 82 83 83 85 88 88 88 88 88 88 90 91 94 94 95 98 102 104 102 104 104 105 104 104 104 104 104 104 104 104 105 105 104 106 108 107 107 108 107 109 107 107 107 109 112 111 112 115 114 114 114 114 112 112 111 111 112 112 112 109 109 109 107 105 107 109 112 120 122 122 119 111 108 104 104 104 104 105 105 107 107 109 112 112 114 114 116 118 122 123 125 127 127 127 127 126 129 131 131 131 133 133 133 133 133 133 133 133 133 133 131 133 133 136 136 135 133 133 135 136 135 135 144 166 159 140 142 142 144 146 148 149 149 149 149 149 149 149 149 148 148 148 151 151 154 153 153 153 153 151 149 149 148 149 153 155 155 155 155 155 153 155 155 153 153 153 157 159 159 157 157 159 159 155 155 155 157 157 157 159 159 159 157 157 156 157 157 157 157 158 157 157 157 155 157 152 149 148 149 148 144 138 139 136 137 136 140 140 136 135 138 146 148 151 157 157 159 162 160 160 157 159 157 157 155 157 155 155 158 159 157 155 171 181 178 166 162 159 155 155 155 155 155 155 153 153 153 153 153 153 153 153 153 156 155 155 153 151 153 155 155 155 151 153 153 153 153 153 153 155 155 155 155 155 155 155 153 153 155 155 155 156 153 155 159 155 159 168 169 169 166 162 166 166 160 157 157 159 160 153 155 155 156 155 153 151 151 153 153
104 97 95 102 105 102 104 109 109 105 102 102 102 98 104 110 110 109 105 102 97 101 111 100 85 80 80 90 102 100 100 105 107 104 102 104 104 104 100 101 100 100 98 97 93 91 84 79 80 81 80 80 79 79 79 77 79 86 97 91 93 92 93 95 98 100 99 100 100 100 98 98 95 95 95 83 77 80 93 91 86 83 74 70 70 71 71 71 71 71 74 74 74 73 75 82 91 91 91 91 91 91 91 88 88 90 90 88 86 85 85 86 85 75 73 74 75 75 75 75 75 77 77 77 77 77 77 78 77 77 79 79 77 77 75 75 75 75 75 74 73 73 73 73 73 73 74 75 75 75 75 75 75 75 75 75 76 75 75 75 75 75 75 75 75 75 77 79 80 80 80 80 82 80 83 85 85 86 88 88 88 88 88 94 95 95 98 104 104 102 104 104 104 104 104 102 100 104 104 104 104 105 105 105 105 105 105 105 107 107 111 111 111 111 110 111 111 111 111 112 111 111 112 114 113 114 112 114 111 112 112 112 112 114 114 114 114 112 112 116 116 111 109 110 107 105 105 105 105 105 109 109 110 112 114 114 118 120 120 122 123 125 126 127 127 128 127 127 127 128 130 131 132 131 131 131 131 131 131 127 129 131 131 131 133 136 133 133 133 135 136 136 136 142 153 149 140 141 140 142 144 144 146 148 149 149 149 149 149 148 149 149 149 149 149 151 153 153 151 151 149 149 149 149 149 149 151 151 153 153 155 153 155 157 153 149 150 159 159 160 160 160 160 159 159 160 160 163 162 157 158 153 154 155 151 148 149 144 145 140 135 138 136 136 133 131 136 138 140 140 148 151 151 157 160 162 164 164 162 160 160 159 159 159 159 159 159 162 164 159 159 160 160 162 162 160 160 160 162 164 164 162 164 171 180 180 175 171 169 165 159 155 155 155 155 155 155 154 153 153 153 153 155 156 155 155 155 155 155 155 155 156 155 155 155 153 153 153 153 155 155 155 155 155 155 155 155 155 155 155 155 155 155 153 153 153 151 149 151 153 151 151 151 154 155 155 156 156 155 155 155 155 155 155 155 155 154 151 151 151
104 95 95 104 104 105 109 109 109 107 102 95 94 102 107 111 111 111 112 112 102 95 100 85 79 79 88 109 112 113 109 109 109 106 109 109 107 105 100 102 100 102 102 100 95 86 80 80 80 80 80 80 79 79 79 79 77 77 91 95 93 93 93 95 100 100 100 100 100 103 100 93 90 93 93 82 77 79 88 91 86 74 71 70 70 71 71 71 71 71 72 70 77 79 77 86 97 97 97 97 95 95 95 93 93 91 90 88 85 86 85 86 85 75 74 74 75 75 75 75 75 77 79 79 79 79 78 79 79 79 79 80 79 77 75 75 75 75 75 74 74 74 74 74 74 74 74 75 75 75 75 75 75 74 75 75 75 75 75 75 75 75 75 75 75 75 77 80 80 80 80 80 80 81 82 85 85 86 88 88 88 88 88 91 92 98 67 36 108 104 104 104 104 104 102 102 100 102 104 104 104 104 105 105 105 105 104 105 107 109 111 109 111 111 111 111 111 111 111 114 114 111 112 115 114 114 114 114 112 111 112 112 112 114 113 114 113 111 111 110 107 105 107 111 111 109 109 109 107 107 109 111 111 112 114 114 116 120 120 122 123 125 125 127 126 127 127 127 127 127 129 129 131 131 131 129 130 129 129 127 127 128 129 129 130 133 133 133 133 133 135 136 140 138 137 138 140 140 140 142 144 146 146 148 149 149 149 149 149 149 149 148 148 149 152 151 151 151 151 149 149 151 151 153 151 149 149 149 151 153 155 159 157 155 151 146 146 149 149 151 148 147 146 140 138 138 135 135 133 133 132 135 140 145 144 142 146 148 149 151 156 157 157 159 159 155 155 158 158 159 159 157 157 159 157 157 157 160 159 157 159 159 157 157 158 157 160 171 173 166 162 160 158 162 160 158 160 160 162 163 164 162 159 160 164 166 167 164 160 159 153 153 155 155 155 155 155 153 153 153 153 153 155 155 155 155 155 155 155 155 155 155 155 155 155 153 153 153 155 155 155 155 155 155 155 155 155 155 155 155 155 155 155 153 153 153 151 149 151 153 154 153 153 153 155 153 155 155 154 155 155 155 155 155 155 155 153 153 153 153
114 111 109 110 109 111 111 112 111 109 107 100 91 95 105 111 112 112 114 112 104 97 97 95 100 107 111 114 115 114 112 111 111 111 109 107 105 105 104 105 100 100 98 95 83 75 75 79 79 79 79 79 79 79 75 75 74 77 83 89 93 95 95 95 98 100 100 100 101 102 93 75 67 71 80 82 74 73 73 77 80 71 68 70 70 70 70 72 71 71 73 74 80 90 93 102 100 100 100 98 98 97 97 95 95 95 95 95 93 91 91 91 86 75 73 74 75 75 75 75 75 77 79 79 79 79 79 79 79 79 79 79 79 77 75 75 75 74 73 73 74 74 74 74 74 74 74 74 74 74 75 75 75 75 75 75 75 75 75 75 75 74 74 75 75 75 77 79 80 80 80 80 80 81 83 83 86 88 88 88 88 90 90 90 90 100 65 31 109 103 104 104 104 101 100 100 100 102 104 104 105 105 105 105 105 105 106 105 107 109 107 108 110 111 111 111 111 111 110 112 114 114 114 115 114 114 114 114 114 112 111 111 110 112 114 112 114 112 112 108 107 107 109 114 114 114 115 114 111 111 111 111 114 114 112 116 117 118 120 125 125 125 125 127 127 127 127 127 127 127 128 129 131 131 131 127 127 127 127 127 127 127 127 127 129 131 129 131 133 133 133 135 136 136 135 138 138 140 142 142 142 145 146 147 146 146 149 149 149 149 149 149 149 149 146 148 148 144 144 144 144 142 140 138 133 131 131 129 125 127 129 129 125 125 125 132 133 133 134 133 136 144 146 144 144 149 155 153 155 159 159 160 157 155 155 157 157 157 155 155 155 155 157 159 159 157 156 155 159 157 155 155 155 155 155 155 155 159 157 155 157 159 155 155 159 157 157 162 162 160 159 157 155 155 155 154 157 159 157 159 159 159 159 157 155 155 155 155 155 153 151 153 153 156 155 155 156 151 153 155 153 153 153 153 153 153 151 153 155 154 155 155 155 155 155 155 156 155 155 154 155 155 155 155 155 155 155 155 155 155 155 155 155 155 155 153 153 154 153 154 153 153 153 151 151 153 153 153 153 153 153 153 152 151 155 155 151 153 153 153
122 122 118 116 114 112 111 111 111 109 111 111 109 102 104 107 109 109 109 110 109 109 109 111 114 114 114 112 112 112 111 108 109 109 109 109 105 105 104 104 97 95 90 83 77 77 75 77 77 77 75 74 75 75 74 73 73 73 74 82 91 95 95 95 98 100 100 100 100 98 76 70 71 69 70 74 70 70 71 71 71 70 70 70 70 68 68 70 70 71 74 90 93 100 104 104 102 102 102 101 98 100 100 97 97 97 97 98 96 97 95 95 83 73 73 74 75 75 74 75 74 79 79 79 79 79 79 79 79 80 79 79 77 77 75 75 75 74 74 74 74 74 74 74 74 74 74 74 74 74 75 75 75 75 75 75 75 75 75 75 75 74 74 75 75 76 77 77 79 80 80 80 80 82 83 83 85 86 86 88 88 90 90 90 89 98 67 34 109 102 104 104 104 104 102 102 100 104 104 104 104 105 105 105 105 105 105 105 107 107 109 110 112 111 111 111 111 112 113 114 114 114 114 114 114 114 112 112 112 112 111 111 112 114 114 114 114 116 118 114 114 112 112 113 116 115 116 116 114 114 112 114 114 114 116 116 116 120 122 123 123 125 125 127 127 127 127 127 127 127 127 129 128 132 131 131 127 129 129 129 129 129 129 129 133 133 132 133 135 136 135 136 135 136 138 138 138 140 138 135 136 133 131 133 129 126 123 123 120 118 116 114 116 116 113 116 116 118 118 122 122 123 125 125 129 131 135 136 138 145 149 149 151 155 155 157 159 159 160 160 157 157 157 155 155 157 157 157 157 157 157 159 157 157 157 157 157 155 155 155 155 155 158 159 159 158 155 155 157 157 155 156 157 157 157 157 157 159 157 155 157 157 155 155 157 157 155 155 153 153 153 155 155 153 152 153 153 155 155 155 155 155 157 157 155 155 153 153 153 153 153 153 153 153 155 155 153 153 153 155 153 153 153 153 152 153 153 153 155 155 155 155 155 155 155 157 158 157 157 157 157 157 155 155 155 155 155 155 156 155 155 155 155 155 155 153 153 153 153 153 153 153 153 151 153 153 153 153 153 153 153 153 153 153 153 155 153 153 151 149
122 118 116 114 112 111 111 111 111 111 111 111 110 107 105 105 105 105 105 105 105 105 105 107 107 107 107 107 107 107 107 105 104 102 105 105 105 105 98 90 86 85 79 79 80 79 75 76 75 75 74 73 73 73 75 75 73 74 77 83 90 95 95 95 98 100 100 100 98 86 70 71 71 71 71 71 71 71 71 71 71 71 71 70 68 67 67 70 68 71 75 93 97 102 106 105 104 104 104 102 100 100 100 98 97 98 97 98 99 98 97 97 83 73 75 74 73 73 75 75 75 77 79 77 77 77 79 79 79 79 79 77 75 75 75 75 76 74 73 73 73 73 73 73 73 73 73 73 73 73 74 74 74 74 74 74 75 74 74 74 74 74 74 74 74 75 75 75 78 79 80 80 80 82 83 83 83 83 85 86 88 88 88 90 90 100 68 37 105 98 104 104 104 104 104 101 100 102 104 104 104 105 105 106 105 105 105 105 105 105 107 107 111 111 111 111 111 112 114 112 112 112 112 112 112 114 111 110 111 111 111 111 114 114 117 116 116 120 120 120 118 116 116 116 116 116 116 116 118 118 118 116 114 116 118 120 122 123 123 125 127 129 127 129 133 131 131 131 131 131 134 133 133 131 128 127 123 122 122 122 122 118 118 116 116 114 111 111 110 109 105 105 104 105 105 105 105 109 109 111 111 111 112 113 118 122 125 127 131 133 135 136 141 140 142 144 144 148 148 151 151 151 151 151 151 151 148 148 149 151 153 153 153 155 155 155 155 155 155 155 155 155 155 155 155 155 155 155 159 159 159 159 159 159 159 160 157 155 155 155 155 155 157 159 159 157 155 155 155 155 155 157 159 159 159 158 159 159 156 155 155 155 155 155 155 155 155 155 155 155 155 155 155 155 155 155 155 155 154 155 155 155 155 156 155 155 155 155 155 155 155 153 151 151 151 151 151 151 151 151 151 151 153 154 153 153 151 153 155 155 155 155 155 155 155 160 159 159 159 159 159 158 155 155 155 155 155 155 155 155 155 155 155 156 155 151 153 155 153 151 156 155 153 153 153 154 153 153 153 153 153 153 153 153 153 153 153 153 149 150
122 118 118 116 114 112 112 112 110 111 111 111 111 109 107 107 105 105 107 107 107 105 103 105 105 104 104 105 105 105 103 104 101 103 102 102 105 104 95 86 85 83 79 80 80 79 75 75 74 73 74 75 74 79 82 83 88 91 93 93 95 95 95 97 98 98 97 100 86 73 71 71 70 70 70 70 70 70 70 70 71 75 73 70 70 67 67 67 67 73 86 93 102 105 105 104 104 104 104 102 100 100 100 98 98 98 98 98 98 99 97 86 86 79 75 74 74 74 75 75 75 77 79 79 79 79 77 77 77 77 77 77 75 75 75 75 74 74 74 74 74 74 74 74 74 74 74 74 74 74 74 74 74 73 74 74 74 73 74 74 74 74 74 74 74 75 75 75 77 79 79 79 80 80 82 82 85 85 85 85 86 86 88 91 90 97 65 37 109 102 104 105 104 105 107 105 104 104 105 104 104 107 107 108 107 107 109 109 109 109 111 111 111 112 112 111 112 114 115 118 118 118 116 117 114 114 114 114 112 112 111 112 114 116 116 116 116 120 120 119 120 116 115 118 118 116 112 113 112 112 111 109 107 109 109 107 105 105 105 105 105 107 107 107 107 108 107 107 107 107 107 107 107 107 105 105 104 104 105 107 109 111 112 114 116 116 116 118 120 119 122 122 125 127 129 133 133 135 137 142 143 144 144 142 144 144 147 146 144 144 146 146 146 146 146 148 148 151 151 151 151 151 151 151 151 151 151 151 151 151 151 153 153 153 153 153 153 153 153 155 155 155 155 155 156 155 157 157 157 157 157 157 157 159 159 157 157 155 155 157 157 157 159 159 159 159 157 157 157 157 157 157 159 159 159 159 159 159 157 157 157 157 157 157 155 155 157 157 155 155 155 156 155 155 155 155 155 155 155 155 155 155 155 155 155 156 155 155 155 157 157 155 155 155 153 154 153 154 153 152 153 155 153 153 153 153 156 156 155 155 155 155 155 155 155 159 157 157 157 157 157 157 155 155 155 155 155 155 155 155 155 155 155 155 155 155 153 153 153 153 153 153 152 153 153 153 153 153 153 153 153 151 151 151 151 151 151 151 149 149
122 118 118 116 114 112 112 116 116 114 114 114 114 114 112 111 109 109 109 107 106 107 105 105 105 105 105 105 105 105 104 102 104 104 100 99 97 91 85 80 82 80 81 84 83 82 79 75 75 77 80 82 83 88 88 90 93 93 95 95 95 95 95 96 97 91 87 95 80 70 71 71 70 68 68 68 68 68 68 68 71 75 70 68 68 70 75 76 77 86 100 102 105 105 105 105 104 104 104 102 100 100 100 100 99 97 98 98 98 98 86 71 73 70 73 73 74 74 75 75 75 77 77 77 77 77 76 75 75 75 75 75 75 75 75 74 73 73 73 73 73 73 73 73 73 73 73 73 73 73 73 73 73 73 74 74 74 74 74 74 74 74 74 74 74 74 75 75 77 79 79 78 80 80 80 83 86 86 85 83 82 82 80 86 77 82 64 33 91 86 88 85 83 84 85 82 82 86 86 85 85 85 85 85 86 90 90 90 88 86 88 88 88 90 91 91 90 91 91 91 91 91 91 93 93 93 96 97 98 98 98 99 100 98 98 99 98 102 102 102 102 98 100 104 105 104 102 103 102 104 105 105 107 107 107 107 108 111 112 116 118 122 123 122 123 123 127 127 129 129 131 131 133 133 133 133 133 129 129 129 129 127 129 131 131 133 135 135 131 131 129 129 131 133 135 135 136 136 142 146 147 144 148 149 148 148 148 147 148 149 151 151 151 151 151 153 153 153 153 153 153 153 153 153 153 153 153 153 153 153 153 153 153 153 153 151 151 151 153 155 155 155 155 155 155 155 159 157 155 155 155 155 155 157 159 155 155 155 157 159 159 159 159 159 159 159 159 159 159 159 159 159 159 159 158 159 159 159 159 159 159 159 159 159 155 155 159 157 155 155 156 155 155 155 155 156 154 155 155 155 155 155 155 155 155 155 155 155 155 157 159 155 155 155 155 153 154 155 153 151 155 155 154 153 153 153 155 156 154 155 155 155 155 155 155 159 157 155 155 155 155 154 155 155 155 155 156 155 155 155 155 155 155 155 156 155 153 151 153 153 153 153 153 153 153 153 153 153 153 153 151 149 149 149 148 149 149 149 149 149
122 120 122 118 116 118 118 121 120 118 118 118 120 118 118 118 112 111 111 112 112 112 112 109 109 111 109 107 109 111 107 105 104 104 101 97 91 83 83 83 83 82 82 88 90 88 80 77 85 85 90 91 90 91 92 93 95 95 95 95 95 97 97 98 97 89 85 90 79 71 71 71 71 71 68 69 68 71 74 77 80 79 68 73 82 83 93 100 95 100 104 105 104 104 105 105 105 104 104 104 104 102 100 100 100 100 100 98 100 95 83 73 72 71 71 71 74 74 74 75 75 77 77 77 77 79 77 74 75 77 75 75 74 74 74 74 73 73 73 74 73 71 70 72 73 73 73 73 73 73 73 73 73 74 74 74 74 74 74 74 74 74 74 74 75 75 75 75 75 75 77 79 81 80 80 79 77 79 82 83 82 80 77 75 86 98 65 32 105 97 95 100 97 95 93 95 97 98 99 97 98 98 102 102 105 104 104 104 105 107 104 105 111 111 112 112 112 113 112 118 118 118 118 118 117 118 118 118 118 120 122 122 123 123 125 125 127 129 129 127 127 126 127 127 125 123 123 123 123 124 122 122 122 120 120 121 122 123 123 123 122 125 127 129 130 127 129 131 131 131 131 131 131 129 129 129 127 130 131 131 131 129 129 130 131 133 133 133 135 135 133 133 136 140 142 144 146 148 148 150 149 149 151 153 151 152 151 151 150 153 153 153 155 155 155 155 155 153 153 153 153 153 153 153 153 152 153 153 153 153 153 153 153 153 153 152 153 151 153 153 153 155 155 155 155 155 158 157 158 157 157 155 155 155 155 155 155 155 155 155 157 159 160 159 159 160 159 159 159 160 158 159 157 160 159 160 159 157 157 157 156 157 159 159 157 159 161 159 156 155 155 155 155 155 155 159 157 155 155 155 155 155 155 155 155 155 155 155 155 156 155 155 155 155 155 155 155 154 155 155 156 155 155 155 156 155 155 155 155 155 155 155 155 155 154 155 155 155 153 153 153 153 155 155 153 153 155 155 155 155 155 155 156 154 155 155 155 155 153 154 153 153 153 154 153 153 153 153 153 151 149 151 152 150 149 149 149 149 149 149
122 122 122 120 121 120 120 122 122 120 120 118 120 120 120 120 116 114 114 116 118 118 118 118 116 116 113 112 112 111 109 105 107 107 104 100 97 98 100 99 98 97 97 95 95 97 89 86 90 93 95 93 93 93 93 93 96 95 96 95 95 97 98 97 97 90 96 91 75 70 71 70 71 71 74 74 80 88 88 96 98 93 90 91 95 99 105 100 102 105 106 105 105 105 105 106 105 104 104 104 104 100 100 100 100 100 100 98 100 83 72 72 71 70 71 71 74 74 73 74 75 77 79 79 79 79 77 76 76 79 75 75 76 75 74 74 74 74 74 75 74 72 71 73 74 74 74 74 75 73 74 74 73 74 74 74 74 74 73 74 74 74 74 73 75 75 75 74 73 73 74 74 73 73 73 75 75 80 82 83 83 84 75 71 63 86 53 32 112 80 73 102 98 98 98 98 99 98 98 104 104 105 109 109 109 109 109 107 109 111 111 112 114 114 116 116 115 116 116 118 118 121 120 120 119 120 118 118 120 120 122 122 122 120 121 123 125 127 127 125 125 125 125 125 123 122 122 122 122 122 123 122 120 120 120 120 120 122 122 122 123 125 125 128 127 127 129 131 131 131 131 131 131 131 131 127 127 131 131 130 131 131 131 131 132 134 133 133 136 136 136 136 140 142 142 147 148 149 149 149 149 149 151 153 153 151 159 157 153 153 153 153 155 155 155 155 155 153 153 153 153 153 153 153 153 153 153 153 153 153 153 153 154 153 153 152 151 151 151 151 153 155 155 155 155 155 153 153 153 153 153 155 155 155 155 155 155 155 155 155 157 157 158 159 157 157 157 157 157 157 157 153 153 155 155 155 155 152 154 153 153 153 157 157 157 157 155 155 155 155 155 155 155 155 155 155 155 155 155 155 155 155 155 155 155 156 155 155 155 155 154 155 155 155 155 155 155 155 155 155 155 155 155 155 155 155 155 155 155 155 155 156 155 155 155 155 155 155 153 153 151 153 155 155 153 153 155 155 155 154 155 155 155 155 155 155 156 155 153 153 153 153 153 153 153 153 153 153 153 149 149 152 151 149 149 149 149 149 149 149
122 122 122 122 122 122 122 122 122 122 120 118 118 120 120 120 120 120 118 120 122 122 122 122 122 120 119 116 114 112 112 112 111 107 107 107 104 104 105 104 100 100 100 97 97 98 97 94 95 96 95 95 93 94 93 93 93 93 95 95 95 97 98 98 98 95 97 95 83 80 79 75 79 80 83 90 93 96 98 100 100 98 98 100 99 104 104 104 104 105 105 105 105 105 105 105 105 104 104 104 104 100 100 100 100 100 100 100 102 88 73 71 71 71 71 71 71 71 71 74 75 77 79 79 80 79 78 79 79 80 75 75 75 75 75 74 74 74 74 74 74 71 71 71 73 74 74 74 73 71 73 74 71 73 74 74 75 74 73 73 73 71 70 70 70 67 68 68 70 71 71 74 75 74 74 74 77 80 82 86 85 85 85 90 85 54 60 30 74 102 100 102 100 100 100 98 97 98 100 101 104 105 105 109 107 109 109 112 111 111 112 114 116 116 116 116 116 118 120 118 120 122 122 122 122 122 120 120 122 122 122 122 122 123 120 123 125 127 127 127 127 125 125 125 125 124 122 122 122 122 122 122 122 120 120 120 120 121 122 123 125 125 125 127 127 126 127 127 131 131 131 131 131 131 131 129 131 131 131 131 130 131 131 133 133 133 135 136 136 136 136 138 142 142 141 146 157 169 166 153 149 153 153 153 151 157 164 158 153 153 153 152 155 155 155 155 155 153 152 155 153 153 153 153 156 155 155 155 155 155 155 153 153 153 152 149 149 149 149 149 149 149 149 149 149 149 149 149 149 149 149 150 153 153 153 154 153 153 153 153 151 149 151 153 153 153 153 151 153 153 153 149 150 151 151 148 148 149 152 153 151 151 151 149 149 149 149 149 152 151 151 151 151 151 151 149 151 151 151 151 151 151 151 151 151 151 151 151 153 151 151 153 153 153 153 153 155 155 152 153 155 155 155 155 153 153 153 153 153 153 153 153 153 156 155 153 153 153 153 153 149 149 151 151 153 155 155 149 149 153 153 153 153 153 153 153 151 149 149 153 152 153 151 151 153 153 154 153 153 149 149 148 148 148 148 148 149 149 149 149
122 122 122 122 122 122 122 122 122 123 122 122 120 119 120 120 120 120 120 122 122 122 122 122 122 120 118 116 116 114 114 115 112 109 109 109 107 107 105 104 100 100 100 100 100 99 98 95 95 95 95 96 93 93 93 93 93 93 95 95 95 97 97 98 98 100 100 98 95 98 98 97 95 95 92 97 97 97 98 100 100 100 98 103 102 104 104 104 105 105 105 105 105 105 105 105 105 105 104 104 104 102 100 100 100 100 100 100 100 100 93 91 88 77 71 71 73 73 71 74 75 77 77 77 77 77 77 77 77 77 75 75 75 75 75 74 73 73 73 73 73 71 70 71 71 74 73 73 71 70 73 73 71 71 75 73 73 71 70 70 70 68 68 68 68 68 70 71 71 71 73 75 77 77 79 79 80 83 85 85 85 85 85 85 88 93 41 31 102 95 98 98 98 100 100 98 98 100 100 104 103 105 107 109 109 109 111 111 111 112 114 114 116 118 118 118 118 120 120 120 122 124 123 123 123 123 123 125 123 122 122 123 123 123 125 125 125 128 129 127 127 125 125 125 125 125 123 123 121 122 123 123 123 123 120 120 120 122 122 124 125 125 127 127 127 127 127 127 131 130 131 130 131 131 131 131 131 131 131 131 131 131 130 133 133 133 136 135 136 140 142 142 142 140 144 166 176 183 180 162 148 153 153 153 151 160 160 153 153 153 153 153 155 155 155 155 155 153 153 155 155 153 153 153 156 155 155 155 155 155 155 153 153 153 152 149 149 149 149 149 149 149 149 149 149 149 149 149 149 149 149 151 153 151 151 151 151 149 149 151 149 148 149 151 153 153 153 153 153 153 152 149 149 151 151 151 151 151 151 153 153 155 151 151 149 149 149 149 148 148 148 148 146 146 146 148 148 146 146 146 146 146 146 146 147 146 146 146 144 146 146 149 149 149 149 149 151 149 149 151 155 153 151 153 150 149 151 151 153 151 151 151 151 153 153 153 153 153 151 151 149 149 148 148 149 151 149 148 149 149 149 151 151 149 150 151 152 149 149 151 153 151 148 149 153 153 153 153 153 149 150 148 148 148 148 149 150 149 149 149
125 124 125 123 123 123 123 123 123 125 123 122 122 122 120 120 120 119 122 123 125 123 122 122 122 122 120 118 118 116 115 114 114 114 111 111 109 108 104 104 104 102 100 100 99 98 98 99 97 95 94 95 95 95 95 95 95 95 95 95 95 95 94 97 98 100 100 100 98 98 97 98 95 95 94 95 95 95 98 100 100 100 100 104 104 105 105 105 105 105 105 105 105 105 105 105 105 105 104 104 104 102 100 99 100 100 100 100 100 100 98 99 97 90 86 83 85 82 74 74 75 77 77 77 77 77 77 75 75 75 75 75 75 74 75 74 73 73 73 71 71 71 71 71 71 71 70 70 70 70 70 70 70 68 70 70 70 70 70 70 70 70 70 70 69 71 71 71 73 72 75 77 79 79 83 81 80 82 83 85 85 85 85 85 85 95 64 31 98 92 95 98 97 98 100 101 99 100 100 104 104 105 107 109 109 111 111 112 112 114 112 114 116 118 120 120 120 122 122 122 123 125 125 125 125 125 125 125 123 122 121 123 125 125 125 127 127 131 131 127 127 127 128 125 125 125 125 125 122 122 125 123 122 122 122 122 122 122 122 125 125 125 127 127 127 127 127 127 127 127 127 127 126 129 131 131 131 131 129 129 131 131 131 133 133 133 135 135 136 149 146 143 142 140 153 175 176 173 176 164 148 153 153 153 153 153 151 151 153 153 155 155 155 155 155 155 155 155 155 155 154 155 155 155 155 155 158 156 155 155 156 155 155 153 153 151 151 151 151 149 149 148 149 149 149 149 148 148 148 148 149 148 148 148 148 148 148 146 146 148 144 144 146 147 148 148 149 148 148 148 148 148 147 148 148 150 151 150 151 151 151 153 151 151 149 149 148 146 144 144 144 142 140 140 140 140 142 143 142 142 138 136 140 140 142 142 142 142 144 142 140 140 140 140 140 142 142 143 143 164 185 166 151 173 181 176 153 144 146 144 146 153 155 155 155 149 148 148 144 144 148 149 146 146 148 148 148 148 148 148 147 148 148 147 148 148 148 148 149 151 151 149 148 149 153 151 151 151 151 149 148 148 148 146 146 146 146 148 148 146
131 131 131 129 129 129 129 127 127 125 123 123 123 122 120 120 120 122 123 123 125 123 123 123 123 122 122 120 118 118 116 114 114 113 111 111 109 110 109 107 104 102 102 100 100 98 98 98 97 97 97 97 95 95 95 95 95 95 94 95 97 97 97 98 99 100 100 100 100 98 98 98 97 97 95 95 97 97 98 100 100 100 100 102 103 105 105 105 106 105 105 105 105 105 105 105 105 104 104 102 102 101 102 99 100 100 100 100 101 100 98 98 98 100 97 95 95 88 75 75 75 77 79 79 79 79 77 77 77 77 77 77 77 75 75 75 74 74 75 71 71 70 68 70 69 70 68 68 68 68 68 68 67 68 70 70 68 68 68 70 71 71 71 71 71 73 73 74 74 75 75 75 79 79 80 80 81 82 83 85 85 85 85 85 85 96 63 32 98 93 95 100 98 98 100 99 100 100 100 104 104 105 105 109 111 111 111 111 112 112 114 113 116 118 120 120 120 122 122 122 122 125 125 126 123 123 125 125 123 122 122 122 125 122 123 126 127 129 128 127 127 127 127 125 125 125 125 125 123 123 125 123 122 122 122 122 122 123 123 125 125 125 125 126 127 127 127 127 127 128 127 127 127 129 131 131 131 131 131 131 131 131 133 133 133 135 136 136 136 146 143 140 142 142 146 151 153 150 153 153 151 153 154 153 153 154 153 153 153 153 155 155 156 154 155 155 155 155 155 155 156 155 155 155 155 155 157 157 155 155 155 155 155 153 153 153 153 151 152 151 149 149 149 149 149 148 146 146 144 144 144 145 144 144 144 144 142 142 142 144 143 145 144 144 142 142 144 145 144 144 144 146 146 143 144 144 144 143 144 144 142 142 144 144 146 146 144 144 142 141 143 142 143 142 142 143 142 144 142 140 140 140 142 142 140 140 138 140 144 143 140 138 138 142 142 142 146 153 162 178 186 185 180 189 189 189 183 168 160 164 171 183 187 189 185 164 160 148 143 140 140 142 143 140 143 144 144 144 145 144 144 148 148 144 144 144 144 144 144 147 146 146 147 144 142 142 144 144 144 142 141 141 142 140 140 140 139 138 138 138
129 131 131 131 131 129 131 130 128 123 125 125 123 122 122 122 122 122 125 125 127 125 126 125 125 122 121 120 118 120 118 116 116 112 110 111 109 109 109 107 105 104 104 100 100 100 100 98 98 98 98 98 95 95 95 95 95 95 95 97 98 98 99 100 100 100 100 100 100 100 100 100 98 98 95 95 98 99 100 100 100 100 100 99 100 105 105 105 105 105 105 105 105 104 104 105 105 104 104 102 100 102 104 100 100 100 100 99 100 101 98 98 98 97 96 95 97 86 74 74 75 77 79 76 77 79 79 79 79 79 79 79 75 75 73 73 74 71 70 68 68 68 65 65 66 70 70 68 69 70 68 69 68 71 71 71 71 71 72 71 71 73 74 74 75 74 74 74 75 74 75 75 79 79 79 79 80 82 83 85 85 85 85 85 86 95 60 32 100 93 95 100 100 100 100 100 100 100 101 102 104 105 108 109 109 111 111 111 111 111 112 114 116 117 116 118 120 119 120 120 121 122 122 122 122 122 122 122 122 122 122 122 122 122 123 123 125 123 125 127 127 125 125 125 125 125 123 123 123 123 125 123 125 123 122 122 122 123 125 125 125 125 125 127 127 127 127 127 127 127 127 127 127 129 131 131 131 131 131 131 131 133 132 133 135 136 136 135 136 140 142 142 140 142 144 146 150 149 149 151 153 151 151 152 155 155 155 155 155 155 155 155 155 155 155 155 155 155 155 153 153 153 153 153 153 153 156 155 155 155 156 153 151 151 151 152 151 149 149 153 151 149 149 149 148 146 147 146 147 146 146 146 146 145 146 146 146 144 144 145 145 144 142 140 142 140 140 140 140 141 140 140 140 140 140 139 141 140 140 138 138 139 138 138 136 140 138 138 138 136 138 141 142 142 142 142 142 140 142 142 142 142 140 140 142 140 138 138 142 138 138 138 138 140 140 144 155 164 171 175 178 183 185 185 186 186 180 178 175 173 173 185 192 196 194 186 180 153 140 138 137 142 142 139 140 140 140 142 144 142 146 148 148 146 142 140 140 140 140 140 140 140 144 144 138 136 142 138 138 138 138 140 140 138 138 138 138 139 138 138
133 131 131 131 131 133 137 133 129 125 125 125 123 122 122 122 122 122 125 125 125 125 125 125 125 125 123 120 118 118 116 116 114 111 109 109 109 109 107 105 104 102 102 100 100 100 100 98 98 98 98 98 97 96 97 97 95 95 95 97 98 98 98 98 102 102 102 100 100 100 100 100 98 98 96 97 98 100 101 100 100 100 100 102 102 105 105 105 105 106 107 107 107 107 107 107 105 104 104 104 102 104 104 102 102 102 102 100 100 100 98 98 98 98 95 95 97 91 77 74 77 77 77 79 77 77 76 79 77 77 75 75 74 74 71 71 71 70 68 70 70 68 67 67 68 68 68 70 70 70 70 70 70 71 71 71 74 74 74 73 73 74 74 74 74 74 74 74 75 75 75 75 77 76 79 80 80 82 83 85 85 85 85 85 85 93 63 31 102 98 97 98 100 100 100 100 100 102 102 104 105 105 107 109 109 111 112 111 110 111 112 114 114 113 114 114 114 115 114 115 116 118 118 118 118 118 119 119 118 118 118 118 118 118 118 118 118 120 120 122 123 123 125 127 128 127 127 129 135 131 127 128 125 125 123 125 123 125 125 125 125 125 127 127 127 127 127 127 127 127 128 129 129 131 131 131 131 133 132 133 133 133 135 135 136 136 136 136 138 140 142 142 142 144 146 148 149 149 149 153 153 153 153 152 155 155 155 154 155 155 155 155 153 153 151 151 151 151 151 149 149 148 148 149 149 149 149 149 149 149 148 148 149 148 146 149 149 149 149 149 149 149 149 149 149 149 149 149 149 148 151 149 149 149 151 151 148 148 146 144 144 141 140 140 140 140 138 138 138 138 138 138 138 140 140 140 140 140 138 138 138 137 137 136 136 138 138 138 138 138 140 140 140 140 140 140 140 140 140 138 140 140 140 140 140 140 139 140 140 140 138 139 138 142 140 141 159 166 173 173 176 180 181 181 180 176 169 169 169 168 165 173 183 181 178 173 169 151 140 138 139 142 142 139 142 143 142 142 142 142 145 148 148 144 142 142 142 142 142 142 142 142 142 142 143 139 142 140 140 141 140 142 142 138 139 138 138 140 138 138
133 131 132 131 131 129 80 122 127 125 125 125 123 122 122 122 122 122 124 125 125 125 125 124 125 123 123 120 117 116 114 114 112 109 107 109 110 108 105 104 104 102 100 100 100 100 100 98 99 98 98 98 98 98 97 98 95 95 95 97 98 98 97 98 102 104 102 101 100 100 101 100 98 98 97 98 98 98 100 100 101 100 100 102 104 102 104 105 105 105 107 109 109 109 109 108 105 104 104 104 104 104 104 104 105 104 102 100 100 100 98 98 98 97 98 98 98 98 91 78 74 75 75 77 77 75 77 79 77 75 74 73 74 73 70 70 71 70 70 70 68 70 70 70 70 70 70 73 72 71 71 71 71 71 71 73 74 74 74 74 74 74 74 74 74 74 74 73 75 75 75 75 75 76 79 79 80 82 83 85 85 85 85 86 86 91 65 28 102 100 98 98 98 98 97 98 100 102 104 104 105 105 106 109 109 109 111 111 111 111 111 112 114 114 114 114 112 112 112 112 114 116 116 116 116 116 116 116 116 116 116 116 116 116 116 116 116 118 118 116 122 126 125 127 131 133 135 140 140 133 127 127 129 131 133 127 125 125 125 126 125 125 125 127 127 127 127 127 127 127 127 129 131 131 131 131 131 133 133 133 133 134 135 136 136 136 136 136 138 137 142 142 140 144 148 149 149 149 149 154 153 153 153 153 151 151 151 151 151 151 150 151 153 149 149 149 149 149 147 146 146 148 146 146 146 146 144 144 142 144 144 144 144 145 144 146 148 146 146 146 148 149 149 149 148 146 146 146 146 146 146 146 146 145 146 142 142 144 142 140 140 142 138 138 138 138 138 138 138 138 138 138 138 138 138 138 136 135 136 137 138 138 136 136 138 138 135 137 138 138 138 138 138 138 138 138 138 138 138 138 138 138 138 138 138 138 138 139 138 138 138 138 138 140 140 142 151 159 162 160 162 164 162 162 164 160 160 159 161 157 151 148 149 146 142 142 144 142 138 139 140 142 142 142 142 142 142 142 140 144 144 146 146 144 144 144 144 144 145 144 144 145 142 143 144 144 140 142 142 142 142 142 139 138 138 138 141 142 138 138
131 129 127 127 132 112 26 118 125 122 121 122 120 120 120 120 122 122 123 123 123 123 123 123 122 122 120 116 116 116 113 114 112 111 107 105 107 105 105 104 105 101 100 100 100 100 100 98 98 98 98 98 98 98 98 98 97 97 97 97 98 101 100 101 104 104 102 100 100 99 100 100 98 98 98 98 101 100 100 102 102 102 102 105 105 105 104 105 107 107 107 109 111 111 111 109 107 105 105 104 105 105 105 105 105 104 104 102 100 100 100 100 98 98 98 98 98 98 95 80 75 75 77 79 76 74 75 77 75 74 74 75 75 74 72 73 73 74 71 71 71 71 72 71 71 71 71 71 71 71 71 71 72 71 71 71 71 73 74 74 75 74 74 74 74 74 74 74 75 75 75 75 75 75 79 80 80 82 83 83 83 83 83 85 85 91 60 29 98 98 98 98 98 97 100 101 101 102 104 105 105 105 107 109 109 109 109 109 109 111 108 111 114 114 114 114 114 114 114 114 114 116 116 116 116 116 116 116 116 116 116 116 116 116 116 118 118 120 119 120 122 122 123 123 122 122 122 123 125 123 125 124 123 123 126 125 125 125 125 125 125 125 125 127 127 127 127 127 127 127 126 127 127 129 132 131 131 133 133 133 135 135 136 136 136 136 136 136 136 140 142 142 144 146 147 148 148 149 149 151 151 151 151 151 149 149 149 149 149 149 149 149 151 149 149 146 147 146 144 144 144 146 144 144 144 144 142 144 142 142 144 144 142 144 144 144 142 142 142 144 144 144 144 144 140 140 142 142 140 138 138 140 142 142 140 138 138 138 140 142 140 140 138 138 138 138 138 138 138 138 138 138 138 138 138 138 138 138 138 138 138 138 138 138 138 138 138 138 138 138 138 136 136 138 138 138 138 138 138 138 138 138 138 138 138 139 138 138 138 138 138 138 138 139 142 144 147 149 146 144 144 144 144 144 144 143 146 146 149 144 142 140 138 136 136 136 138 140 140 141 142 142 142 142 142 142 142 142 142 144 144 144 144 144 144 144 144 144 142 142 142 143 142 142 142 142 144 143 142 142 142 142 140 138 138 140 140 138 138 138
131 129 127 127 131 107 32 123 123 118 118 118 117 118 118 121 122 121 122 122 122 122 122 124 120 123 120 115 116 116 116 114 112 110 105 105 105 106 105 104 104 102 100 100 100 100 100 98 98 98 98 98 98 98 98 98 98 98 98 97 98 100 100 104 104 104 104 100 99 100 100 100 98 98 98 98 100 100 100 102 104 104 104 105 107 107 107 105 107 109 111 114 112 111 112 113 112 111 107 106 105 105 105 107 105 102 104 104 102 102 100 100 102 102 102 100 98 102 88 75 75 77 77 77 77 75 75 75 75 75 75 75 75 74 74 74 73 71 71 71 71 71 71 71 71 71 71 71 71 71 71 71 71 71 71 71 71 72 73 73 73 73 73 73 74 74 74 74 75 75 75 75 75 77 79 80 80 82 83 83 83 83 83 85 85 91 58 28 97 98 98 98 98 100 100 100 100 102 104 105 105 104 105 107 107 107 107 107 109 112 111 111 114 114 114 114 114 114 114 114 114 116 116 116 116 116 116 116 116 116 116 116 116 116 116 118 120 120 120 122 122 122 122 123 122 122 122 122 123 125 125 125 125 125 124 123 125 125 125 125 125 125 127 127 127 127 127 127 127 127 128 127 127 129 131 131 131 133 133 133 133 136 136 136 136 136 136 136 136 140 142 142 144 146 148 148 148 149 149 149 149 149 149 149 149 149 149 149 149 149 150 150 149 146 144 144 142 142 142 142 144 148 144 142 144 144 144 144 142 142 144 144 144 144 144 142 142 142 143 140 141 139 140 140 139 138 142 140 138 138 138 141 142 143 140 137 138 138 139 142 140 138 138 138 138 138 138 138 138 138 138 138 138 138 138 138 138 138 138 137 138 138 138 139 138 138 138 138 138 138 138 138 140 138 138 138 138 138 138 138 138 138 138 138 138 138 138 138 138 138 138 138 138 136 140 140 138 139 138 138 138 138 138 138 140 141 138 136 136 136 136 138 138 138 138 138 140 142 141 142 142 142 142 142 142 142 142 142 142 144 144 144 144 144 144 144 144 144 142 142 142 142 142 142 142 142 144 142 140 142 142 142 140 138 138 142 140 138 138 138
127 129 131 131 133 102 34 123 118 116 116 116 116 116 117 116 118 122 122 122 122 122 122 120 119 120 118 116 116 114 116 116 111 109 106 105 105 105 105 105 104 102 105 100 100 100 100 98 98 98 98 98 98 98 98 98 98 98 98 97 98 102 105 104 105 104 104 104 102 100 100 100 100 100 98 98 100 102 105 104 105 105 105 107 107 107 107 109 109 109 111 115 114 114 111 111 109 105 104 106 105 107 107 107 107 107 107 105 104 102 102 102 100 100 104 102 100 91 73 77 79 75 75 74 75 77 77 77 77 77 75 75 75 75 75 74 75 74 73 71 70 70 70 71 71 71 71 71 71 71 71 71 71 71 70 70 70 71 71 71 70 73 73 73 74 74 74 74 74 74 75 75 75 75 77 77 79 80 82 84 83 83 83 85 85 90 60 26 97 98 98 100 99 100 98 98 98 100 102 104 104 104 105 107 102 103 109 111 111 111 111 111 114 114 114 113 114 116 116 116 116 116 116 116 116 116 116 116 116 116 116 116 116 118 120 121 120 122 122 122 122 122 122 122 122 122 122 122 125 125 125 123 122 122 122 122 123 123 123 125 126 125 125 125 127 127 127 127 127 127 127 127 127 129 131 131 131 133 133 135 132 133 133 133 135 136 136 136 136 140 142 142 142 144 144 146 147 148 148 149 149 148 148 148 147 148 149 148 148 148 148 148 148 146 142 144 144 144 144 142 146 151 146 142 144 144 144 144 144 144 144 144 144 146 142 142 142 141 140 138 138 138 138 138 138 138 142 142 140 140 138 138 138 138 138 138 138 138 138 138 138 138 138 138 138 138 138 138 138 138 138 138 138 138 138 138 138 138 138 138 138 138 138 138 138 138 139 138 138 138 138 138 138 138 139 137 138 138 138 138 138 138 138 138 139 138 138 138 138 138 138 138 138 136 136 138 138 138 138 138 138 138 138 138 138 138 138 138 138 138 138 138 138 138 138 138 140 142 142 142 142 142 142 142 142 142 142 142 142 144 144 144 144 142 142 142 142 142 142 142 142 142 138 140 142 140 138 138 138 138 139 142 140 138 138 138 138 138 138 138
125 129 128 127 127 97 39 125 116 116 116 116 116 116 116 116 116 120 122 122 122 122 122 120 118 120 118 116 116 114 112 111 109 109 107 105 105 105 105 105 102 102 104 102 100 100 100 98 98 98 98 98 98 98 98 98 97 96 97 97 98 102 104 104 104 104 103 104 102 100 100 101 100 99 98 98 98 100 102 104 105 105 105 104 106 104 108 109 109 109 109 112 114 116 112 114 112 107 107 105 105 105 105 104 104 104 105 107 105 104 104 104 102 102 98 91 79 74 74 75 79 75 75 77 77 78 79 79 79 79 75 75 76 75 75 75 76 74 73 71 71 70 70 71 71 71 71 71 71 71 71 71 71 71 71 71 71 71 71 71 71 74 74 74 74 74 74 74 74 74 75 75 75 75 75 77 79 79 80 82 82 83 83 85 85 90 60 27 98 98 95 95 95 95 97 97 97 97 100 104 103 105 104 100 97 100 107 111 111 111 111 111 114 114 114 114 114 116 116 116 116 116 115 116 116 116 116 116 117 116 116 116 116 118 120 120 120 122 122 123 122 122 122 122 122 122 122 122 125 125 123 124 122 122 122 122 122 122 122 123 122 124 124 125 127 127 127 127 127 127 127 127 127 129 131 131 131 133 133 133 133 133 133 133 135 136 136 136 136 140 142 142 142 142 144 147 146 148 148 149 148 146 146 144 145 146 149 149 148 148 149 148 146 144 143 144 144 144 144 144 146 147 146 144 144 144 144 144 144 144 144 144 144 146 142 142 143 142 140 138 138 138 138 138 139 138 142 142 142 140 138 138 138 138 138 138 138 138 138 138 138 138 138 138 138 138 138 138 138 138 138 138 138 138 138 138 138 138 138 139 138 137 138 138 138 138 138 139 138 138 138 138 138 138 138 138 138 138 138 138 139 138 138 138 138 138 138 138 138 138 138 138 138 136 136 138 138 138 138 138 138 138 138 138 138 138 138 138 138 138 138 138 138 138 138 138 140 142 142 142 142 142 142 142 142 142 142 142 142 144 144 144 144 142 142 142 142 142 142 140 140 140 138 138 140 140 138 138 138 138 138 142 140 138 138 138 138 138 138 139
122 125 95 73 93 74 29 111 114 111 112 114 114 114 113 114 116 116 116 116 116 120 121 116 116 118 116 114 114 112 111 109 108 109 107 105 105 104 104 103 100 100 100 100 100 98 98 98 98 98 98 98 98 98 97 95 95 95 95 97 100 104 104 104 104 104 104 104 101 98 98 98 98 98 99 98 98 100 102 105 104 105 107 109 109 105 111 116 114 113 111 112 114 102 83 83 103 107 107 107 105 105 105 105 105 105 107 105 104 102 101 100 100 85 75 75 74 75 75 77 79 75 75 79 79 79 79 79 79 79 74 75 77 77 75 75 75 74 73 71 71 70 70 71 69 70 70 71 71 71 71 71 71 71 74 74 74 74 75 74 74 74 74 74 74 74 74 74 74 74 75 75 75 75 79 79 79 80 80 80 80 83 83 85 86 90 59 26 91 97 90 90 90 91 93 95 95 98 97 100 101 98 99 98 98 98 98 108 109 109 112 112 114 115 114 114 117 116 116 116 116 116 116 121 118 116 118 120 120 119 120 120 120 120 120 120 122 122 122 122 122 122 123 125 125 126 125 125 125 123 122 122 122 122 122 122 122 123 123 122 122 125 125 128 127 126 127 127 127 127 127 129 132 131 131 131 131 131 130 131 131 133 133 133 135 136 136 136 136 136 142 142 142 142 142 144 144 148 146 144 144 143 144 144 145 144 146 148 148 149 148 146 144 144 144 144 144 144 144 144 144 144 144 144 144 144 144 144 144 144 144 144 144 144 144 144 144 144 144 140 142 142 142 142 142 142 144 145 141 142 142 142 142 142 142 142 142 142 141 142 140 138 138 138 138 138 138 138 139 138 138 139 138 138 138 138 138 142 140 139 138 138 138 139 140 140 138 138 138 138 138 138 139 138 138 142 140 138 138 138 138 138 140 142 138 138 139 138 138 138 138 138 138 138 138 138 138 137 138 138 138 138 138 138 138 138 138 138 138 136 136 138 138 140 142 142 142 142 142 142 142 142 142 142 142 142 142 142 142 142 142 142 142 142 142 142 142 142 140 138 139 138 138 138 138 138 138 140 142 142 142 142 140 139 138 138 138 138 135 136
122 123 122 118 131 61 34 125 114 111 112 114 113 114 114 114 116 118 118 116 116 118 118 118 116 114 114 112 111 109 109 107 108 109 105 104 102 100 102 102 102 102 102 98 98 97 97 98 98 98 97 96 97 98 95 95 95 95 93 97 104 105 105 104 104 104 104 105 104 100 102 102 102 102 102 102 104 104 104 104 102 100 95 85 77 74 83 83 85 90 79 106 99 75 74 71 85 109 111 107 107 107 109 107 107 105 107 93 80 97 104 102 90 73 75 76 75 75 75 78 77 74 75 77 77 79 76 78 77 77 75 75 79 77 75 75 75 75 73 71 71 70 70 70 70 70 70 70 70 70 71 71 71 71 73 73 73 74 74 74 74 74 74 74 74 74 74 74 74 74 75 75 74 77 79 79 79 80 80 80 80 83 83 85 85 90 59 26 88 91 90 90 88 90 91 91 93 93 91 93 93 95 95 95 95 97 97 100 100 100 115 114 114 114 114 114 116 116 117 116 116 118 118 120 118 116 118 120 120 120 120 120 120 121 120 122 122 122 123 123 123 123 124 125 125 125 125 125 125 125 123 123 122 122 122 122 122 125 126 123 123 125 127 128 127 127 127 127 127 127 127 129 132 131 131 131 131 132 131 131 131 133 133 133 135 135 137 136 136 136 140 140 143 142 141 144 144 146 146 144 144 144 144 144 144 144 146 148 148 148 148 146 144 144 144 143 144 144 144 144 144 144 144 144 144 146 146 144 146 146 146 144 143 143 144 144 144 144 144 142 142 142 142 142 142 143 144 142 142 142 142 142 142 142 142 142 142 142 143 142 140 140 138 138 138 138 138 139 138 138 138 138 138 138 138 138 138 142 139 140 138 138 138 140 142 142 140 140 140 140 140 138 138 138 138 142 140 138 138 138 138 138 140 140 138 138 138 138 138 138 140 138 138 140 138 138 138 137 138 140 140 139 140 140 140 140 140 140 140 140 140 139 140 141 142 142 142 142 142 142 142 142 142 142 142 142 142 142 142 141 142 142 142 142 142 142 142 142 140 138 138 138 138 138 137 138 138 140 142 142 142 140 140 138 138 138 138 140 138 136
120 122 125 125 127 58 45 125 112 114 114 114 114 114 114 114 118 120 121 121 120 120 120 120 119 116 117 114 112 111 111 111 109 109 105 105 107 104 104 104 104 104 104 100 100 98 98 98 98 97 98 101 98 98 98 97 97 98 97 98 105 105 104 104 104 100 102 104 102 98 100 100 100 100 98 98 95 97 99 102 98 83 75 75 75 77 73 74 75 73 68 91 74 71 73 74 74 77 91 97 88 93 102 94 104 93 83 82 75 83 93 79 74 75 75 75 75 75 75 75 75 74 75 75 75 79 77 74 75 75 77 79 77 78 75 75 75 75 73 71 71 70 68 68 68 68 68 68 68 68 71 71 71 71 71 71 71 73 73 73 72 73 73 73 73 73 73 73 74 74 74 74 76 75 76 77 79 80 79 80 80 83 83 85 85 91 58 26 86 88 90 90 86 88 90 90 90 91 91 91 91 91 91 91 93 95 95 95 95 95 109 114 112 114 112 114 117 116 116 116 117 120 120 120 120 120 120 120 120 120 118 118 118 118 118 120 123 123 125 125 126 125 125 125 125 125 125 125 125 125 125 123 122 122 122 122 122 125 126 125 125 125 125 125 127 126 127 127 127 127 127 129 131 131 131 131 131 131 131 131 128 129 131 132 133 133 135 136 136 135 138 140 142 142 144 144 144 144 144 144 144 144 144 144 144 144 146 146 146 146 146 144 144 144 144 144 144 144 144 144 144 144 144 144 146 148 148 148 148 148 148 146 144 145 144 144 144 144 144 144 142 140 142 142 142 142 140 142 142 142 142 142 142 142 142 142 142 142 142 142 142 142 138 138 137 138 138 138 138 138 138 138 138 139 138 138 138 142 142 142 140 138 140 142 142 142 142 142 142 142 142 138 138 137 138 142 140 138 138 137 138 138 138 138 138 138 138 138 138 140 142 138 138 140 139 138 138 138 140 142 142 142 142 142 142 142 142 142 142 142 142 142 142 142 142 142 142 142 142 142 142 142 142 142 142 142 142 142 142 141 142 142 140 140 141 142 142 142 140 138 138 138 138 138 138 138 138 140 142 141 140 138 138 138 138 138 138 138 138 137
136 131 111 100 109 48 53 122 111 110 111 111 111 111 112 112 118 116 118 120 118 118 118 118 118 114 114 114 112 111 111 111 111 111 105 103 105 104 102 102 104 102 99 99 98 99 98 98 98 98 98 101 97 95 97 98 97 95 95 95 97 100 100 102 102 100 100 98 98 97 98 100 102 104 100 98 98 100 95 80 75 75 77 77 74 74 74 75 76 73 71 73 73 74 74 75 75 73 71 73 73 75 79 77 75 73 71 74 74 73 75 75 73 77 75 74 75 74 74 74 75 74 74 75 75 77 77 75 75 75 77 77 79 79 75 75 75 74 71 71 70 70 70 70 70 71 70 70 70 70 71 71 71 71 71 71 73 73 74 73 74 74 74 73 74 74 74 74 75 73 73 74 76 75 75 77 79 79 79 81 80 83 83 83 83 90 58 23 86 89 88 88 88 89 90 90 90 91 91 93 93 93 93 93 93 93 93 93 93 93 102 117 114 114 114 116 116 118 118 118 119 120 120 120 118 120 120 120 118 120 120 120 120 120 120 122 123 125 125 125 125 125 125 124 125 125 125 125 125 125 125 123 122 121 122 122 122 123 123 125 125 125 125 125 125 125 127 127 127 127 127 128 129 129 129 131 131 131 131 131 131 130 133 133 135 136 136 136 136 136 138 140 143 144 144 144 144 143 144 144 144 144 144 144 146 146 146 146 146 148 148 147 146 146 145 144 144 144 144 146 144 144 144 144 146 146 148 148 146 146 145 144 143 144 142 144 144 144 144 144 143 142 142 142 142 143 142 142 142 142 142 142 142 142 142 142 142 142 142 143 141 140 140 141 138 139 138 139 138 139 138 138 139 140 140 139 138 142 140 140 140 140 141 142 142 142 142 142 142 142 142 138 138 140 140 140 140 138 138 138 138 138 140 140 141 140 140 138 138 140 140 138 138 142 142 138 138 140 140 141 142 142 142 142 142 142 142 142 142 142 142 142 142 142 142 142 142 142 142 142 142 142 142 142 142 142 142 142 142 140 140 142 142 142 142 138 138 140 138 138 136 138 138 138 138 138 138 140 140 140 141 138 136 136 136 136 136 136 136 138
155 145 106 102 129 39 48 125 116 111 116 123 122 116 116 118 116 102 105 113 116 116 116 116 116 114 113 114 112 111 111 109 104 102 104 104 104 102 100 98 98 97 97 97 98 98 98 98 98 98 98 98 93 91 95 95 95 95 95 95 98 100 100 104 104 100 100 99 98 97 97 98 91 90 93 95 98 87 71 71 73 73 73 73 74 75 75 75 75 75 75 75 75 75 74 75 75 73 73 74 75 75 75 73 73 73 74 73 73 74 73 73 75 75 75 75 75 74 73 74 73 73 74 75 75 75 75 76 75 75 76 75 77 77 75 75 75 73 71 70 68 67 68 68 68 68 69 69 68 68 71 71 71 71 71 71 74 73 73 73 73 73 73 73 73 73 73 73 73 73 73 74 75 75 75 77 79 79 79 80 80 83 83 83 83 90 56 22 86 88 86 86 86 88 90 90 90 90 90 91 92 91 91 91 91 91 91 91 91 93 100 112 114 115 116 116 116 118 120 120 120 118 120 115 114 116 118 118 118 122 122 122 122 122 122 122 122 123 125 125 125 125 125 125 125 125 125 125 125 125 125 123 122 121 122 122 122 121 122 124 126 125 125 125 125 125 127 127 128 127 127 127 127 127 127 129 131 131 131 131 131 132 133 134 135 137 136 136 135 136 138 140 142 142 144 144 145 144 144 144 143 144 144 145 146 148 144 144 147 146 146 146 146 146 146 144 144 144 144 149 146 144 144 144 144 144 146 146 144 144 144 144 144 142 140 144 144 143 144 144 142 141 142 142 142 142 142 142 142 142 142 142 142 142 142 142 143 142 142 142 140 138 140 142 138 138 137 138 138 138 138 138 138 140 140 137 138 142 140 138 140 142 143 142 142 142 142 142 142 141 143 138 138 140 140 138 138 138 138 138 138 138 141 142 142 142 142 140 138 138 138 138 138 140 140 138 138 142 142 141 142 142 142 142 142 142 142 142 142 142 142 142 142 142 142 142 142 142 142 142 142 142 142 143 142 142 142 142 142 138 138 140 142 140 140 138 138 137 138 138 135 136 138 138 138 138 138 137 138 138 138 136 135 136 136 137 136 136 135 135
162 160 160 152 158 41 77 140 127 133 138 142 144 135 107 100 100 100 100 102 114 116 116 116 116 115 114 112 112 111 109 111 107 106 105 105 105 104 103 102 102 101 98 102 100 97 97 99 98 96 98 97 93 91 90 90 90 90 91 91 95 98 100 100 100 100 98 97 98 100 102 93 73 71 73 86 90 80 77 75 75 75 74 75 75 75 75 75 75 74 74 75 77 77 76 75 74 74 74 74 74 74 74 73 73 73 73 72 73 73 74 74 75 75 76 75 74 74 75 75 76 76 74 74 75 75 75 75 75 75 75 75 75 75 74 74 74 74 73 71 70 70 71 70 70 70 70 70 70 70 71 71 70 70 71 73 74 74 75 75 74 74 74 74 74 74 74 74 74 75 74 74 75 75 75 77 79 79 79 80 80 83 83 83 82 88 56 20 84 85 88 88 88 88 88 89 90 91 90 90 91 93 93 93 93 93 93 93 93 95 98 103 112 116 116 118 118 120 120 120 120 122 116 111 111 112 112 114 118 117 121 122 123 122 123 123 123 125 125 125 125 127 125 125 125 125 125 125 125 124 125 124 122 122 122 123 123 123 125 125 125 125 125 125 127 127 127 127 127 127 127 127 127 129 129 131 131 131 131 131 131 131 133 133 133 135 136 136 138 138 138 138 140 142 144 144 146 146 146 146 146 144 144 144 146 148 146 146 148 146 148 148 148 148 148 146 146 145 146 148 145 146 144 144 144 144 146 144 144 144 144 144 142 142 142 142 142 144 144 142 142 142 142 142 142 142 142 142 142 142 142 142 142 142 142 142 142 142 142 142 140 140 140 140 138 139 138 138 138 137 138 140 140 142 142 140 140 142 142 140 142 144 142 142 142 142 142 142 143 142 142 140 139 142 142 140 141 138 138 138 138 138 142 142 142 142 142 142 140 138 138 138 138 140 140 140 140 142 142 142 142 142 142 142 142 142 142 142 142 142 142 142 142 142 142 142 142 142 142 142 142 142 142 142 142 142 142 140 140 138 138 142 142 138 138 138 138 138 138 138 136 137 138 138 138 138 140 139 138 138 138 136 136 136 136 136 136 136 136 136
160 160 155 149 153 39 98 149 131 135 116 107 107 102 98 95 97 97 94 90 105 107 104 107 107 109 109 110 111 111 108 107 102 100 101 102 103 102 100 98 97 98 98 98 93 88 86 85 88 95 93 90 88 88 83 82 82 82 79 77 90 102 100 102 102 100 100 100 100 100 95 77 75 75 79 91 83 74 75 75 76 75 75 75 75 75 75 75 75 75 75 79 79 77 75 75 74 74 74 74 74 74 73 71 71 70 71 71 71 71 73 74 75 75 75 75 73 74 75 75 75 75 75 75 75 75 75 75 75 75 75 75 75 75 74 74 74 74 74 71 71 70 70 70 70 70 70 70 70 70 71 71 70 70 72 73 74 73 74 74 74 74 74 74 74 74 74 74 74 74 74 74 75 75 75 77 79 79 79 80 80 82 83 83 82 90 59 19 83 85 86 88 88 88 86 88 90 90 90 90 90 93 93 91 92 95 93 93 95 95 97 98 104 112 116 117 120 119 120 120 120 116 111 107 107 109 109 109 112 109 105 110 122 125 125 125 125 125 125 125 124 127 127 125 125 125 125 125 125 125 125 123 122 122 122 123 125 125 125 125 125 125 125 125 125 127 127 127 127 127 127 128 127 129 131 131 131 131 131 131 132 131 131 133 131 135 136 136 138 138 138 136 138 142 144 143 146 148 148 148 146 144 144 144 146 148 148 148 148 146 148 148 148 148 148 148 148 148 148 148 148 148 146 144 144 144 144 144 145 144 144 142 140 142 142 142 142 144 143 142 142 142 142 142 142 142 142 142 142 142 142 142 142 142 142 143 142 142 142 142 142 142 138 138 138 138 138 139 138 138 138 140 142 143 142 142 142 142 142 142 143 144 142 142 142 142 142 142 142 142 142 141 142 142 142 142 140 138 138 138 138 138 140 141 142 143 142 142 142 140 137 138 138 138 139 142 142 142 142 142 142 142 142 142 142 142 142 142 142 142 142 142 142 142 143 142 142 141 142 141 142 142 142 142 142 142 143 140 139 138 138 140 140 138 138 138 138 138 138 138 138 138 138 138 138 140 142 140 138 138 138 135 136 136 136 136 136 136 136 135
161 133 88 86 105 38 70 123 123 98 71 73 77 90 95 93 93 91 86 89 97 97 100 109 111 107 105 104 102 99 98 97 94 95 97 100 100 98 95 88 85 88 90 86 85 85 85 86 91 90 86 82 82 82 83 82 82 80 80 80 83 88 93 95 97 93 86 82 83 82 79 77 79 79 75 76 75 74 74 75 75 75 75 74 74 75 74 75 74 75 74 80 79 77 74 73 75 75 71 71 71 71 71 71 71 71 72 71 71 71 71 71 74 74 74 75 75 74 74 74 74 74 75 75 75 75 75 75 75 74 75 75 75 75 74 73 71 71 70 68 68 67 67 67 67 67 67 68 68 69 70 69 71 71 71 73 74 74 74 74 74 74 74 74 74 74 74 74 74 74 74 74 75 75 75 75 75 77 79 80 80 80 80 80 80 86 58 20 82 85 85 85 85 85 88 88 88 89 90 91 90 93 91 90 91 93 93 95 95 95 97 97 97 100 111 118 115 114 118 116 104 100 102 102 104 104 104 105 104 104 102 102 109 120 122 123 127 125 125 123 120 122 125 126 125 127 125 125 125 125 125 123 122 123 122 122 122 125 125 125 125 125 125 125 125 127 127 127 127 127 127 127 126 127 127 129 131 132 131 130 131 131 131 133 133 133 136 136 138 138 138 138 140 142 144 144 144 144 146 148 148 147 146 146 148 148 147 148 148 148 148 148 145 146 145 146 146 146 146 142 142 142 142 142 143 142 141 142 142 142 143 142 142 142 142 142 142 142 142 142 142 142 142 142 142 142 142 142 142 142 142 142 142 142 142 142 142 142 142 142 142 142 140 140 138 138 138 137 140 140 140 142 142 143 142 142 142 142 142 142 142 142 142 142 142 142 142 140 138 140 142 142 142 142 142 138 138 137 140 140 139 138 138 138 142 142 142 142 141 140 138 138 138 140 140 142 143 142 142 142 142 142 142 142 142 140 140 142 142 142 142 142 142 140 142 142 140 142 141 138 140 141 138 138 138 138 138 138 138 138 138 138 138 138 138 138 138 138 138 137 135 136 135 136 138 136 136 136 135 135 135 135 136 136 136 136 136 136 135 135
125 95 98 95 88 24 67 100 97 88 79 83 83 87 93 91 91 90 91 104 125 120 114 116 116 112 107 108 105 102 100 98 100 98 93 97 95 93 86 83 85 85 85 82 82 85 85 88 88 88 85 82 80 80 79 79 80 80 80 80 79 75 77 80 80 77 76 77 77 75 77 78 79 79 74 71 73 74 74 74 75 75 75 74 73 73 73 74 74 75 74 74 74 74 74 71 73 71 71 71 72 71 71 71 71 71 71 71 71 71 71 71 72 74 74 74 75 74 74 74 74 75 74 75 75 74 74 75 75 75 74 74 74 74 73 73 70 70 68 66 65 65 65 65 65 65 66 65 68 68 68 68 70 70 70 71 73 73 73 73 73 73 73 73 73 73 73 72 73 73 72 73 74 74 74 75 75 79 79 80 80 80 80 80 80 86 58 20 80 85 83 83 83 85 86 86 86 88 88 88 89 91 91 88 90 91 94 95 93 95 97 97 97 97 100 104 102 100 102 100 95 98 100 98 98 98 100 102 104 103 104 104 105 106 107 112 118 118 116 116 112 116 122 125 125 127 125 125 125 125 125 125 122 122 122 122 122 125 125 125 124 125 125 125 127 126 127 127 127 127 127 127 127 129 129 131 131 131 131 131 131 131 131 133 133 133 135 136 138 138 138 140 142 142 143 144 145 144 144 146 148 148 148 146 148 148 148 148 146 146 144 142 142 142 142 142 142 142 140 139 140 140 140 140 140 140 140 140 142 142 142 142 142 142 142 142 142 142 142 142 142 142 142 142 142 142 142 142 142 142 142 142 142 142 142 140 140 140 140 138 140 142 142 142 138 138 138 140 142 142 142 142 142 142 142 142 142 142 142 142 142 142 142 142 142 142 142 140 137 140 142 142 142 142 140 138 138 138 140 142 140 138 138 138 142 142 142 142 142 141 138 138 138 142 142 142 142 142 142 142 142 142 142 142 142 140 140 142 142 142 142 142 143 142 142 142 138 142 140 138 140 140 138 138 138 137 138 138 138 138 138 136 136 138 138 138 138 137 136 136 135 135 135 136 138 136 135 135 135 135 135 135 135 135 136 136 136 137 136 135
85 88 90 85 77 26 77 91 88 90 85 87 83 83 86 86 83 82 104 127 131 127 123 120 116 111 107 107 104 99 98 98 95 86 83 83 82 80 85 88 91 91 90 88 86 85 86 93 91 90 86 79 80 80 77 75 77 78 77 75 74 74 74 71 71 74 77 79 77 75 75 74 71 74 71 71 71 71 70 70 72 70 70 70 70 70 71 70 71 71 71 71 73 73 70 69 71 70 71 71 73 70 70 70 70 70 70 70 70 71 71 71 72 71 73 73 71 72 73 73 73 73 74 75 74 73 74 75 75 75 74 73 72 73 74 73 71 70 68 67 65 67 67 67 67 67 67 65 68 68 68 68 68 68 68 70 71 73 73 71 71 71 71 72 72 71 71 71 73 73 73 73 73 74 75 75 75 79 79 79 79 80 80 80 80 85 59 21 79 85 85 83 83 85 85 85 86 86 86 87 90 90 90 88 90 90 91 93 93 95 95 95 95 95 95 97 98 97 97 98 96 98 98 97 98 100 102 102 104 104 104 105 105 105 105 105 104 109 111 116 120 120 122 123 125 125 125 125 123 123 123 123 122 122 122 122 122 123 123 126 125 125 125 125 125 125 126 127 127 127 127 127 127 129 131 131 131 131 131 131 131 132 133 133 133 133 135 135 136 136 138 140 143 142 142 144 144 144 144 144 146 148 146 144 146 146 146 145 142 142 140 140 140 140 140 140 140 140 140 139 140 140 140 140 140 140 140 141 142 141 142 142 142 142 142 142 143 142 142 142 142 142 142 141 142 142 142 142 142 142 142 142 142 142 142 139 138 138 139 138 140 142 142 142 142 142 140 142 142 142 142 142 142 142 141 142 142 142 142 142 142 142 142 142 142 142 142 142 140 142 142 142 142 143 140 138 138 140 142 142 138 138 138 138 142 142 142 142 142 140 138 138 139 140 142 142 141 142 142 142 142 142 142 142 142 142 142 142 142 142 142 142 142 142 142 142 140 142 142 142 138 138 138 137 139 138 138 138 138 138 138 138 139 138 138 138 138 138 136 135 135 135 135 135 135 135 135 135 135 135 135 136 135 136 136 135 136 136 135 133
97 95 95 102 86 25 84 88 83 82 82 83 86 88 85 91 93 97 118 130 131 129 127 125 120 112 107 102 102 97 95 94 91 85 83 83 85 88 90 91 94 93 90 90 88 85 88 91 90 90 90 86 86 86 85 85 83 86 85 85 85 85 85 83 82 83 86 90 88 85 85 83 79 82 83 83 83 83 79 77 79 79 79 79 79 79 79 80 77 70 70 71 70 70 70 68 71 70 71 70 68 68 68 68 69 70 70 68 71 71 70 70 71 69 70 70 70 68 68 70 71 71 73 74 74 74 74 75 74 75 74 73 73 73 73 73 71 70 68 67 66 67 67 67 67 67 67 67 68 70 70 70 70 70 70 70 71 73 73 71 71 72 71 70 71 71 71 71 73 73 73 73 74 74 75 75 75 77 79 78 79 80 80 80 80 87 58 21 79 85 85 85 85 85 85 86 86 86 86 88 90 90 90 90 90 90 91 90 93 95 95 95 95 94 95 97 98 97 97 98 98 98 98 98 100 100 104 105 105 104 106 105 107 107 107 111 112 112 112 118 122 120 120 118 120 120 122 122 118 118 120 120 122 122 121 122 122 122 122 123 122 124 125 125 124 125 126 127 127 127 127 127 127 129 129 131 131 131 131 131 133 133 133 133 133 133 135 136 136 135 138 140 142 142 141 144 144 144 144 144 144 146 144 144 142 142 142 142 142 142 142 142 142 142 142 142 142 142 142 142 142 142 142 142 142 141 142 142 142 143 142 142 142 142 142 142 142 142 142 142 142 142 142 142 142 142 142 142 142 142 142 142 142 142 142 140 138 137 138 138 140 141 142 142 142 142 142 142 142 142 142 142 141 142 142 142 142 142 141 141 142 142 143 142 142 142 142 142 142 142 142 142 142 142 142 138 138 142 142 142 138 138 138 138 142 142 142 142 142 140 138 139 138 142 142 142 142 142 142 142 142 142 142 142 142 142 142 142 142 142 142 142 142 142 142 142 143 141 140 139 138 137 138 138 138 138 138 138 138 138 138 138 138 138 138 138 138 138 136 136 136 136 136 135 136 136 136 136 136 136 136 136 135 136 136 136 135 135 133 132
113 116 114 123 102 27 112 114 107 107 114 116 120 127 122 125 127 129 131 131 131 131 131 127 123 118 109 100 98 98 97 97 97 97 94 95 95 95 93 93 93 93 93 93 93 93 91 90 89 89 90 90 88 88 88 88 90 91 93 93 93 93 93 93 92 93 91 90 90 90 90 90 91 90 88 88 88 88 89 88 88 89 88 88 88 91 86 89 86 77 71 71 71 70 70 68 70 70 70 68 67 67 67 65 67 68 69 65 68 68 68 68 68 67 67 70 70 70 70 68 68 68 68 68 70 71 71 71 71 71 73 70 71 71 68 68 69 68 67 67 67 67 67 67 67 67 67 67 68 70 70 70 70 70 68 70 70 71 71 71 70 72 70 68 69 71 71 70 71 70 71 72 73 74 75 75 75 76 79 79 79 80 80 80 80 86 60 20 77 85 85 84 85 85 85 86 85 85 85 86 86 86 88 90 90 90 90 90 92 93 95 95 95 95 95 97 98 98 100 100 101 102 102 102 102 104 107 109 109 109 114 114 118 118 115 118 119 120 120 120 120 120 118 116 114 113 116 116 116 115 118 118 120 120 118 122 122 122 122 122 122 125 124 125 125 126 125 125 127 127 127 127 127 127 127 129 131 131 131 131 131 133 133 133 133 133 135 136 136 136 136 136 138 140 142 142 142 142 142 142 142 142 142 142 140 140 140 140 142 141 142 142 142 142 142 142 142 142 142 140 142 142 143 142 142 142 142 142 142 143 142 142 142 142 142 142 142 142 142 142 142 142 142 142 142 142 142 142 142 142 142 142 142 142 142 142 142 142 142 142 142 142 142 141 143 142 142 142 142 142 142 143 142 142 142 142 142 142 142 142 142 143 143 142 143 142 142 142 142 142 142 142 142 142 140 138 138 142 143 142 140 138 140 143 142 142 142 142 142 142 142 142 142 142 142 142 142 142 142 142 142 142 142 142 142 142 142 142 142 142 142 142 142 142 142 142 142 142 140 138 138 138 138 138 138 138 138 140 142 137 138 138 138 138 138 139 136 135 136 136 135 136 136 136 136 136 136 136 135 136 136 136 136 136 136 136 135 133 133 134
111 113 112 119 95 27 116 112 116 123 123 123 125 128 131 133 129 129 131 129 129 131 131 129 122 114 107 102 100 98 98 100 101 100 98 97 95 95 93 93 94 94 93 93 93 91 91 90 91 90 90 90 88 88 88 88 90 91 93 92 93 93 95 93 93 91 91 90 90 90 90 90 88 90 90 88 88 88 88 86 88 88 90 85 80 82 83 88 88 82 73 73 71 70 70 70 70 70 68 68 68 68 68 70 74 73 73 74 74 75 78 75 80 80 79 80 77 80 79 74 73 73 73 73 73 74 73 71 73 71 73 73 71 71 70 70 70 68 66 67 67 67 67 67 67 67 67 68 68 70 70 70 70 70 70 70 71 70 70 70 70 70 70 70 70 70 70 70 71 71 71 73 74 75 75 77 77 79 80 80 80 82 82 82 82 87 61 20 77 86 85 85 86 86 85 85 83 85 85 88 90 90 90 91 91 90 90 91 93 93 93 95 95 95 93 95 95 98 100 100 102 104 104 105 104 102 105 107 109 111 114 116 121 118 116 116 118 118 118 116 117 116 116 116 114 112 114 116 118 118 119 120 122 122 122 122 121 122 122 122 122 123 125 126 125 124 125 126 127 127 127 127 127 129 129 131 131 131 131 131 131 133 133 133 133 133 136 136 136 136 135 135 136 138 140 140 140 142 142 142 142 142 142 142 142 142 142 142 142 142 142 142 142 141 142 142 142 142 142 142 142 142 142 142 142 142 142 142 142 142 142 142 142 142 142 142 142 142 142 142 142 142 142 142 140 140 142 142 142 142 142 142 140 140 140 142 142 142 142 142 142 142 142 142 142 142 142 142 142 142 142 142 142 142 142 142 142 142 142 142 142 142 142 142 142 142 140 140 141 140 140 142 142 142 143 140 141 142 142 142 138 138 140 142 141 142 142 142 142 142 142 142 142 142 142 142 142 142 142 142 142 142 142 142 142 142 142 142 142 142 142 142 142 142 140 140 140 142 138 138 138 138 138 140 138 138 138 140 140 138 138 138 138 135 136 135 136 136 136 136 136 136 136 136 136 135 135 135 135 136 135 137 136 135 137 136 135 133 133 133
114 114 116 123 85 29 118 114 116 120 121 125 131 127 127 127 126 127 125 120 118 120 122 120 111 107 109 105 105 100 98 100 100 100 98 96 95 95 95 95 95 95 95 93 92 90 90 90 90 90 90 90 88 86 88 86 88 91 93 93 92 91 90 90 90 90 90 90 88 86 88 88 86 83 82 79 80 82 85 87 88 88 82 75 71 73 73 79 75 70 68 68 70 69 70 68 70 68 67 68 70 70 68 70 82 85 86 83 85 85 85 85 85 84 85 85 85 85 85 83 83 86 85 84 85 88 88 88 88 86 79 77 75 75 74 71 68 67 67 67 67 67 67 67 67 67 68 71 68 68 69 70 71 72 72 71 71 70 68 68 68 68 68 68 68 67 68 68 70 71 73 74 74 73 74 77 79 80 80 82 83 83 83 83 83 86 61 21 77 88 88 86 88 91 93 91 91 93 95 95 100 101 100 101 100 100 102 104 102 102 102 104 104 104 102 104 105 105 105 107 108 107 107 107 107 107 109 111 109 108 112 112 112 112 112 112 112 116 115 116 116 111 114 116 114 116 118 118 122 122 122 122 122 122 122 122 122 122 122 122 122 122 123 125 125 125 127 127 127 127 127 127 127 129 130 132 131 131 131 131 130 133 133 133 133 133 135 136 136 136 136 136 138 138 138 140 142 142 142 140 140 140 140 140 140 140 140 142 144 142 140 140 140 140 140 140 140 140 142 144 142 140 140 140 140 141 141 140 140 140 140 140 140 140 139 140 140 140 140 140 140 141 142 143 137 138 143 142 142 142 142 140 138 138 138 140 142 140 142 142 143 140 139 140 140 140 140 140 140 140 140 140 140 140 140 140 142 142 142 140 142 142 140 140 142 141 138 138 138 138 139 140 142 142 142 140 140 142 142 142 138 138 140 141 140 140 140 140 140 140 140 140 140 140 140 140 140 140 140 140 140 140 140 140 140 140 140 140 140 140 140 140 140 140 140 139 138 142 140 138 138 137 140 140 138 137 138 138 138 139 138 138 138 135 135 135 135 135 135 135 135 135 135 136 136 133 133 131 133 133 133 133 133 133 133 133 133 132 131 131
112 109 122 129 73 32 123 116 111 109 105 102 112 122 120 120 125 123 116 109 100 105 106 104 101 104 105 104 105 102 100 99 100 100 98 98 97 97 95 95 95 93 93 91 91 90 90 90 90 88 88 88 88 88 86 86 88 90 90 90 90 86 85 81 82 88 88 87 88 87 86 86 83 76 74 74 76 79 83 86 85 83 79 76 80 75 71 68 67 67 67 67 67 67 67 67 68 67 65 65 67 67 68 71 82 83 83 85 85 86 85 83 85 85 84 85 85 85 85 85 86 86 86 88 88 92 90 86 85 80 79 79 79 77 74 73 70 68 67 67 68 67 67 67 67 68 68 70 70 70 70 71 71 71 71 72 71 70 70 70 69 70 70 70 71 70 71 71 71 71 74 75 75 75 77 79 79 80 80 83 83 83 83 83 83 88 61 20 79 90 90 90 89 93 95 98 100 101 105 104 104 105 105 105 107 108 111 111 112 112 112 114 114 114 114 114 116 114 114 114 114 114 114 114 116 118 120 120 120 120 120 120 116 115 116 118 118 120 122 120 120 120 120 122 122 123 123 123 122 123 123 123 123 123 123 122 122 122 122 122 122 123 123 125 125 125 127 127 127 127 127 127 127 129 131 132 131 131 132 131 131 133 133 133 135 135 136 137 137 136 136 138 138 138 138 140 142 142 142 144 144 144 144 144 144 144 144 144 144 144 144 144 144 145 144 144 144 144 144 144 144 143 143 144 144 144 144 142 142 142 142 142 142 142 142 142 142 142 142 142 142 142 142 142 141 140 142 142 142 140 140 140 140 138 138 138 140 142 140 138 140 141 143 143 142 142 142 142 142 142 142 142 142 142 142 142 140 140 141 141 140 140 140 142 140 139 138 138 138 138 138 138 140 140 140 142 142 143 142 142 140 140 142 142 142 142 142 142 142 142 142 142 142 142 142 142 142 142 142 142 142 142 142 142 142 142 142 142 142 140 140 140 140 142 142 140 140 140 138 138 140 140 140 140 138 137 138 138 138 138 138 136 136 136 136 136 137 136 136 136 136 136 135 133 131 131 133 132 133 135 135 131 131 131 131 131 131 131 131 132
111 109 118 127 63 33 120 107 98 93 95 98 102 116 114 116 120 120 114 111 107 102 97 97 97 97 95 94 98 100 100 100 100 100 98 98 98 96 95 97 95 91 93 90 89 90 90 90 88 86 88 88 88 86 85 84 88 86 86 86 87 89 88 86 86 86 88 88 88 88 85 85 85 83 85 85 83 83 85 85 85 83 83 82 83 83 79 74 71 70 67 68 68 68 68 68 70 69 70 70 70 72 77 82 83 82 83 85 85 84 83 83 82 82 83 83 85 85 85 85 85 85 85 88 88 90 88 85 83 79 77 77 75 74 73 71 68 67 67 67 67 67 67 67 67 68 68 68 68 68 70 71 71 71 71 71 71 70 68 68 68 68 68 68 68 68 70 71 71 71 73 74 75 77 79 79 79 80 80 84 83 83 83 83 83 90 60 21 79 90 90 90 93 93 95 100 100 103 104 104 104 105 105 105 107 109 112 111 114 114 114 114 114 114 116 116 116 116 116 117 118 119 118 120 122 123 122 122 122 122 125 124 123 123 123 125 125 130 129 125 127 129 129 129 129 126 127 127 127 126 125 125 125 125 125 122 122 122 122 122 123 124 125 125 125 125 127 127 127 127 127 127 127 129 131 131 131 131 131 131 131 133 133 133 135 136 136 136 136 136 136 136 138 138 138 140 141 140 141 144 144 144 143 144 144 144 144 144 144 144 145 146 148 146 144 144 144 144 144 144 144 144 144 144 144 144 144 144 140 140 140 140 140 140 140 140 140 140 140 140 140 140 140 140 140 140 140 140 140 140 136 140 140 138 137 138 138 140 140 138 140 140 140 141 140 140 140 140 140 140 140 140 140 140 140 140 140 138 137 142 138 138 140 140 138 138 138 138 138 138 138 138 138 138 138 140 140 140 140 140 140 140 141 141 140 140 140 140 140 140 140 140 140 140 140 140 140 140 140 140 140 140 140 140 140 140 140 140 140 138 138 138 138 142 142 142 140 138 138 138 142 142 138 138 138 138 138 138 138 135 135 135 135 135 135 135 135 135 136 136 135 136 135 131 135 135 133 133 133 137 136 131 130 131 131 131 131 131 130 131
109 112 112 122 54 36 116 107 107 111 109 109 109 116 118 114 116 116 114 114 112 109 107 105 104 102 100 98 98 98 98 97 98 98 97 95 95 95 95 95 93 93 93 89 90 90 90 90 90 88 88 88 88 88 85 85 85 86 90 88 88 88 88 88 88 88 88 88 89 88 86 85 85 83 83 83 85 85 85 85 85 85 85 85 85 85 86 85 84 83 82 83 80 79 80 79 77 77 77 79 82 80 82 83 83 83 83 83 85 85 83 83 83 83 85 85 85 85 83 83 83 85 85 86 86 85 83 80 79 75 76 75 74 73 70 70 68 67 67 67 67 67 67 68 68 70 68 68 68 70 70 71 71 71 71 70 70 70 70 67 67 67 67 67 68 70 70 70 70 71 72 74 75 77 79 79 79 80 80 83 83 85 85 85 85 90 60 23 78 90 87 90 95 97 98 100 100 104 104 105 105 105 107 109 109 111 113 114 114 114 114 114 116 116 116 116 116 118 120 120 120 120 122 122 122 123 123 123 123 123 124 124 125 127 129 127 127 129 129 127 129 131 131 131 131 131 129 127 131 129 127 127 125 125 125 123 122 122 122 122 123 125 125 125 125 125 127 127 127 127 127 129 131 131 131 131 131 131 131 133 132 133 133 133 135 136 136 136 136 136 138 138 138 140 142 142 144 144 144 144 144 144 146 146 146 146 146 146 144 144 146 148 148 146 144 144 144 144 144 144 144 144 144 144 144 144 144 144 142 142 142 142 143 142 140 140 140 140 140 140 140 140 140 140 140 140 142 140 139 138 137 140 142 138 138 139 138 142 140 140 140 140 140 140 140 140 140 140 140 140 140 140 140 140 140 142 140 138 138 142 140 140 140 139 138 138 138 138 138 138 138 138 139 138 138 140 140 140 140 140 140 140 140 140 140 140 140 140 140 140 140 140 140 140 140 140 140 140 140 140 140 140 140 140 142 140 138 138 138 138 138 138 138 143 142 142 143 142 142 142 140 140 138 138 138 138 138 138 138 136 133 135 136 136 136 136 135 135 135 135 135 135 134 133 135 135 133 133 134 135 136 131 131 131 131 132 129 130 131 131
107 109 109 118 44 45 116 109 111 114 112 111 112 114 114 109 107 109 114 115 114 111 109 107 105 104 104 100 100 98 98 98 98 98 96 95 95 95 95 93 93 93 93 90 90 90 90 90 88 89 88 88 89 88 85 85 85 86 91 88 88 88 87 88 88 88 88 88 88 88 86 85 83 83 83 83 85 85 85 85 85 85 85 85 85 85 85 85 83 83 83 83 80 80 80 80 80 82 82 82 83 82 80 83 83 83 83 83 83 85 83 83 83 83 85 85 85 83 83 83 83 85 85 85 85 83 82 80 77 75 75 74 73 71 70 70 69 67 66 67 67 67 67 70 70 70 70 70 70 70 71 71 71 71 71 70 70 70 70 67 67 67 67 66 68 70 70 70 71 71 73 74 75 75 79 79 78 80 80 82 83 84 85 85 85 90 58 20 77 90 86 89 93 97 98 98 100 101 104 105 105 105 107 109 109 112 112 114 114 114 114 114 116 116 116 116 116 118 120 120 120 120 120 122 122 122 123 125 124 125 125 125 125 126 127 127 127 127 127 127 127 131 130 131 131 131 127 126 131 129 127 127 125 125 125 122 122 122 122 122 122 125 125 125 125 125 127 127 127 127 127 129 131 131 131 131 131 131 131 133 133 133 133 133 135 136 136 136 135 136 138 138 138 141 142 143 144 144 144 144 144 144 146 148 148 147 149 147 144 144 148 148 148 145 144 144 144 144 144 144 144 144 144 144 144 144 144 144 144 144 144 144 144 142 142 142 141 142 142 142 142 142 142 142 142 142 142 140 138 138 138 140 142 138 138 138 139 140 139 142 142 142 142 142 142 142 142 142 142 142 142 142 142 142 142 141 139 138 140 142 142 142 140 140 138 138 138 138 138 138 138 138 138 138 138 142 142 142 142 142 142 142 142 142 142 142 142 142 142 142 142 142 142 142 142 142 142 142 142 142 142 142 142 142 142 140 138 138 138 138 138 138 138 140 140 140 142 142 142 142 138 138 138 138 138 138 138 136 138 138 135 135 137 136 136 137 133 131 131 133 133 133 133 133 133 133 133 133 133 131 131 132 131 131 131 131 129 131 131 129
104 103 105 114 37 54 116 109 109 111 112 111 111 111 107 105 105 105 111 111 111 109 107 104 104 104 102 100 100 100 98 98 98 99 95 95 95 95 95 93 92 91 90 90 90 90 91 90 88 88 89 88 88 87 85 85 85 85 88 88 88 88 88 88 88 85 86 88 86 85 85 85 83 82 83 83 85 85 85 84 85 86 85 86 85 85 85 85 83 83 83 83 83 82 80 80 83 83 83 83 83 83 83 83 83 83 83 85 85 85 85 84 85 85 85 85 85 82 83 83 83 85 85 85 85 83 82 82 77 75 74 74 71 71 70 70 70 68 68 68 68 67 67 70 70 70 71 70 71 71 71 71 71 71 71 70 70 70 69 70 68 67 67 68 70 70 70 71 72 71 73 73 75 75 79 79 80 82 83 85 85 83 83 83 83 91 58 22 75 91 88 91 95 95 97 100 104 105 105 105 105 107 109 109 111 114 114 114 116 116 117 116 116 116 117 118 120 120 120 120 120 123 122 122 123 125 125 125 125 125 125 125 125 125 125 127 127 127 127 127 127 131 131 131 131 131 131 129 131 131 131 129 127 125 125 122 121 122 122 122 122 125 125 125 125 125 127 127 127 126 129 131 130 131 131 131 131 133 133 133 133 133 135 136 137 136 136 136 136 136 138 138 138 140 142 144 144 144 144 145 144 145 146 148 148 148 148 148 144 145 144 144 144 144 144 144 144 144 144 144 144 144 144 144 144 144 144 144 144 142 142 141 142 143 142 142 142 142 142 142 142 142 142 141 142 142 138 138 138 140 142 140 138 138 138 138 139 139 138 137 140 142 143 142 142 142 142 142 142 142 142 142 142 142 140 138 138 138 140 142 139 137 138 138 138 138 138 138 138 138 138 140 140 140 140 142 142 142 141 142 142 142 142 142 142 142 142 142 142 142 142 142 142 142 142 142 142 142 142 142 142 141 139 138 138 138 138 138 138 138 138 138 138 139 139 138 140 142 142 142 138 138 138 138 136 136 136 135 136 136 136 136 136 133 133 133 133 132 133 134 133 133 133 133 133 131 131 131 131 131 129 131 129 131 129 127 127 127 127 126
104 104 105 112 35 60 114 107 107 111 112 111 111 111 107 107 107 108 107 105 104 104 104 102 102 102 102 100 100 100 98 98 98 97 96 95 95 95 95 93 93 91 90 90 90 90 90 90 88 89 88 86 86 86 85 85 85 86 88 88 88 88 89 88 88 84 86 86 86 85 84 85 84 83 83 83 85 85 85 85 85 85 85 85 85 85 85 85 83 83 83 83 83 83 81 80 83 83 83 84 83 83 83 83 83 83 85 85 85 85 85 84 85 85 85 85 85 85 82 83 83 85 85 85 85 83 82 79 75 74 74 73 71 70 70 68 68 68 68 68 68 67 67 68 68 68 68 68 70 71 71 71 71 70 70 70 68 68 68 68 67 67 67 68 68 68 70 70 71 71 73 74 76 77 79 80 79 83 83 85 85 83 83 83 83 90 55 24 79 91 88 93 97 97 98 102 104 105 105 108 108 109 109 108 111 114 114 114 116 116 116 116 116 116 116 118 120 120 120 118 120 120 120 120 122 123 123 123 123 123 123 124 123 123 123 125 127 127 127 127 127 131 132 131 131 131 131 131 131 131 131 129 127 126 125 123 122 122 122 123 123 126 124 125 125 125 127 127 127 128 131 131 131 131 131 132 131 134 133 133 133 133 135 136 136 136 136 136 136 136 138 138 138 140 142 144 144 144 144 144 144 144 146 148 147 148 148 148 144 144 144 144 144 144 144 144 144 144 144 144 144 144 144 144 144 144 144 144 143 142 140 140 140 140 140 141 140 140 140 141 142 142 142 142 140 140 138 139 138 141 142 140 138 138 138 138 138 138 138 136 138 140 140 140 140 140 140 140 140 140 140 140 139 140 140 138 138 138 139 140 138 136 139 138 138 138 138 138 139 138 138 140 140 140 140 140 142 142 142 142 142 142 142 142 142 142 142 142 142 142 140 140 140 140 142 142 143 142 142 142 142 142 140 138 138 138 138 138 138 138 138 138 138 138 138 140 140 142 142 142 140 138 138 138 136 136 135 135 135 136 135 135 135 133 133 133 133 133 133 133 133 133 133 134 133 131 131 131 129 129 129 131 129 131 129 127 127 127 126 127
104 104 104 112 31 67 112 105 107 111 109 109 109 109 107 107 104 102 102 100 100 100 102 98 98 98 98 98 98 98 98 98 97 95 95 94 95 95 93 93 93 91 90 90 90 90 90 90 89 88 86 85 85 85 85 85 88 88 88 88 88 88 88 88 86 85 85 85 85 85 85 85 85 85 83 83 86 86 86 86 86 86 86 86 86 86 85 83 83 83 83 83 84 83 80 80 82 82 83 83 83 83 83 83 83 83 83 85 85 85 84 85 85 86 85 85 85 85 83 83 83 85 86 85 85 82 79 79 75 73 73 73 70 71 71 70 68 68 68 68 68 68 68 68 68 68 68 68 70 71 71 71 71 70 68 68 67 67 67 67 67 68 68 67 67 68 68 68 70 71 73 73 74 75 79 80 80 82 83 86 85 85 85 83 82 90 54 19 77 91 91 93 98 98 100 102 104 105 105 109 109 109 109 111 111 111 112 114 114 114 114 114 116 116 116 116 116 120 121 118 118 118 118 119 120 122 123 123 123 123 123 123 122 123 123 125 127 127 127 127 127 131 131 131 131 131 131 131 131 131 128 127 127 127 125 123 122 122 122 122 122 122 122 125 125 125 127 127 127 127 127 129 131 131 131 131 131 133 133 134 133 133 133 133 135 136 136 136 136 135 136 138 137 140 142 144 144 144 144 144 144 144 144 144 148 148 146 144 144 145 144 145 144 144 144 144 144 144 144 144 144 144 142 142 142 142 143 140 138 138 138 138 138 138 138 138 138 138 138 139 141 142 142 142 138 138 138 138 138 140 141 139 140 138 138 138 138 138 138 138 138 138 138 138 138 138 138 138 138 138 140 140 139 140 140 138 139 138 138 138 138 138 138 138 138 139 138 139 138 138 138 140 140 140 140 140 140 142 142 142 142 142 143 142 142 142 142 142 142 140 138 138 138 138 138 138 140 142 139 138 138 138 138 138 138 138 138 138 139 136 136 138 138 138 138 140 138 136 136 136 136 136 136 136 136 135 133 133 133 135 131 131 131 132 133 131 131 131 131 131 133 133 131 131 131 131 131 129 127 127 127 131 129 127 127 127 127 128 127 127
100 100 104 105 26 70 114 107 105 105 106 105 105 105 104 102 97 97 98 98 98 98 98 98 98 98 98 98 98 97 97 94 95 95 95 96 95 93 93 93 93 91 90 90 91 90 89 90 88 88 86 85 85 85 85 85 89 88 88 88 86 86 86 86 86 85 85 85 85 83 83 85 83 83 80 80 82 83 83 83 83 83 83 83 83 82 82 82 82 82 82 82 82 82 81 80 79 80 81 82 81 83 83 83 83 83 83 85 85 85 84 85 85 85 85 85 85 83 83 83 83 83 85 85 83 80 79 77 75 74 73 73 71 71 71 70 70 70 70 70 70 70 70 70 70 70 70 70 70 71 70 70 71 71 70 68 67 68 67 67 67 70 70 68 67 70 70 70 71 71 73 73 74 75 79 78 80 82 83 85 85 85 85 83 84 90 52 16 77 92 91 93 97 98 100 102 104 105 105 107 107 109 109 111 111 111 112 114 114 114 114 114 116 116 115 116 118 120 120 120 120 120 120 120 120 122 123 124 123 123 125 125 125 125 125 127 127 127 127 127 127 128 129 129 131 131 131 131 129 129 127 128 127 125 123 122 122 122 122 122 122 123 123 125 125 125 127 127 129 128 129 129 131 131 131 131 131 133 133 133 133 133 133 135 135 136 136 136 136 136 135 138 138 141 142 142 144 144 144 144 144 146 146 146 146 146 144 144 144 144 144 144 146 144 144 144 144 144 141 142 142 144 142 142 142 142 142 140 138 138 138 138 138 138 138 138 138 138 138 138 140 140 139 140 138 138 138 138 138 138 140 140 140 138 138 139 138 138 138 138 138 138 138 138 138 138 138 138 138 140 140 142 142 140 140 138 138 138 138 138 138 138 138 138 138 138 138 138 138 138 138 140 140 140 140 142 142 140 140 140 142 142 142 142 142 142 140 140 140 138 138 138 138 138 138 138 138 140 138 138 138 138 138 138 138 136 139 138 138 136 136 138 138 136 136 135 135 136 135 135 135 135 135 135 135 135 133 133 134 133 131 131 131 133 131 131 131 131 129 129 131 133 129 129 129 129 129 127 127 126 127 129 129 127 127 127 127 127 127 127
100 100 104 100 26 75 111 102 102 104 104 104 102 102 100 100 98 98 100 98 98 97 98 98 99 98 98 98 97 95 95 95 95 95 93 91 91 93 95 93 93 90 90 90 90 88 86 88 88 88 86 85 85 85 85 86 88 88 88 86 85 85 85 85 85 83 83 85 85 82 82 83 83 83 80 80 80 82 83 83 83 83 83 83 82 80 80 80 80 80 80 80 80 80 80 80 80 80 80 80 79 82 83 84 83 83 83 85 85 85 83 83 85 84 83 83 83 83 83 83 83 83 83 80 80 79 74 75 73 71 71 71 71 70 70 68 68 70 69 68 68 68 68 70 70 68 71 70 68 68 71 71 71 71 70 67 67 67 67 67 67 68 70 70 71 68 68 68 70 71 71 71 75 77 79 79 80 82 86 85 85 85 85 85 85 90 51 17 77 88 91 95 97 100 100 102 104 105 105 105 105 109 109 109 109 111 112 114 114 114 116 116 116 116 116 118 120 118 118 118 118 118 118 118 120 122 122 122 122 122 125 125 125 125 123 125 127 127 127 127 127 127 127 128 130 131 131 131 127 127 127 127 127 125 122 120 122 122 122 122 122 125 125 125 127 127 127 127 131 131 131 131 131 131 131 132 131 133 133 133 133 133 135 136 136 136 136 136 136 136 138 138 138 140 142 142 142 144 144 144 146 147 148 148 144 144 144 144 145 143 144 144 144 142 142 142 142 142 140 139 140 143 142 143 142 142 142 141 138 138 138 138 138 138 138 138 138 138 138 138 138 138 138 138 138 138 138 138 138 138 138 138 138 138 138 138 138 138 138 138 138 138 138 138 138 138 138 138 138 138 138 138 138 138 138 138 138 138 138 138 138 138 138 138 138 138 138 138 138 138 138 138 138 138 138 142 142 140 142 141 142 142 142 142 142 141 138 138 138 138 137 138 138 138 138 138 138 138 138 138 138 138 138 138 139 138 134 136 136 136 137 136 136 135 136 137 136 136 135 133 134 133 133 133 133 133 133 133 133 131 129 131 131 131 131 131 131 131 129 127 129 131 127 127 127 127 127 127 127 127 127 127 127 127 127 127 127 127 127 127
100 101 105 97 27 86 107 102 102 102 102 102 102 101 99 100 98 100 100 100 98 97 96 98 98 98 98 97 98 95 95 95 95 95 93 93 93 95 97 95 93 91 90 90 90 88 88 86 86 86 86 86 85 85 85 85 86 86 86 85 85 85 85 83 83 83 83 83 84 83 81 82 82 82 80 80 80 82 83 83 83 83 82 82 82 80 79 79 79 79 79 79 79 80 78 80 80 80 81 80 80 83 83 83 83 83 83 85 85 85 83 83 85 85 83 83 82 82 82 82 82 83 80 79 77 74 71 71 70 68 70 70 70 68 68 68 70 68 67 69 69 70 70 68 69 70 68 68 70 70 71 71 70 69 70 67 67 67 67 67 67 68 68 70 70 70 70 70 71 71 71 74 75 77 79 80 80 82 85 85 85 85 85 85 85 90 54 19 77 90 90 95 98 100 100 102 104 105 105 104 105 109 109 109 108 111 112 114 116 116 116 115 116 116 116 118 121 120 120 120 120 120 120 120 120 119 122 122 122 122 123 123 125 125 125 125 125 127 127 127 127 127 127 128 129 129 129 129 127 127 127 127 127 125 123 122 122 122 122 122 123 125 126 125 125 127 127 127 129 129 129 131 132 131 131 131 131 133 133 133 133 133 135 135 136 135 134 135 136 136 138 138 138 140 142 142 144 144 144 146 147 146 146 146 144 144 144 144 144 142 142 142 142 140 141 140 140 140 140 138 138 140 140 140 140 140 140 141 138 138 138 138 138 138 138 138 138 138 138 138 138 138 138 138 138 138 139 138 138 138 138 138 136 138 138 138 138 138 138 138 138 138 138 138 138 138 138 138 138 138 136 135 135 136 138 136 137 138 138 138 138 138 138 138 138 138 138 138 138 138 138 137 138 138 138 140 141 142 140 140 140 140 140 140 140 140 136 138 138 138 138 138 138 136 136 136 136 136 136 136 135 136 136 138 138 138 136 136 136 136 136 136 136 135 135 135 135 135 133 133 133 133 132 130 131 131 131 132 131 131 131 132 131 131 131 131 129 129 127 127 127 127 127 128 125 125 125 127 127 127 127 127 127 125 127 127 127 127 127 127
100 100 105 96 25 90 107 104 102 100 100 100 100 101 100 100 100 100 100 98 98 97 95 97 98 98 97 95 95 95 95 95 95 95 93 93 95 95 91 91 92 90 90 90 90 88 86 85 85 85 85 85 85 85 85 85 85 85 85 85 85 85 85 83 83 83 83 83 83 83 82 80 80 81 80 80 80 82 83 83 83 83 83 80 80 80 80 77 80 79 79 79 79 79 77 79 80 80 80 79 80 82 83 83 83 83 83 83 83 83 83 83 83 83 83 82 80 80 80 80 80 79 77 75 73 75 71 68 71 70 68 71 70 67 67 67 70 68 67 68 70 70 68 66 67 70 68 67 68 68 71 71 70 68 70 68 67 67 67 67 67 67 67 70 70 69 70 68 71 71 71 71 75 77 79 79 81 82 83 85 85 85 85 85 83 90 56 19 73 91 92 95 97 98 100 102 104 105 105 105 105 109 109 109 109 112 112 114 116 116 116 116 116 116 116 118 120 120 118 119 118 118 118 118 118 118 120 122 122 122 122 122 125 125 125 123 123 127 127 127 127 127 127 127 127 127 127 127 127 127 127 127 125 123 122 122 122 122 122 122 122 125 125 125 125 125 127 127 127 127 127 129 131 131 131 130 131 131 131 133 133 133 133 133 133 133 133 133 136 136 136 136 138 140 141 142 146 144 144 144 144 144 144 144 144 144 144 144 142 142 141 142 142 138 139 137 138 138 138 138 138 138 138 138 135 135 138 138 138 138 138 138 138 138 138 138 138 138 138 138 138 138 138 138 139 138 138 138 138 138 138 136 135 136 138 138 138 138 138 138 138 138 138 138 138 138 138 138 138 136 135 135 136 136 135 135 137 137 138 138 138 138 138 137 138 139 138 138 138 139 138 138 139 138 138 138 138 142 140 138 138 138 137 138 138 138 135 136 138 138 138 138 138 136 136 136 136 136 136 136 136 136 135 136 138 138 136 136 136 136 136 136 135 133 133 133 133 133 134 133 133 133 130 131 131 131 131 131 131 131 131 131 131 131 131 131 129 127 127 127 125 125 127 127 123 123 123 125 127 127 127 127 127 123 126 126 127 127 127 127
100 98 105 90 25 90 105 102 102 100 100 100 101 100 100 100 100 98 97 99 98 96 95 96 97 98 98 97 95 96 95 95 93 93 93 93 95 91 90 91 90 88 88 88 88 86 85 83 83 83 83 83 83 83 83 83 83 83 85 85 83 82 82 82 82 82 81 82 83 82 80 79 79 80 80 80 80 80 82 82 82 82 82 80 80 79 79 79 79 79 79 79 79 79 79 79 79 79 79 80 80 79 82 82 82 82 82 82 82 82 82 82 82 82 82 80 80 80 80 79 79 78 75 73 70 71 70 70 68 67 68 68 68 67 66 67 68 67 66 67 68 67 67 67 67 70 68 67 67 67 70 70 70 68 67 67 66 66 67 67 67 68 68 67 68 69 70 70 71 70 71 71 74 75 79 79 80 80 83 85 85 85 85 85 85 91 56 18 74 91 91 93 96 98 100 102 104 105 105 105 105 108 109 111 111 111 112 114 116 116 116 116 116 116 116 116 118 118 120 120 121 121 120 120 120 120 122 122 122 122 122 123 125 125 125 125 125 127 127 127 127 127 127 127 127 128 127 127 127 127 127 127 125 122 122 122 122 122 122 122 123 125 126 125 126 125 127 127 127 127 127 127 129 129 131 131 131 131 131 132 131 133 133 133 133 132 133 133 136 136 136 136 138 138 140 140 142 143 142 142 142 142 142 142 142 142 144 144 143 142 140 140 140 138 138 137 138 138 138 138 138 138 136 136 135 135 136 136 136 136 136 136 136 136 136 136 136 138 138 136 136 136 136 136 138 138 136 136 138 138 136 138 138 138 138 138 138 138 136 136 136 136 137 138 136 136 136 136 136 136 136 135 136 136 136 138 138 138 138 138 138 138 138 138 138 138 138 138 136 138 138 138 138 136 136 136 138 140 138 138 138 138 138 138 136 136 136 136 136 136 136 135 135 136 136 135 135 136 136 137 136 136 136 136 136 138 136 136 136 136 136 136 136 133 133 133 132 133 135 135 133 131 133 131 129 129 131 129 127 129 129 127 127 127 129 131 129 129 127 128 126 125 125 125 125 125 125 125 125 125 127 127 125 123 125 127 125 125 125 125
97 97 107 83 24 93 105 102 100 100 100 100 98 100 107 106 105 100 100 102 105 102 100 101 104 97 97 97 95 101 98 95 97 97 100 100 97 93 93 95 93 88 88 88 86 85 85 83 83 82 83 83 83 84 83 82 83 83 85 83 83 80 80 80 80 80 80 80 79 79 79 79 79 80 80 80 80 80 80 80 80 80 80 80 80 79 79 79 79 79 79 79 79 79 79 79 80 79 77 79 80 80 80 80 80 80 80 80 80 80 80 80 80 80 80 80 80 80 80 79 79 77 74 73 69 68 68 68 67 65 67 67 67 67 67 67 67 67 67 67 67 67 67 67 67 68 67 68 67 67 68 68 68 68 65 67 67 67 67 67 68 70 70 67 68 70 70 70 70 69 71 73 74 75 79 80 80 82 83 85 85 85 85 85 86 91 55 15 73 91 94 93 95 98 100 102 104 104 105 105 105 107 109 112 111 111 112 112 114 116 116 116 116 116 116 116 114 118 118 118 118 118 117 117 118 119 120 123 122 122 122 122 122 122 123 123 123 127 127 127 127 127 127 127 127 129 127 127 127 126 127 127 125 122 122 122 122 122 122 122 123 125 125 125 125 126 127 127 127 127 127 127 127 129 131 131 131 131 132 131 131 133 133 133 132 133 134 135 136 136 136 136 138 138 136 140 140 140 140 140 140 140 140 142 142 142 140 140 142 140 138 138 138 138 138 138 138 138 139 138 138 138 136 136 137 136 136 136 136 136 136 136 136 136 136 136 136 138 138 136 136 136 136 136 138 138 136 136 138 136 136 136 138 138 138 137 138 138 136 136 135 136 138 138 136 136 137 136 136 137 136 136 136 136 136 138 138 138 138 138 138 138 138 138 138 138 138 138 136 136 137 138 138 136 136 135 136 138 138 138 138 137 135 135 136 136 136 136 136 136 136 133 133 135 135 133 133 136 136 136 136 136 135 137 135 137 136 136 136 136 136 136 136 135 133 133 133 133 133 133 131 131 129 129 127 129 131 127 127 127 127 125 125 126 127 131 129 125 124 127 125 125 125 123 123 123 123 123 123 127 127 123 123 125 125 126 125 125 123 125
97 98 105 74 25 102 102 100 102 104 104 109 112 112 77 50 40 36 37 43 51 61 65 68 71 43 37 36 41 48 83 100 95 104 102 102 96 97 97 97 95 93 93 90 86 82 83 83 83 83 81 80 82 82 80 82 83 83 83 81 80 79 80 80 80 80 80 80 80 79 79 79 79 79 79 79 80 80 79 79 80 82 79 79 79 79 77 75 75 75 75 75 75 75 75 77 79 79 79 79 78 80 80 80 80 80 80 80 80 80 80 80 79 80 80 80 79 79 79 79 75 74 71 71 70 67 67 67 67 67 67 65 65 65 67 67 67 67 67 67 67 67 67 65 67 68 68 69 67 65 68 68 68 68 65 67 68 68 67 68 70 70 70 70 70 70 70 71 71 71 71 73 74 75 77 77 79 81 82 82 85 85 86 88 88 93 58 14 71 94 93 93 95 98 100 102 104 105 105 107 107 109 109 109 111 112 112 112 112 113 112 112 112 114 116 116 117 116 116 116 117 118 118 118 118 118 118 118 118 121 120 123 123 123 122 123 123 125 126 125 127 127 127 127 129 129 127 125 125 125 127 125 123 122 122 122 122 122 122 122 122 123 123 125 125 125 125 125 125 127 127 127 127 129 129 131 131 129 129 131 131 131 133 133 133 133 133 133 135 138 138 137 139 138 139 140 140 140 139 138 138 140 142 142 140 140 140 140 140 138 138 138 138 138 138 138 138 136 138 138 138 136 136 136 136 136 135 136 136 136 136 136 136 136 136 136 136 136 136 136 136 136 136 136 136 136 138 138 136 136 136 136 136 136 136 136 136 136 136 136 136 136 136 136 136 136 136 136 136 136 136 136 136 136 136 136 136 136 137 138 139 138 138 138 138 138 138 138 138 138 138 138 139 138 138 137 136 137 136 136 136 137 135 135 136 136 136 136 136 136 136 133 131 134 133 133 133 133 135 131 111 112 133 135 135 135 135 136 135 135 135 135 135 135 135 131 131 131 129 129 129 129 131 131 131 129 129 127 125 124 125 129 129 132 135 135 133 133 135 131 127 127 129 129 128 131 131 129 129 127 128 133 131 133 135 131 127 129 129 129
100 102 111 65 24 67 98 109 83 82 95 68 54 41 29 31 33 32 32 36 36 32 31 27 29 29 30 32 32 31 33 39 38 75 100 98 93 91 91 91 91 90 90 88 85 83 83 83 84 83 81 80 79 79 80 80 83 82 82 82 81 80 80 80 80 80 80 80 79 79 80 79 79 79 79 79 80 79 79 80 79 79 80 79 77 79 77 75 75 75 75 74 75 75 75 77 79 79 79 79 79 80 80 80 80 80 79 80 80 80 80 80 80 80 80 79 76 77 77 77 74 73 70 68 68 67 67 67 67 67 67 67 65 65 67 68 67 67 67 67 67 67 68 67 67 69 70 70 68 67 68 70 71 68 67 68 70 68 67 68 70 70 70 70 70 70 70 71 71 71 71 71 74 74 76 77 79 80 80 81 83 85 85 88 88 95 59 13 70 93 93 93 95 97 100 100 104 104 107 109 109 111 111 111 112 113 112 112 114 114 114 114 114 114 116 116 116 116 116 116 116 114 116 118 118 118 120 120 120 120 122 122 126 123 122 123 123 123 123 125 125 127 127 127 124 116 125 123 123 123 121 122 122 122 122 122 122 122 122 122 122 122 123 123 125 125 125 125 125 125 127 127 127 127 129 133 131 127 126 129 131 131 131 133 133 133 134 132 135 136 138 138 138 138 138 140 142 139 140 139 138 140 142 140 138 138 136 136 136 138 138 138 139 138 138 138 138 135 135 139 136 135 135 135 136 136 135 135 136 136 136 136 136 136 136 137 136 136 136 136 135 136 136 135 135 135 138 136 135 135 136 135 135 135 135 135 135 133 131 133 135 135 135 135 135 135 135 135 133 135 136 135 135 136 136 135 136 136 136 138 138 138 138 138 138 138 138 138 138 138 138 138 138 138 139 135 136 136 135 135 136 135 135 136 135 135 135 135 135 135 136 135 135 133 131 131 131 131 131 134 111 109 133 133 132 133 133 133 133 131 133 133 135 133 135 135 133 131 127 127 127 129 133 133 132 133 131 133 133 132 127 120 114 107 100 90 88 86 88 107 122 122 118 120 116 107 100 105 114 109 107 100 90 91 90 100 112 104 103 111
91 86 64 38 23 31 36 43 31 31 33 32 32 31 34 35 34 33 37 43 38 32 31 30 31 32 32 32 31 32 32 30 31 30 46 76 91 93 86 85 86 85 83 83 83 83 83 83 82 80 80 79 79 79 80 83 80 80 79 79 79 79 79 79 79 79 79 78 79 79 79 79 79 79 80 80 79 79 79 80 73 59 73 77 75 75 75 75 75 75 75 75 75 75 77 77 79 79 79 79 78 79 79 80 80 79 80 79 79 79 79 79 79 79 79 78 75 75 75 75 71 70 70 68 65 65 65 64 65 65 65 65 65 65 67 67 67 67 67 67 67 67 67 67 67 70 68 70 67 67 67 67 67 67 70 70 70 70 70 70 70 70 70 70 70 71 71 71 71 71 73 74 74 74 75 77 80 80 80 82 83 85 85 88 88 95 61 14 71 93 93 93 95 97 101 102 104 104 107 109 109 111 111 111 111 111 111 111 112 113 114 114 114 114 116 116 114 116 117 116 116 116 116 116 116 116 118 120 120 120 120 120 123 122 122 122 122 122 122 123 122 120 125 125 123 102 131 123 122 122 122 122 120 120 120 122 121 122 122 122 122 125 123 122 123 125 125 125 125 125 124 125 125 125 118 116 125 124 125 125 127 130 131 131 131 131 133 135 133 133 136 135 135 137 140 142 142 138 138 138 138 138 136 136 136 135 135 135 133 133 135 127 111 122 135 136 136 136 135 133 133 133 133 132 135 136 133 133 136 136 136 136 136 136 136 136 136 136 136 136 136 136 135 133 133 133 136 136 133 135 136 133 133 133 133 131 131 120 104 121 137 133 131 131 131 135 133 133 133 133 133 133 133 135 135 134 133 135 136 136 139 137 136 135 136 136 138 138 138 136 136 135 131 127 135 136 136 133 135 136 136 136 136 133 135 136 136 133 133 136 135 129 133 136 140 143 136 138 136 140 116 107 140 139 138 138 136 133 136 135 135 136 127 102 74 83 105 111 114 118 118 118 97 90 90 90 91 85 83 85 80 67 63 58 58 61 63 65 64 65 68 66 64 70 71 68 64 64 65 58 56 56 59 60 58 61 65 64 64 64
33 32 32 29 26 38 41 39 42 44 39 33 32 33 34 33 34 35 35 33 30 29 31 31 31 32 32 32 31 32 32 32 32 32 28 26 39 67 91 90 83 82 80 80 82 82 82 82 81 79 79 80 79 79 79 79 80 80 79 79 79 77 75 79 79 79 79 77 77 77 77 77 77 77 80 80 79 79 79 79 82 61 54 73 75 74 75 74 75 75 75 75 75 75 77 77 79 79 79 79 79 79 79 80 80 79 79 79 79 79 79 79 79 79 79 77 76 75 75 73 68 68 68 68 64 65 64 64 64 65 65 65 66 65 67 67 67 67 67 67 67 67 67 66 68 70 70 70 68 68 68 69 67 68 69 70 70 70 70 70 70 70 70 70 71 71 71 71 71 72 74 74 74 74 75 77 79 80 80 83 83 85 86 88 88 95 61 14 71 95 93 93 95 97 98 102 104 102 104 109 109 109 109 109 111 111 111 111 112 112 112 112 112 112 112 107 111 114 114 114 114 114 114 114 116 116 118 118 118 120 120 119 118 120 120 121 120 120 120 120 116 100 111 123 123 91 93 125 122 122 122 120 118 118 120 123 122 122 122 121 122 123 123 122 123 125 123 123 125 123 123 124 122 123 112 98 122 123 122 123 127 127 125 127 131 131 129 129 133 133 135 135 133 136 135 138 140 138 138 136 136 136 135 135 135 135 132 131 133 133 131 133 114 116 135 135 135 135 135 134 133 133 131 131 135 135 133 132 135 137 135 135 135 133 131 131 133 133 133 137 136 136 133 133 135 135 136 136 136 138 138 136 136 136 135 135 135 127 106 123 140 135 135 134 134 136 136 136 136 136 135 136 138 138 138 138 138 140 140 138 138 140 140 138 136 138 140 138 139 140 136 135 133 104 116 136 123 123 136 135 131 131 129 127 122 124 116 109 116 116 118 119 112 107 96 90 80 80 93 90 80 82 90 91 93 102 95 85 82 88 77 70 80 82 80 82 80 83 100 104 107 77 80 82 86 88 68 53 71 78 95 105 100 80 88 89 97 85 74 75 82 82 70 63 81 104 111 102 88 100 104 93 105 90 70 56 55 75 82 75
32 32 34 28 28 46 48 51 52 48 38 33 35 35 35 35 36 38 35 30 31 31 31 32 32 32 33 32 31 31 31 30 31 32 32 30 26 26 42 61 83 80 82 85 83 79 77 79 77 76 77 79 79 79 79 79 79 79 79 79 79 77 74 77 77 77 77 75 75 75 77 79 79 79 79 79 79 80 77 75 59 41 46 63 71 72 75 75 74 75 75 75 75 75 77 77 80 80 80 79 79 80 80 79 79 80 77 75 77 79 79 79 75 75 77 75 73 74 73 68 67 65 65 65 65 64 64 63 64 64 64 64 67 67 67 67 67 67 67 68 68 68 68 68 68 68 70 70 68 67 70 68 65 68 70 69 70 68 67 68 70 70 70 71 71 71 71 71 73 71 71 74 74 74 75 77 79 80 80 82 83 85 85 85 85 95 61 14 70 90 85 80 91 93 95 100 104 105 107 109 109 107 107 108 109 111 111 111 111 111 111 111 110 111 104 90 107 112 112 112 112 112 112 112 114 116 116 116 118 118 118 118 118 119 118 118 119 118 118 118 118 102 113 129 125 120 70 118 122 122 120 120 120 118 116 118 120 120 120 120 120 118 120 122 123 123 119 122 123 123 120 122 123 123 90 82 129 125 125 123 120 127 124 129 111 126 129 131 131 133 133 133 131 133 135 138 140 139 140 139 138 138 136 135 136 136 136 138 136 138 136 140 118 118 140 135 135 140 142 140 135 140 136 136 136 133 136 138 138 136 140 142 138 136 136 136 136 136 131 133 138 134 131 133 131 131 131 127 114 111 114 118 121 122 122 118 120 111 95 107 114 112 120 118 122 125 116 114 114 122 125 116 120 114 98 100 102 104 102 105 109 100 100 95 82 90 85 83 80 85 97 98 102 82 66 67 50 67 64 53 68 75 54 48 56 48 59 59 68 77 75 95 96 88 86 93 64 59 71 86 79 86 63 56 77 60 39 42 37 52 53 45 56 83 84 104 100 74 73 83 65 35 38 38 35 38 24 29 50 47 41 45 54 38 36 35 42 32 29 44 39 39 29 24 47 47 35 24 25 35 42 35 54 43 26 26 31 38 38 36
32 33 37 28 29 39 38 39 39 37 34 36 38 38 38 36 37 35 30 31 30 31 31 32 32 32 33 33 32 31 32 32 31 32 32 30 29 29 26 24 29 32 42 41 46 71 83 79 74 70 67 66 70 75 80 79 77 75 74 73 73 70 70 68 67 68 70 74 74 75 74 71 74 71 70 71 71 67 61 56 32 26 33 42 40 56 73 67 70 71 74 74 75 75 80 82 82 82 83 80 80 80 80 80 63 77 79 77 77 79 77 77 77 74 71 73 74 71 67 65 65 64 64 64 61 64 64 63 64 64 65 65 67 67 67 68 64 65 67 68 71 71 68 71 67 67 68 67 68 68 70 68 59 65 68 67 67 67 68 68 68 68 68 71 71 71 71 71 71 67 59 71 75 75 80 79 79 79 83 83 82 83 83 86 90 95 64 15 68 92 86 75 95 91 97 100 105 105 107 105 109 112 111 111 109 112 111 111 112 112 111 111 111 118 111 97 112 116 118 120 117 118 116 114 116 118 118 118 122 120 122 123 118 122 125 125 125 125 123 123 123 112 105 95 116 104 58 118 109 91 123 121 126 126 122 123 127 127 122 125 125 128 125 125 111 116 122 124 127 129 125 129 98 111 107 79 100 120 118 98 104 127 127 112 74 120 131 131 129 131 131 127 131 136 125 127 125 127 122 120 120 118 116 120 111 103 89 113 129 114 88 85 71 95 111 107 107 102 90 71 70 84 71 83 83 86 86 97 97 65 56 86 80 74 75 80 80 58 56 64 67 71 82 85 90 85 86 91 91 73 77 71 53 39 42 41 52 54 42 45 44 46 60 85 73 65 67 54 56 59 56 55 73 74 60 43 39 32 28 33 59 56 61 61 53 41 40 45 40 32 33 34 40 47 52 39 36 33 38 36 47 54 32 24 31 25 26 29 38 35 26 31 38 37 54 52 29 31 34 42 32 21 15 18 26 26 25 20 21 29 26 21 17 21 23 29 22 16 19 20 21 18 13 16 22 32 39 43 26 38 65 58 44 34 35 34 29 30 29 27 23 23 24 31 39 29 24 26 28 27 47 36 30 23 25 29 27 21 24 29
33 38 42 28 29 40 38 38 37 34 36 37 37 37 37 37 37 35 32 30 30 30 30 32 33 32 32 34 33 30 30 32 31 30 31 29 29 31 29 28 26 27 27 25 26 31 52 67 64 64 65 62 63 65 70 70 67 64 60 61 63 61 60 62 63 61 59 60 60 59 59 55 59 58 58 58 56 55 58 42 24 26 26 33 30 43 47 39 58 59 63 64 65 65 64 64 64 65 67 67 70 73 72 73 54 50 64 74 76 73 74 74 68 71 70 70 71 71 67 65 64 63 63 59 54 63 64 63 65 65 65 67 60 64 67 68 61 65 68 65 70 58 54 68 67 68 65 64 67 70 71 70 63 59 68 68 66 70 71 71 70 71 71 65 68 70 70 73 74 71 65 63 61 60 59 68 82 83 71 61 73 88 80 67 67 86 64 16 68 95 90 74 89 85 97 100 102 100 109 104 102 95 74 105 107 107 104 104 100 105 116 109 95 91 74 91 100 97 85 75 97 100 95 107 109 102 97 93 95 102 100 98 118 114 90 73 75 74 90 90 82 67 65 45 48 46 43 73 61 29 59 97 95 57 68 74 48 63 90 70 50 51 54 85 55 39 93 59 46 54 54 53 49 32 58 39 45 45 36 32 51 50 50 38 51 86 91 88 95 82 70 98 100 57 35 32 51 59 41 33 34 45 60 65 64 53 38 43 53 28 26 24 25 55 41 34 41 55 61 60 46 47 51 54 59 68 73 91 70 52 26 75 67 42 37 37 29 30 29 36 25 39 61 55 65 59 73 108 120 63 91 103 97 60 53 56 60 80 93 90 80 70 56 65 59 54 54 54 64 91 109 113 122 120 105 93 77 50 75 71 91 73 90 100 102 100 95 98 93 88 55 63 55 59 51 25 27 28 33 46 52 52 66 44 35 51 90 93 77 51 35 41 48 77 82 83 93 73 60 73 82 79 83 51 47 41 50 31 22 37 65 68 60 42 33 60 58 55 67 71 79 79 80 74 63 38 38 53 58 55 125 120 116 83 46 38 32 51 68 52 54 57 73 83 88 67 54 55 39 58 120 138 133 105 107 65 46 68 107 54
38 39 40 27 31 38 38 37 39 37 38 38 37 37 37 36 37 36 29 31 31 32 32 32 33 31 32 33 32 30 34 32 31 32 32 29 30 32 32 30 29 29 31 30 29 29 27 29 32 33 35 50 63 63 63 63 60 60 63 61 61 60 61 61 61 60 58 59 58 58 59 59 59 59 58 58 55 53 56 52 24 24 32 31 23 38 41 29 48 58 58 59 59 60 59 58 60 60 60 59 63 59 55 61 54 45 55 61 61 65 67 67 61 67 67 68 68 64 61 61 61 63 61 60 56 60 64 65 64 64 63 63 58 67 67 61 63 65 68 66 55 46 42 56 60 61 64 71 56 31 26 32 33 24 44 70 61 52 52 51 58 54 38 28 40 56 46 39 38 38 29 29 28 28 20 26 50 39 29 26 52 95 32 30 25 29 26 17 60 51 44 41 46 55 36 38 58 86 73 56 64 35 19 45 95 70 29 28 36 38 90 67 74 44 21 40 59 40 22 14 22 30 68 97 53 35 80 93 77 100 36 36 67 69 48 34 25 26 30 23 23 29 47 44 42 32 28 45 107 95 83 79 101 65 68 88 59 79 102 86 79 85 95 111 104 91 120 111 98 104 105 105 80 24 19 24 33 38 24 32 32 34 38 42 40 73 126 136 131 94 97 111 74 26 24 31 83 111 93 77 93 118 129 131 135 136 133 105 99 85 64 53 58 104 71 68 82 86 105 112 115 109 97 98 98 97 86 80 86 71 63 120 135 118 131 120 91 58 55 53 64 79 82 77 102 114 133 106 68 43 65 51 116 125 125 125 131 135 125 133 140 135 112 73 93 115 111 112 133 125 114 123 125 129 125 95 120 112 166 125 56 43 65 52 64 120 120 129 138 140 80 112 151 131 88 28 20 18 26 44 35 28 47 32 21 63 114 95 93 35 27 31 38 93 101 95 133 135 120 112 116 123 111 50 52 42 75 70 29 58 130 107 112 107 42 83 118 112 83 55 74 88 62 77 80 47 32 71 120 68 111 122 111 80 98 107 31 32 56 36 33 41 53 44 59 112 125 133 122 53 60 77 94 73 60 80 53 55 85 68
38 38 39 27 32 34 34 33 38 37 37 38 40 38 37 37 35 27 24 32 32 34 32 32 32 32 31 29 27 33 37 34 32 31 31 32 27 24 27 34 31 29 30 32 30 29 29 29 29 28 29 29 33 44 58 59 62 61 61 61 61 61 63 63 61 61 59 59 60 60 60 61 63 59 54 55 56 56 60 60 31 20 27 26 24 42 51 24 35 48 45 52 61 63 61 61 65 64 63 56 41 53 59 53 46 39 49 42 39 55 70 71 60 48 53 47 47 63 63 71 80 55 64 36 36 29 38 47 58 61 46 29 34 51 32 31 39 29 24 35 50 29 26 25 26 32 32 37 17 13 15 15 16 19 21 24 25 17 15 18 31 26 16 16 18 26 18 12 17 22 29 34 37 28 27 33 24 30 35 50 45 39 18 25 17 22 24 18 39 35 22 29 46 74 58 100 93 100 91 93 112 63 73 87 88 116 43 44 77 53 54 46 64 25 39 55 56 39 48 51 29 51 111 124 68 54 61 97 114 93 98 68 55 42 59 100 52 43 67 85 97 105 74 51 56 44 11 30 105 122 97 51 67 116 129 127 77 64 51 65 109 129 131 133 120 123 122 97 135 135 136 120 26 18 26 26 29 30 22 29 24 24 29 34 54 75 122 93 52 67 129 135 129 116 107 131 138 136 138 136 138 133 128 129 122 116 114 118 120 120 125 123 116 103 98 98 95 75 99 111 118 123 109 74 73 95 111 105 67 61 75 120 88 44 88 144 102 53 54 43 42 59 107 109 123 131 135 60 38 23 31 53 129 129 83 118 83 74 51 61 95 118 60 25 40 79 79 38 107 116 50 63 111 116 86 63 88 61 102 104 50 65 83 64 70 114 123 118 122 129 105 104 136 125 97 45 41 53 47 36 70 90 71 84 77 98 111 83 85 52 91 60 56 100 74 30 70 124 107 79 59 39 29 23 30 29 28 28 32 59 65 54 45 63 44 85 90 83 48 43 45 42 29 38 35 26 21 32 59 25 54 122 102 40 31 93 48 37 52 28 23 39 39 24 21 83 122 112 129 50 24 23 46 41 18 37 34 30 33 45
38 36 37 24 32 36 31 27 38 29 20 34 39 29 29 38 34 19 16 24 34 34 35 33 33 36 28 21 22 29 35 32 33 32 34 36 27 16 20 30 26 20 25 33 33 33 33 31 30 29 29 29 27 32 35 37 51 55 57 55 60 61 47 40 56 50 47 52 52 43 42 39 38 39 93 75 48 42 38 43 29 27 27 25 23 31 36 19 22 33 34 29 39 39 34 29 28 35 39 32 18 29 41 37 32 30 47 37 38 46 52 33 27 18 24 19 19 53 88 44 38 25 27 16 17 18 13 19 38 33 29 24 27 26 34 32 47 46 40 41 51 36 38 38 37 50 43 33 31 29 47 34 32 22 36 39 32 55 70 70 64 46 53 48 25 74 67 65 60 67 44 39 97 122 129 123 79 97 111 136 123 88 48 34 22 25 36 16 65 36 28 24 26 38 100 114 68 48 80 127 132 93 44 116 123 124 75 83 125 93 47 39 91 116 112 85 58 77 93 59 21 29 46 107 67 43 47 43 95 33 46 36 34 35 48 48 27 38 77 77 104 133 32 37 51 47 41 29 55 97 54 36 33 82 97 75 22 24 21 21 50 105 95 107 70 50 102 54 131 135 102 61 18 17 26 28 33 31 26 26 24 23 20 29 50 55 79 38 18 30 86 123 122 98 95 80 118 123 111 86 97 122 131 105 116 135 132 112 107 135 138 140 138 140 116 123 85 58 50 45 83 125 122 55 23 39 83 123 58 79 97 120 85 61 104 124 60 63 67 70 73 110 122 116 120 127 129 112 88 64 58 47 137 133 112 125 116 104 65 48 80 116 90 59 80 102 111 104 125 130 112 116 127 116 88 98 118 104 90 96 123 127 136 148 144 136 129 105 104 127 123 114 131 136 137 80 37 35 36 39 104 129 122 138 138 98 97 85 95 87 104 83 70 131 91 23 42 111 68 59 61 70 43 31 35 29 45 40 46 88 109 111 61 59 98 112 108 95 97 106 73 60 88 77 29 21 33 55 65 84 91 111 107 74 68 102 91 74 61 39 43 54 55 105 65 64 54 93 118 93 85 42 26 48 45 46 34 31 34 43
123 120 97 25 86 112 95 85 80 55 31 73 93 65 42 44 53 43 32 40 58 63 53 63 68 65 55 38 28 38 47 51 53 50 43 32 36 21 21 27 21 18 28 33 32 26 26 25 24 24 24 19 18 18 23 25 25 25 25 23 24 24 20 15 21 27 45 35 25 24 23 22 21 28 32 31 24 28 43 24 21 29 26 18 20 21 25 26 21 24 30 32 32 29 28 29 20 22 29 32 24 27 37 32 31 32 33 37 38 32 32 34 22 18 26 33 28 27 39 27 26 52 58 60 68 56 71 53 73 105 112 83 49 39 64 93 123 91 118 129 53 54 122 97 127 123 116 100 123 116 67 41 90 108 97 62 28 83 129 131 138 135 138 126 104 127 97 91 88 111 38 25 103 138 133 120 52 39 76 122 122 122 122 70 28 22 18 16 44 32 29 22 23 24 105 140 131 77 112 125 122 107 39 90 122 114 61 59 79 50 75 93 105 116 80 40 48 116 107 61 39 19 27 52 93 75 135 118 108 58 25 28 58 54 54 79 93 60 125 82 64 80 51 68 48 44 44 35 60 75 61 47 32 56 28 40 35 43 34 31 27 63 55 54 65 36 85 68 122 123 71 46 27 18 21 27 27 31 24 19 26 28 24 28 54 68 85 44 24 35 86 116 111 85 61 44 89 102 63 28 45 67 114 127 123 127 129 44 28 52 122 127 125 129 129 138 88 38 24 22 38 103 65 39 39 21 47 118 116 118 118 79 56 95 125 122 135 136 122 123 105 90 112 105 112 114 102 95 125 113 105 98 129 131 133 127 127 129 134 129 105 75 129 126 114 109 123 131 125 100 138 131 136 120 58 51 80 45 51 79 118 116 104 116 132 138 134 122 123 131 83 82 64 122 140 109 23 21 28 37 42 63 120 105 114 77 50 48 85 76 51 61 86 90 93 56 74 97 42 34 36 26 51 36 35 33 76 41 36 65 93 111 55 35 95 74 48 59 74 85 48 38 85 112 51 43 43 37 21 46 109 118 114 56 51 102 63 47 39 39 33 28 31 77 32 27 18 43 83 85 93 85 61 77 77 46 38 42 35 32
146 153 129 25 118 148 105 120 133 112 142 157 153 93 109 41 54 91 70 51 91 51 46 63 111 91 123 146 138 112 123 142 144 151 146 127 116 144 134 41 40 98 127 133 133 122 120 118 107 56 37 63 37 30 101 60 37 29 111 109 80 105 109 109 116 123 140 135 127 146 98 33 40 32 47 74 17 38 83 35 26 25 27 18 21 25 32 32 24 24 32 38 60 114 120 129 77 46 88 71 35 37 40 39 35 38 33 36 73 90 58 65 54 38 109 122 88 34 77 29 28 105 116 67 52 46 56 58 60 107 131 75 30 38 30 88 107 35 64 85 93 54 104 75 116 82 83 131 129 83 25 47 97 104 36 44 32 65 114 63 79 116 100 61 68 125 67 67 117 59 29 41 76 116 114 120 127 88 119 122 100 96 120 92 60 97 70 15 42 63 28 29 26 58 54 133 129 127 133 122 97 109 111 100 122 116 70 50 43 28 65 102 107 125 100 54 83 111 86 80 76 42 65 30 53 100 93 52 93 93 49 20 47 70 90 105 102 105 140 68 25 47 41 35 45 35 18 23 43 26 29 71 50 36 22 26 37 65 56 54 54 82 71 55 90 85 53 44 81 114 79 95 95 91 83 102 112 53 26 24 37 27 29 30 72 105 111 120 136 138 127 118 133 114 67 38 44 61 40 24 34 43 90 88 112 90 80 58 60 68 114 113 112 123 118 116 107 79 64 48 46 90 83 46 109 97 104 98 56 68 90 55 34 75 129 95 111 90 67 95 97 41 47 51 65 83 42 31 101 135 71 75 70 93 111 81 85 106 88 84 95 58 117 53 36 47 68 97 97 64 102 90 97 111 79 65 83 22 34 82 122 85 74 51 108 107 98 111 120 112 51 36 29 79 98 61 21 24 35 60 48 35 80 52 82 67 29 24 67 64 39 33 67 65 75 88 70 44 34 22 24 20 22 30 23 24 35 23 29 58 53 61 41 27 50 42 19 31 36 58 32 30 37 70 38 29 25 23 19 24 46 101 73 30 34 67 32 22 19 18 17 24 29 39 29 22 22 29 26 29 60 69 77 61 36 22 36 29 29 25
122 157 109 24 122 112 63 56 68 53 129 97 87 35 33 23 26 44 45 30 32 33 24 34 55 58 91 142 112 64 109 125 129 116 104 102 79 138 116 30 51 149 146 148 149 157 123 135 112 59 30 75 22 21 77 46 11 26 100 85 105 97 133 116 148 135 133 98 73 83 79 38 22 25 24 42 30 16 21 19 22 24 24 19 12 21 29 24 19 23 29 27 37 102 129 123 37 28 111 60 28 23 26 40 38 28 32 38 39 45 43 56 70 71 118 129 112 75 90 58 60 122 116 114 67 36 38 79 82 30 103 73 32 38 21 79 91 68 107 123 100 65 77 111 129 75 77 107 104 90 33 97 98 111 50 95 74 50 111 64 46 46 53 50 43 70 95 111 105 48 71 129 123 118 85 90 122 127 126 122 73 98 111 114 70 136 64 15 32 97 70 56 31 82 121 118 116 118 123 127 79 70 74 100 122 116 93 50 88 80 51 65 54 95 104 120 129 125 111 90 59 61 87 45 74 120 100 85 111 88 120 83 107 100 85 119 109 118 122 98 54 67 105 63 30 23 26 19 36 66 54 47 39 36 32 24 46 86 64 65 122 132 118 114 111 112 114 63 74 109 75 68 133 118 136 111 82 37 23 25 33 54 75 70 40 85 116 133 125 133 93 65 105 160 155 127 61 38 38 24 40 74 90 78 104 90 67 91 109 86 129 91 97 116 118 104 58 80 125 90 57 53 102 122 85 131 133 127 60 33 79 51 33 48 68 54 70 34 64 100 107 71 38 35 31 68 45 19 66 118 56 38 33 60 90 91 65 88 42 52 105 97 70 40 20 44 43 80 51 59 85 52 95 104 111 91 74 44 43 85 85 61 98 73 91 97 68 54 109 113 97 59 34 79 63 55 52 34 59 83 86 77 64 33 65 70 41 40 58 77 42 30 58 38 24 39 58 25 17 17 19 17 22 31 20 20 27 22 23 48 25 65 58 25 32 26 13 17 21 24 33 26 24 26 32 19 20 20 22 19 37 105 62 18 37 45 29 21 20 18 19 19 22 31 38 37 54 39 34 64 91 35 42 80 63 44 47 32 48 41
52 148 100 25 118 61 63 43 26 24 60 26 20 23 25 20 22 35 42 21 22 19 16 27 39 56 63 71 48 17 32 68 72 33 61 86 77 122 59 29 37 93 111 97 61 127 74 58 39 43 47 73 35 28 25 36 39 58 32 50 47 74 135 72 95 79 51 26 24 25 58 63 25 23 22 28 25 19 22 48 48 24 26 26 12 22 24 26 17 22 32 56 64 52 109 61 38 38 50 41 26 16 20 64 48 18 29 54 22 27 42 75 93 107 123 127 127 131 131 135 135 129 109 116 64 43 47 88 90 41 86 74 32 31 33 84 82 91 125 123 116 109 97 114 123 107 109 112 105 123 106 123 82 79 59 74 95 100 88 91 59 29 39 36 24 47 125 135 120 116 125 133 114 74 60 80 90 118 120 114 82 126 93 79 58 123 63 16 24 63 93 73 73 69 129 123 122 86 105 123 127 125 63 73 86 87 61 43 102 83 56 104 101 114 107 118 114 122 127 86 32 60 111 97 109 102 80 88 112 125 122 125 118 109 97 118 125 122 104 67 74 79 91 73 86 48 43 25 45 55 70 34 29 26 37 35 52 79 77 97 127 140 129 120 136 140 138 91 86 75 95 64 80 108 112 100 55 38 37 28 30 39 71 42 19 42 68 91 90 97 61 55 79 120 128 78 54 63 82 95 123 129 104 116 120 111 118 118 85 48 104 97 82 100 116 115 79 88 122 109 63 74 95 90 65 107 120 130 98 38 102 98 70 46 35 40 97 54 58 65 60 90 85 40 42 82 44 29 98 93 68 55 41 59 85 83 56 93 88 95 96 74 51 59 53 85 70 102 54 48 71 48 85 104 86 62 51 88 56 79 114 63 83 67 71 65 68 98 112 127 86 51 41 46 38 39 51 47 40 55 74 59 89 46 48 48 38 46 32 30 40 46 53 39 40 41 45 44 22 15 16 18 24 31 28 19 24 26 22 71 63 55 53 29 31 44 52 45 33 41 37 33 23 20 33 16 17 18 26 25 47 85 45 26 33 26 20 29 27 22 22 26 30 33 34 46 32 28 16 31 59 60 73 118 53 53 58 42 73 75
53 142 85 29 121 55 38 38 26 21 35 37 33 37 32 26 26 24 36 24 22 25 39 47 51 93 90 37 34 19 18 27 73 30 53 100 102 124 42 32 55 88 85 56 45 100 122 98 93 86 88 124 95 55 37 86 133 133 102 79 43 56 61 51 91 110 91 64 26 18 33 45 37 26 26 26 20 17 21 85 43 16 24 24 24 21 23 34 22 21 32 47 71 67 93 35 22 61 67 32 30 12 23 93 41 13 48 91 32 34 32 93 85 122 127 129 125 127 129 127 127 123 85 77 131 114 80 58 38 43 80 50 26 22 26 48 61 83 105 111 118 118 122 123 120 77 74 85 83 112 125 114 78 60 70 63 90 122 105 122 123 85 88 33 20 42 116 129 127 120 122 120 123 60 85 110 90 97 98 93 107 127 114 95 64 55 70 17 23 29 66 91 98 86 132 107 129 120 98 118 127 131 82 54 75 64 50 54 104 123 114 134 129 106 118 107 112 117 122 110 73 120 112 102 104 98 114 114 104 116 114 102 98 105 122 125 129 133 109 112 114 88 111 121 111 115 93 82 90 64 67 45 23 30 41 55 46 41 70 111 131 125 133 114 98 95 88 125 71 51 51 39 32 50 53 66 44 37 30 28 29 29 42 46 50 71 86 79 47 70 64 55 59 106 111 111 122 73 54 98 100 82 86 114 123 111 100 97 86 42 65 109 100 97 85 118 108 62 46 95 91 82 95 107 90 79 73 58 65 45 100 83 60 32 33 32 111 51 38 52 47 32 80 55 50 88 46 79 116 86 65 60 75 88 93 63 67 112 79 91 82 90 74 57 77 53 80 102 47 71 65 60 65 47 31 40 55 106 120 88 64 50 43 51 46 53 37 43 90 82 41 29 32 35 19 21 59 73 50 48 54 51 85 60 63 48 33 30 26 14 26 79 54 51 94 80 75 63 52 16 13 17 22 24 21 19 18 39 39 82 90 30 32 32 37 44 80 83 24 33 47 38 32 30 32 17 15 16 26 33 80 59 64 35 25 33 34 38 56 38 33 38 37 36 38 47 38 24 16 27 44 51 71 70 39 46 31 24 45 60
61 142 74 30 82 50 32 38 29 30 41 56 38 25 26 29 29 74 31 26 25 27 52 56 105 117 93 59 35 19 18 20 56 17 74 135 136 123 39 30 75 93 92 79 109 112 127 107 120 120 71 109 160 93 64 133 142 125 112 71 67 39 31 36 48 114 146 105 28 15 22 26 14 19 27 31 23 7 12 23 14 9 20 18 17 16 15 25 22 28 29 31 27 41 46 28 20 58 37 33 18 9 17 97 77 18 24 52 27 40 24 70 75 95 129 127 126 116 112 107 108 104 100 73 74 83 61 53 38 23 45 33 24 19 21 50 52 74 75 79 104 118 123 125 129 129 129 125 135 122 127 97 44 79 52 54 75 117 82 120 104 127 116 77 95 102 135 129 118 105 118 111 124 97 59 100 73 86 88 100 112 114 93 52 38 33 44 16 22 24 55 68 82 75 105 90 104 109 65 104 109 122 129 100 80 89 104 105 70 114 114 122 109 114 119 112 102 90 116 122 112 104 96 93 80 86 68 61 52 97 111 90 58 95 99 102 121 116 70 85 99 102 100 97 70 64 50 50 77 91 80 73 28 22 19 31 40 50 37 91 112 95 100 109 104 98 68 54 52 54 40 38 43 73 95 85 61 38 45 42 42 56 46 43 55 114 98 44 31 39 65 54 83 79 93 104 122 44 30 96 122 116 80 58 73 104 83 70 67 85 85 109 100 83 70 123 68 30 17 42 97 82 91 116 125 84 43 36 41 43 60 54 55 41 25 43 56 47 34 44 30 26 46 50 41 34 39 76 86 52 36 25 67 104 115 120 93 90 73 79 70 64 67 64 71 26 82 70 45 39 38 35 55 64 32 51 97 105 111 90 46 37 29 40 43 80 45 29 65 38 46 53 68 64 39 25 96 125 107 82 59 64 86 40 44 31 19 21 32 19 29 80 55 50 114 69 63 53 33 22 18 25 21 17 18 17 18 32 51 74 52 41 39 30 21 21 58 56 40 52 51 38 29 29 22 18 11 15 24 43 69 75 107 111 40 38 42 28 35 33 28 22 29 25 27 36 43 80 95 100 86 87 91 90 31 29 20 21 30 27
67 148 67 32 45 35 34 37 36 53 68 64 34 31 33 26 34 68 29 25 21 35 42 80 133 133 90 51 37 18 12 16 39 45 102 138 131 123 95 109 136 120 107 105 93 71 54 44 58 55 30 65 138 138 104 85 131 122 102 107 52 29 24 19 70 105 138 116 33 8 14 9 9 10 22 32 12 14 20 16 11 7 21 23 16 15 10 24 29 24 21 26 32 68 41 38 14 68 52 39 11 19 14 73 97 19 22 83 32 41 25 50 53 86 133 129 133 109 83 105 107 129 129 129 85 53 77 59 42 22 30 42 21 17 23 41 47 86 85 95 112 123 123 125 130 123 106 104 91 93 129 88 52 68 40 67 89 128 67 68 86 123 107 59 123 136 135 112 95 95 123 102 123 70 29 67 79 82 58 52 64 71 58 35 33 34 32 16 38 26 52 71 55 64 93 115 64 80 65 122 109 129 131 107 88 114 123 115 116 116 131 90 50 82 77 79 97 86 100 105 102 95 104 111 76 68 47 53 46 44 52 58 71 85 80 89 100 64 42 55 53 88 95 100 93 60 60 61 60 55 67 74 27 27 19 21 28 32 36 59 91 89 120 79 59 45 38 36 27 23 22 22 46 50 63 86 100 50 36 31 32 51 42 37 52 98 111 49 31 40 50 38 73 70 71 71 105 75 38 112 127 118 88 43 45 104 86 55 47 63 86 98 100 98 114 129 85 26 16 21 53 97 107 127 127 70 31 41 31 52 71 61 38 39 44 46 44 47 36 32 26 29 41 40 35 26 30 54 71 52 64 67 116 109 95 105 77 44 90 107 98 85 79 65 48 39 93 105 107 74 26 14 53 100 65 47 60 59 73 77 42 19 21 37 38 47 48 33 65 28 36 63 129 148 151 135 127 122 121 125 102 85 74 30 37 26 18 18 29 39 37 32 38 50 105 75 40 45 39 32 22 37 41 28 18 22 24 27 38 63 41 37 60 43 38 63 68 90 85 90 80 55 47 73 70 45 45 53 34 68 95 90 54 86 48 37 20 19 17 19 24 22 26 19 22 26 38 79 91 123 116 95 105 88 48 52 38 38 38 31
64 95 50 36 54 26 26 37 34 41 65 41 34 41 41 31 36 31 20 16 17 28 46 112 131 120 75 37 29 13 13 20 26 93 144 142 142 138 140 142 136 137 140 120 114 133 135 129 129 129 87 73 135 135 93 75 140 111 83 114 36 35 23 27 56 129 116 137 115 17 7 6 10 17 18 24 18 15 8 4 5 8 12 23 19 26 26 22 18 19 19 28 41 88 90 35 13 45 54 30 20 28 7 21 61 19 33 26 28 21 23 56 44 101 142 133 133 136 110 102 120 118 111 107 98 88 58 65 38 30 26 40 21 15 22 30 41 93 125 107 123 135 123 120 129 123 95 67 50 82 86 77 60 46 41 83 60 86 36 22 48 62 112 55 75 135 131 133 97 85 138 120 98 59 32 50 51 48 36 47 32 36 47 48 38 35 28 17 24 31 35 86 90 88 97 123 133 129 139 135 123 135 133 127 116 129 127 95 83 97 127 73 59 45 43 35 38 79 86 104 86 105 120 68 61 54 30 38 41 36 40 38 53 93 64 122 98 52 31 26 20 58 86 73 102 51 50 50 44 43 60 38 29 17 17 19 23 28 39 52 74 99 116 83 55 38 26 32 24 21 12 19 18 26 33 61 88 67 30 31 31 47 37 36 91 122 104 88 64 54 32 35 67 115 111 111 131 100 50 112 83 97 109 56 32 70 56 32 45 35 77 83 91 102 95 100 101 77 33 37 45 114 120 125 107 79 31 41 28 60 56 65 38 28 33 43 42 38 36 31 26 23 32 21 24 29 27 56 86 80 85 112 135 83 61 60 41 34 60 75 74 86 74 52 43 64 107 131 123 91 20 21 61 26 47 91 39 35 90 95 63 26 15 29 32 37 42 44 55 34 53 122 125 127 127 129 129 125 131 120 95 88 65 112 88 44 22 19 26 38 33 32 24 36 74 48 54 56 55 43 24 36 36 35 24 27 36 37 42 59 38 39 41 38 56 88 82 98 93 59 86 80 116 140 135 97 82 82 22 102 122 125 43 38 24 21 23 11 17 21 33 23 20 18 21 29 90 123 120 146 144 148 148 135 79 95 96 83 73 91
114 165 54 32 45 39 48 33 28 45 82 38 32 38 29 44 38 22 46 82 80 64 68 115 133 123 64 56 33 15 14 11 38 120 157 140 140 142 149 138 138 140 140 107 107 144 122 129 105 122 129 122 127 127 98 100 133 109 97 104 26 29 21 26 59 100 51 118 66 23 6 11 24 32 17 17 18 20 19 6 11 17 19 22 20 23 25 21 14 22 17 29 75 138 59 22 13 32 48 16 14 30 9 22 79 19 14 32 23 18 38 52 34 80 143 135 135 136 125 86 122 127 91 114 93 101 86 50 41 38 29 38 22 16 20 25 47 122 113 70 86 86 60 65 128 107 64 64 51 45 48 38 43 28 32 53 70 59 35 39 51 85 133 33 55 136 123 116 136 118 112 135 144 68 33 44 27 75 107 93 51 68 77 44 25 27 22 18 25 32 29 40 69 95 91 132 140 146 138 136 134 129 129 123 129 135 131 126 88 47 79 64 56 28 39 38 27 60 98 90 123 117 91 116 52 55 32 25 33 24 29 34 71 136 106 107 93 35 27 19 23 71 90 41 64 60 53 38 42 68 64 39 26 18 19 19 24 32 37 35 39 56 33 65 70 27 29 38 31 29 36 28 24 24 47 64 67 50 32 30 28 39 36 39 96 127 104 63 37 30 25 26 70 116 116 112 125 123 118 116 73 68 107 86 31 53 51 32 29 32 42 44 77 73 43 43 59 65 61 55 85 80 112 91 111 88 47 32 23 53 60 25 26 29 28 34 50 68 60 33 38 26 18 18 24 29 26 63 105 105 43 95 135 114 74 37 29 28 41 45 48 60 58 51 30 71 91 116 105 100 93 86 68 56 51 109 94 105 118 105 83 57 18 41 33 34 42 83 93 82 93 116 125 127 129 127 127 129 137 67 32 73 77 98 75 60 22 14 20 31 40 50 39 29 61 90 74 58 56 47 34 35 46 36 32 24 28 40 64 80 58 95 85 42 43 100 107 111 123 80 71 71 114 111 111 74 74 75 36 91 86 90 40 30 20 24 26 16 17 24 26 24 28 27 67 70 141 127 122 135 124 118 127 125 79 71 72 67 56 61
123 83 32 41 82 86 95 53 26 54 65 38 31 46 46 75 60 48 100 135 122 97 90 118 135 80 48 67 33 16 15 21 34 84 130 135 136 127 133 120 105 136 85 67 127 97 65 79 79 104 122 123 122 125 120 118 125 131 131 73 29 21 29 26 88 53 32 28 10 8 10 12 15 18 15 30 19 19 15 7 7 7 13 18 19 19 18 18 19 24 21 36 55 79 33 17 8 32 36 16 24 19 11 16 42 26 15 37 31 23 26 58 48 125 144 142 144 138 113 48 85 111 104 142 90 71 58 38 45 45 22 28 26 26 36 45 74 125 105 105 95 68 26 29 64 98 85 63 73 58 51 28 36 30 32 55 74 48 38 32 33 79 138 42 55 82 104 86 127 111 91 79 114 102 68 70 48 75 97 75 72 85 86 43 18 24 22 17 29 41 26 42 71 100 118 116 118 127 133 136 131 131 135 131 135 133 125 129 133 70 61 114 95 93 64 33 46 67 64 83 109 95 60 70 44 40 32 24 29 19 32 42 94 109 114 116 102 73 75 38 80 123 125 77 48 58 63 42 59 46 39 29 15 18 16 19 26 30 36 35 37 52 29 68 71 36 22 35 43 21 40 22 24 23 51 43 44 24 22 35 27 47 46 61 120 122 82 64 70 24 23 31 104 98 114 127 120 118 114 116 100 95 114 83 53 59 59 45 39 40 37 38 31 30 18 24 23 20 50 71 77 93 72 46 67 86 43 38 25 32 53 30 22 32 47 32 80 74 50 54 43 18 22 17 17 21 31 70 90 85 66 79 94 104 73 32 29 29 33 42 60 86 90 97 40 102 91 105 114 112 102 112 68 114 133 131 136 131 131 123 100 114 80 79 32 26 34 50 90 109 107 104 111 117 107 105 104 107 114 44 19 35 46 75 64 47 55 24 32 90 98 98 91 83 97 122 116 75 107 54 20 17 29 36 27 26 20 33 60 54 58 100 118 60 48 111 107 97 102 91 63 75 123 120 116 98 64 48 83 65 64 58 54 41 38 43 32 21 18 23 20 30 36 34 80 82 118 107 109 123 111 98 105 107 100 73 43 58 60 42
153 65 15 64 164 151 131 131 91 100 122 96 116 131 123 114 122 129 135 123 118 59 55 83 105 61 47 40 23 18 26 28 31 90 120 118 127 122 91 98 64 91 71 45 83 85 93 45 42 98 90 71 88 101 112 85 80 98 106 68 32 24 27 18 37 41 101 80 6 5 7 14 10 8 15 22 36 16 10 9 8 7 4 16 17 18 15 20 22 24 20 32 38 39 32 20 6 21 48 71 44 32 8 10 41 29 13 22 31 26 24 42 86 118 109 116 122 111 112 54 86 92 75 85 75 61 64 46 32 37 34 60 85 95 95 105 131 148 90 66 53 38 27 29 63 99 59 61 73 43 38 24 29 37 33 58 71 33 24 19 44 97 127 59 75 46 38 48 79 77 52 47 67 66 82 71 69 60 90 55 48 60 74 42 24 21 24 17 31 40 28 33 44 102 118 125 125 95 93 116 133 133 133 131 129 127 125 125 130 118 73 83 122 116 102 42 83 64 90 129 118 53 80 50 39 37 32 24 19 19 29 40 64 77 118 129 127 133 138 133 112 114 114 88 42 45 37 36 39 51 61 59 54 42 45 24 29 25 30 23 36 100 94 90 46 34 22 22 22 17 26 19 15 16 40 45 104 100 70 48 31 47 37 64 102 116 100 88 83 46 15 64 120 98 97 127 120 120 120 114 118 122 112 100 100 111 125 127 125 129 125 98 29 22 29 29 19 24 40 32 50 86 65 90 46 83 79 41 32 29 29 29 41 39 54 29 47 42 56 47 54 53 53 44 41 36 38 74 64 74 97 109 102 85 56 31 33 22 43 73 93 107 102 107 114 120 91 83 78 100 97 123 119 120 125 129 129 127 129 123 105 102 97 75 26 26 28 59 104 98 109 113 111 118 112 114 111 109 122 101 40 61 58 82 105 107 115 103 98 133 131 123 130 127 127 128 116 91 91 71 32 11 29 68 26 20 23 22 44 54 64 116 136 136 133 120 116 109 88 61 61 65 112 104 98 88 45 29 52 73 80 85 61 43 35 32 27 23 21 22 16 33 40 32 65 97 102 87 91 112 93 78 104 105 105 93 53 41 29 35
133 135 67 93 155 146 135 146 105 137 138 100 67 97 135 124 128 125 125 118 102 65 38 80 106 85 98 104 90 75 47 59 37 131 135 137 129 131 107 70 36 56 45 40 48 88 109 37 40 46 50 52 100 71 45 51 97 123 54 75 38 21 35 33 33 22 67 44 17 7 10 8 6 15 67 41 42 12 5 7 7 6 9 19 13 16 12 20 27 21 16 22 27 30 31 22 14 14 23 48 33 20 10 8 28 32 21 20 20 23 27 48 109 107 112 98 86 80 77 51 40 44 38 55 54 60 77 79 71 64 64 80 109 143 114 107 80 77 50 43 29 29 29 22 42 40 31 32 43 28 22 24 22 23 27 46 55 52 37 56 83 135 130 125 74 35 31 34 67 97 85 92 95 71 122 81 97 71 69 45 46 58 58 41 54 48 41 17 32 63 71 63 79 91 82 111 120 102 97 111 127 135 136 136 133 138 146 146 140 138 118 80 95 75 71 45 65 75 105 105 109 73 109 65 46 32 29 27 31 33 26 38 71 104 116 120 109 100 114 112 102 108 114 95 46 41 35 48 60 95 109 95 63 44 60 34 36 29 41 37 37 102 64 54 51 65 27 16 20 15 17 16 16 22 24 28 64 109 63 34 22 38 31 59 60 71 88 80 90 90 50 95 120 118 122 123 122 120 123 123 123 123 129 129 136 131 126 123 123 120 102 93 68 29 14 29 18 20 28 50 32 48 88 51 37 71 79 42 33 22 32 21 27 31 44 29 41 59 82 72 105 131 113 105 132 131 116 120 121 102 105 100 118 91 88 73 93 85 104 123 123 129 123 122 120 120 129 102 47 80 83 122 116 122 127 120 118 122 122 122 56 63 71 73 38 12 27 64 82 109 116 114 112 120 114 116 116 106 98 107 104 91 111 119 114 112 107 98 109 112 114 109 107 105 108 97 87 73 54 45 50 48 44 45 36 26 22 21 36 59 83 85 98 114 122 116 105 83 73 46 58 64 91 93 82 55 36 23 41 77 82 58 50 58 67 67 61 59 49 55 41 26 23 29 55 75 64 55 68 97 97 91 109 120 122 123 102 52 27 43
95 149 162 158 151 107 95 116 93 136 109 64 24 53 97 118 114 68 73 100 79 91 39 90 133 135 144 135 135 105 98 122 112 144 138 138 144 133 112 102 45 38 38 45 68 82 66 45 71 50 77 68 95 75 32 58 123 126 61 65 63 30 29 36 22 15 18 17 14 5 7 5 4 18 43 31 22 8 9 4 4 7 21 21 18 22 20 21 24 22 16 21 32 32 18 22 16 22 21 28 13 12 4 11 43 28 18 20 24 23 33 104 120 136 148 144 146 140 97 59 41 44 52 111 85 139 136 140 140 144 144 135 135 102 86 95 104 45 47 24 22 16 17 22 25 29 26 16 29 34 18 25 21 18 31 51 80 107 88 97 104 103 109 112 63 38 38 51 116 146 129 123 127 75 111 58 68 91 73 63 54 82 90 105 95 60 43 18 32 68 79 63 79 118 83 120 129 131 133 133 133 140 140 140 144 149 152 155 153 151 153 159 144 116 102 73 83 109 129 122 126 125 112 55 45 54 55 19 36 42 29 43 55 90 85 118 100 111 125 122 122 114 116 85 37 27 32 39 56 79 79 93 79 58 53 32 31 29 35 43 28 51 35 42 37 21 18 14 16 16 19 16 14 17 19 20 34 52 55 75 27 19 26 71 91 95 86 102 107 88 111 86 120 120 120 122 125 123 122 129 118 127 127 125 122 122 123 123 122 98 71 88 98 71 24 19 13 12 23 48 41 53 114 75 45 107 109 50 56 30 26 28 28 50 42 52 107 109 90 75 71 98 112 93 120 127 133 135 140 144 127 118 118 100 73 68 91 105 125 135 134 135 129 122 122 100 116 122 54 47 57 118 112 116 114 112 112 118 116 120 48 51 67 92 85 67 73 86 100 116 120 116 114 120 120 122 123 123 122 124 123 122 116 122 120 116 114 118 120 118 118 118 123 118 116 114 98 102 88 83 75 85 53 59 29 22 21 18 28 38 77 90 120 107 102 105 98 75 54 50 45 44 75 79 88 79 83 30 55 60 77 73 83 98 107 105 112 118 98 88 63 33 17 26 63 89 77 95 100 109 114 125 120 123 125 122 116 74 26 55
52 138 153 149 155 79 70 63 100 145 135 70 43 42 41 109 58 62 51 63 82 112 59 83 102 102 127 111 125 98 149 148 160 149 148 146 154 129 82 98 75 50 46 64 38 52 39 37 90 55 52 43 56 98 83 88 133 67 63 40 27 25 26 28 21 19 15 8 13 14 5 6 13 32 38 16 19 15 17 9 9 17 22 14 19 19 18 22 18 17 18 25 36 41 30 22 16 29 18 11 10 9 4 11 20 14 22 22 23 22 33 59 138 148 146 149 148 149 91 70 88 46 85 135 109 135 144 140 140 140 140 142 142 104 73 61 77 31 23 29 26 17 16 18 22 24 22 16 20 27 35 27 23 24 33 54 104 120 58 40 82 127 116 106 93 80 32 68 129 148 129 111 123 93 67 37 44 75 56 59 73 112 111 109 93 40 24 19 32 38 74 64 79 68 102 133 136 144 144 138 138 142 142 144 145 151 159 164 148 153 157 159 160 168 153 153 159 152 152 153 144 145 140 107 67 67 118 82 64 63 40 32 98 102 52 64 93 98 95 100 105 102 88 68 43 34 30 35 68 98 72 68 112 112 90 38 32 31 29 23 22 22 20 21 22 24 23 19 19 29 37 42 31 42 36 46 53 52 52 43 26 17 29 67 67 88 105 114 104 79 86 71 116 123 125 125 127 127 125 125 83 100 127 121 122 124 122 120 122 114 102 79 61 82 53 36 21 15 25 32 25 53 95 100 80 115 120 65 55 33 24 32 33 28 39 45 68 107 90 54 65 64 79 98 116 121 125 123 118 122 125 116 81 107 60 45 48 83 120 116 120 123 120 116 114 109 88 98 67 31 51 112 116 120 114 116 120 120 120 127 87 70 109 104 107 118 114 112 114 114 118 116 112 116 116 116 116 116 116 116 118 114 105 111 123 118 111 114 118 114 116 116 114 114 112 120 80 70 46 82 43 45 29 40 39 22 19 19 28 32 68 112 115 114 104 100 102 90 62 45 33 37 96 111 97 94 114 88 111 74 82 123 116 116 107 105 112 109 102 82 47 64 32 26 52 73 75 86 90 93 95 91 86 94 91 87 75 74 40 83
112 140 144 144 148 97 75 116 116 133 153 127 90 54 38 111 39 61 95 53 104 100 97 82 109 114 138 151 140 157 157 143 153 151 155 155 89 116 114 46 40 54 53 56 23 21 25 24 31 32 50 26 19 20 34 75 61 30 53 41 40 29 26 29 24 21 26 53 50 28 4 12 36 33 18 45 21 6 6 4 7 14 14 14 18 19 12 21 20 11 16 29 22 71 222 187 134 21 17 19 9 15 20 12 26 12 11 24 27 24 36 64 140 146 138 138 135 137 127 107 105 64 77 122 127 127 138 142 142 142 138 141 144 122 71 79 75 55 38 43 32 16 19 17 20 25 18 18 22 22 38 25 29 31 35 56 111 133 80 73 125 151 149 149 148 105 35 120 146 149 140 109 67 62 38 32 33 54 52 55 86 73 111 125 144 88 38 23 38 60 55 45 73 63 112 138 149 151 148 148 148 146 140 133 133 136 125 83 106 151 160 158 159 159 148 131 159 151 149 148 144 142 142 138 80 64 122 156 153 125 42 42 107 98 33 46 71 102 114 133 129 136 138 127 90 64 31 38 67 77 73 67 144 116 67 41 35 39 43 27 17 24 19 31 38 40 43 32 19 31 32 41 50 40 55 86 125 122 122 118 102 97 48 102 107 135 144 146 133 88 85 114 148 149 123 120 129 133 129 133 100 93 116 120 125 123 125 123 125 120 118 105 58 79 56 52 43 24 24 41 37 32 64 97 105 120 95 97 60 42 15 21 29 46 77 61 60 88 83 55 54 38 73 107 127 122 123 123 122 122 123 123 104 60 51 35 29 70 125 123 127 122 118 118 116 118 77 53 71 38 41 118 118 90 102 111 116 97 90 85 80 105 105 88 91 112 109 111 105 105 111 116 114 100 105 104 102 104 111 119 116 114 112 116 117 114 116 109 100 97 95 85 75 82 80 77 61 45 38 34 31 24 22 24 32 18 18 18 33 40 42 68 98 105 77 60 95 95 70 33 27 39 112 114 111 118 116 105 104 93 61 109 107 107 106 107 107 109 107 93 96 93 54 38 38 55 59 77 90 91 91 70 98 91 70 105 105 116 122 116
140 122 104 112 151 133 127 142 112 136 129 114 80 79 38 74 45 68 101 51 46 77 118 75 100 109 143 148 101 144 161 157 146 149 144 129 82 60 79 55 39 33 48 79 21 10 17 22 29 24 50 52 58 64 93 83 60 34 51 48 19 14 19 24 21 26 42 71 67 28 12 38 50 17 37 50 9 4 4 3 5 8 10 14 22 18 9 25 22 19 19 26 15 155 253 253 239 16 15 19 27 39 29 20 44 19 7 22 23 37 56 97 155 144 138 138 131 119 116 123 129 138 140 140 142 142 142 138 138 138 136 116 90 101 67 105 102 116 88 38 33 25 19 19 19 29 19 22 21 20 38 22 48 57 28 70 123 125 114 122 149 146 146 146 149 125 50 128 148 133 135 138 67 53 31 33 43 48 41 100 127 77 93 102 131 109 35 28 41 71 53 54 59 47 109 125 148 151 145 148 149 151 148 144 143 142 111 61 98 116 155 159 160 159 135 116 138 138 146 146 142 138 138 111 74 56 105 144 136 148 58 27 91 64 24 31 74 104 127 129 118 120 114 111 85 77 31 45 52 47 73 56 107 114 55 45 51 41 50 33 16 21 21 21 21 21 50 52 27 25 27 21 48 29 56 63 120 133 142 138 123 105 97 123 144 148 144 146 148 125 90 123 140 148 153 149 149 149 148 135 122 133 120 93 122 118 116 107 109 97 75 77 43 31 41 41 30 28 24 29 30 26 31 37 51 73 58 50 60 77 63 67 70 71 90 82 88 107 93 43 27 30 74 120 135 129 123 125 127 131 120 112 102 56 43 35 26 79 127 125 118 109 123 128 109 68 54 33 31 34 50 88 112 68 83 80 80 43 54 80 56 73 63 118 123 120 109 111 112 114 112 118 120 100 105 104 102 96 93 97 98 100 102 105 90 77 77 71 73 73 82 61 61 91 102 85 36 34 47 38 43 23 21 22 26 31 23 17 20 26 34 41 58 44 30 39 47 55 54 29 24 44 104 107 108 118 109 111 105 102 56 105 118 118 114 113 112 107 109 107 105 90 45 25 36 29 46 67 97 97 98 93 102 107 100 105 109 114 112 107
157 125 97 83 155 136 157 151 136 138 140 136 116 71 35 46 43 65 120 90 39 68 159 157 153 155 153 148 149 157 152 153 133 112 123 75 69 58 58 67 25 27 40 50 26 12 14 16 28 44 100 144 155 146 124 61 44 79 91 55 17 14 17 17 18 27 34 48 59 38 22 38 55 32 46 21 8 11 4 5 8 10 27 22 19 16 22 58 56 26 26 36 22 208 249 250 203 17 21 14 30 32 32 35 34 30 15 17 21 31 57 129 146 144 144 144 148 151 149 152 148 144 140 138 138 142 142 142 142 149 153 131 47 112 70 74 95 97 70 38 36 32 17 16 16 22 24 21 28 28 33 34 54 69 33 123 142 149 151 137 133 135 136 127 118 123 111 133 127 129 136 151 98 44 38 26 40 70 65 86 114 90 88 71 59 65 51 53 89 120 59 26 26 85 109 127 148 148 142 144 146 148 144 140 140 144 120 70 68 104 129 151 153 142 123 114 142 133 145 144 142 146 148 112 72 53 86 116 105 104 85 85 101 102 80 91 118 125 133 129 122 108 120 112 112 123 114 123 125 120 122 129 121 113 105 111 82 71 70 35 21 27 29 23 28 26 22 29 25 30 23 18 27 32 53 68 127 147 91 97 63 55 80 120 142 135 138 136 135 129 131 138 133 134 133 135 136 140 135 133 116 102 73 59 88 129 120 111 109 93 95 64 46 29 28 33 70 54 50 45 33 35 50 77 59 112 95 97 111 142 144 144 136 136 133 136 136 111 59 38 27 30 51 79 123 124 122 129 135 131 115 93 59 40 27 21 24 88 112 130 116 53 122 118 75 38 38 82 70 54 48 40 50 65 77 67 33 21 26 45 42 33 52 116 131 120 118 120 127 129 114 109 121 122 118 125 114 112 104 97 100 97 79 54 47 50 59 70 80 83 112 100 79 109 116 120 67 46 42 32 36 30 18 19 24 33 36 23 21 26 33 44 38 38 43 50 45 58 48 39 14 44 77 79 79 88 99 104 116 105 80 112 127 131 129 135 136 133 133 127 74 54 38 24 24 26 54 85 83 86 101 92 105 104 104 102 104 107 109 107
159 148 114 44 112 100 155 153 157 159 153 155 151 86 32 36 48 56 49 37 46 97 149 144 151 148 149 155 153 152 154 157 129 125 149 93 43 63 55 38 26 22 41 37 21 14 14 14 28 50 107 140 145 138 136 131 152 166 160 86 19 9 19 18 22 24 24 28 35 37 22 31 56 73 35 10 13 17 5 7 11 11 21 20 23 21 38 38 36 59 38 47 32 229 247 249 144 13 29 15 24 9 17 53 82 30 18 16 32 30 54 133 127 144 138 140 146 146 146 144 142 144 131 135 146 144 142 142 148 112 88 123 56 67 44 56 79 70 61 48 43 27 28 21 21 15 20 21 31 33 41 45 75 133 135 142 144 146 148 148 144 144 142 141 135 140 151 148 144 131 129 108 85 43 35 18 32 91 67 73 96 127 133 111 98 85 75 55 74 75 67 29 37 111 112 138 136 135 133 140 141 140 136 133 136 137 116 67 39 93 123 116 105 124 123 105 118 114 115 118 122 122 123 127 102 41 102 136 133 135 131 131 133 114 102 105 122 127 128 127 125 118 133 129 120 131 131 125 131 131 133 131 127 135 135 122 104 69 59 44 36 32 34 17 27 56 34 41 31 30 23 19 28 22 32 114 125 107 116 33 73 63 56 83 122 142 135 133 127 133 131 127 123 123 125 125 121 125 114 91 97 70 45 36 75 122 133 120 70 61 95 80 96 136 105 63 39 68 61 84 23 34 30 74 75 82 45 88 86 122 129 132 126 106 77 58 54 59 56 74 37 39 40 50 90 101 111 122 123 104 86 74 74 86 81 65 64 93 90 97 80 40 60 74 74 63 67 86 112 71 44 37 53 52 51 51 40 35 30 42 35 64 40 83 123 120 123 125 135 144 133 125 123 131 138 131 123 122 127 122 125 120 107 104 98 102 105 116 120 122 125 111 95 118 120 123 107 75 50 52 38 30 21 21 19 24 28 24 22 24 35 31 30 47 52 50 48 46 37 52 28 58 75 83 70 65 86 86 83 65 44 74 105 104 104 112 118 107 107 107 80 47 63 44 14 22 101 108 93 91 91 93 112 95 102 123 114 107 106 112
162 149 47 39 48 74 140 148 148 151 135 133 146 123 70 64 107 68 24 31 55 118 148 133 138 149 136 123 133 146 136 146 149 153 129 75 34 61 82 37 29 18 32 39 21 16 18 28 36 80 98 82 140 159 154 151 151 150 160 63 27 20 30 19 21 16 17 19 22 23 15 22 74 52 33 19 14 6 10 12 17 12 10 16 32 37 40 22 21 54 45 31 24 243 245 250 86 18 14 17 16 7 15 29 26 13 22 21 31 38 41 122 140 142 142 144 148 147 144 146 146 153 93 104 148 144 144 142 146 83 39 45 56 44 24 63 109 98 90 88 60 32 26 23 19 26 28 37 52 56 46 45 63 111 138 144 140 148 131 122 140 144 135 123 129 125 112 114 109 98 105 102 98 88 70 67 90 105 112 95 83 100 131 124 114 86 111 116 138 136 109 122 93 122 135 140 137 135 133 133 133 135 135 135 131 131 140 86 39 86 85 82 73 104 122 109 112 93 109 105 127 125 120 121 123 44 102 122 123 118 107 111 125 89 120 98 105 133 116 114 119 122 119 102 95 102 107 118 112 118 123 109 86 98 104 71 68 60 26 28 38 30 22 18 32 68 54 60 55 26 42 29 21 21 46 85 122 68 100 34 82 92 43 32 60 77 86 138 153 157 153 153 158 155 148 148 153 145 146 93 107 54 36 40 58 61 85 71 16 26 71 83 67 93 120 138 59 86 65 59 38 41 32 55 111 68 26 53 65 79 140 140 122 107 104 92 68 93 82 56 53 40 46 44 63 90 109 98 107 128 138 135 131 123 83 91 95 123 122 95 61 46 63 120 91 73 61 91 120 103 41 64 111 90 68 53 46 32 33 55 31 32 32 47 67 105 101 111 122 125 127 129 129 129 123 118 118 127 122 107 112 114 112 127 122 120 111 116 123 131 121 114 112 118 130 83 93 86 68 53 34 26 26 22 35 43 39 34 35 38 54 74 44 54 53 59 61 45 53 82 116 107 100 97 93 90 93 95 91 73 29 59 86 77 75 80 74 64 63 64 63 56 63 58 32 52 83 89 85 86 90 79 73 86 100 104 105 104 104 113
83 144 31 44 59 59 111 155 155 151 155 157 165 146 118 111 104 61 28 26 40 105 159 148 131 149 151 148 143 149 149 158 150 82 80 101 65 43 61 70 33 20 29 40 18 17 19 26 32 47 58 43 107 153 151 149 151 151 56 17 33 42 71 27 12 17 31 28 23 24 16 46 122 108 108 43 33 9 19 31 27 9 5 18 24 29 21 16 21 28 24 7 40 247 245 247 43 19 9 15 9 6 35 20 8 13 14 22 26 35 54 91 100 133 135 138 142 142 144 144 148 148 65 122 144 143 149 146 136 148 95 50 44 43 39 36 93 120 118 85 54 30 25 29 30 36 26 44 86 93 80 79 96 102 118 136 135 138 136 123 127 140 135 135 131 131 131 130 116 127 136 135 138 144 146 148 138 138 140 122 88 86 120 153 118 111 107 89 123 120 105 131 74 75 130 141 133 142 142 138 138 135 132 135 133 133 123 88 39 73 86 71 68 97 70 44 65 107 120 98 105 123 133 127 129 43 104 123 129 120 107 97 101 97 105 87 102 138 100 100 127 131 127 125 120 93 80 94 91 70 59 45 43 36 38 45 31 41 40 31 21 28 17 26 45 53 37 46 45 19 32 39 24 31 77 86 79 82 101 40 52 79 28 32 83 82 65 125 105 134 135 148 155 149 135 142 146 148 136 102 70 70 25 38 50 80 53 71 77 127 120 79 36 48 100 105 80 48 56 38 55 38 31 42 44 34 32 32 46 44 75 71 64 74 65 53 58 54 76 56 36 22 38 50 48 75 100 123 118 135 159 144 151 142 116 144 138 142 144 83 38 55 75 105 41 63 54 53 102 142 91 55 82 56 65 44 35 32 32 44 38 16 18 33 55 68 68 80 116 148 131 136 157 153 144 144 134 131 139 122 129 127 121 127 88 73 104 122 128 124 123 132 127 93 86 73 58 100 48 33 29 18 31 38 55 58 39 33 31 29 44 63 34 30 29 54 47 50 62 97 118 112 97 104 104 100 104 97 93 100 63 93 127 112 114 114 116 120 116 118 123 112 88 58 50 67 86 90 83 92 102 61 34 92 122 111 114 111 111 114
98 140 40 32 39 62 104 144 159 155 155 142 144 111 111 125 95 60 36 27 38 70 104 136 157 149 153 159 160 154 155 153 155 107 65 82 65 36 47 77 40 17 21 27 22 22 34 26 45 37 21 43 62 93 122 148 136 86 22 39 82 114 91 39 8 22 18 18 21 24 25 60 148 144 148 129 31 18 36 24 17 14 13 22 26 25 17 11 21 24 17 9 102 249 246 241 27 17 10 19 10 17 36 14 10 17 12 24 21 27 70 45 83 122 127 140 142 145 144 142 153 88 36 138 140 136 119 109 83 77 65 60 24 22 40 24 55 98 86 83 63 36 51 35 52 97 60 93 86 64 70 97 105 114 118 97 82 135 148 105 61 133 151 149 146 149 151 144 140 145 142 142 144 144 142 138 136 136 138 120 80 50 105 125 104 90 95 61 122 138 88 109 83 47 114 131 120 133 131 118 114 112 118 120 120 118 117 111 123 131 123 50 70 90 95 93 59 93 97 98 103 93 98 110 105 64 124 129 112 122 123 79 93 43 50 73 105 133 91 85 131 142 138 135 135 129 125 118 111 125 125 121 116 73 42 107 120 129 148 116 80 96 53 56 59 63 31 32 38 28 20 32 52 55 83 65 37 23 29 32 38 42 20 24 45 41 73 154 137 147 146 142 133 123 112 104 98 83 85 98 72 116 51 39 37 68 42 65 85 123 91 48 38 30 61 83 94 52 32 29 52 36 29 35 34 22 31 46 45 29 38 71 79 82 102 109 129 127 138 142 138 127 133 136 123 120 127 146 135 144 142 146 148 151 153 153 146 148 149 80 34 47 97 144 47 47 60 31 40 144 123 97 90 71 73 73 46 34 32 43 35 21 26 25 47 95 111 103 91 146 151 123 135 144 149 153 149 142 140 133 117 111 90 91 102 109 105 123 133 129 131 133 136 85 52 61 48 42 53 35 38 31 38 36 33 51 35 25 33 36 30 37 30 25 27 40 39 64 85 86 120 115 111 107 112 116 118 123 116 123 122 127 119 109 102 107 111 116 118 121 120 118 95 97 68 32 112 104 97 91 104 97 29 114 126 127 122 102 112 114
114 131 112 100 93 104 127 146 150 157 151 114 92 59 70 83 117 42 21 22 31 47 48 148 159 153 155 162 157 153 157 144 133 153 65 70 47 34 59 64 29 23 30 26 30 51 58 51 62 38 26 35 51 45 111 157 152 104 16 89 122 159 142 37 13 20 9 15 20 22 22 38 79 142 149 138 33 36 23 23 20 17 9 24 21 25 19 11 17 22 22 18 173 248 247 224 20 24 21 12 14 21 21 9 13 25 19 26 18 24 52 42 93 122 136 136 151 151 149 149 144 45 70 153 145 148 149 127 104 109 98 77 62 21 30 28 83 105 93 104 93 54 55 48 38 114 146 142 148 131 124 94 128 116 86 72 104 107 138 68 56 116 148 131 95 131 140 125 146 142 140 142 140 142 142 142 137 138 138 136 77 65 124 135 116 102 82 68 144 155 114 74 78 73 83 112 135 131 133 133 129 131 133 136 135 135 133 133 129 122 107 85 95 70 102 89 59 68 88 111 114 88 123 112 123 123 122 114 90 108 109 75 83 34 37 50 55 100 82 82 107 123 122 127 125 125 125 125 123 112 95 86 86 90 96 98 98 113 112 53 44 78 100 120 98 50 32 30 38 46 40 38 50 82 79 58 60 26 19 22 24 36 18 18 35 29 64 157 153 151 149 148 128 140 160 157 151 146 133 131 139 129 107 63 50 67 45 61 67 112 104 62 41 28 40 48 55 51 32 25 39 32 29 33 34 30 21 35 77 46 42 79 129 125 125 142 133 136 140 131 142 144 148 120 104 142 148 135 133 133 131 131 129 127 127 129 122 123 85 43 41 30 47 98 36 19 38 50 22 85 91 102 59 63 52 51 40 31 26 19 18 19 38 29 90 104 88 105 109 112 129 116 120 131 135 127 128 127 123 136 82 42 58 73 58 90 97 107 129 127 123 123 120 111 102 36 39 38 42 40 53 36 38 38 24 26 36 33 40 26 21 24 28 30 31 26 37 33 50 91 120 118 112 122 127 127 125 127 118 111 116 118 114 111 109 112 111 107 107 109 105 105 90 88 83 37 82 98 97 45 100 118 68 112 114 118 112 101 111 118
151 157 157 159 162 159 157 149 153 159 114 64 62 56 45 75 105 44 23 44 54 71 67 122 102 140 140 116 127 149 151 112 90 95 59 74 71 64 83 105 81 65 47 41 102 109 68 67 110 58 45 80 85 91 113 136 159 105 71 149 85 122 102 42 21 17 10 10 9 12 18 27 60 122 118 136 39 16 25 39 10 12 13 21 23 25 19 13 14 26 44 32 224 246 249 188 13 17 15 8 9 11 15 12 18 29 21 32 24 34 29 40 104 149 146 146 149 149 149 153 135 38 142 153 146 146 145 144 135 123 116 111 85 53 24 34 144 142 137 125 75 54 52 97 90 136 144 134 132 138 123 77 91 76 40 53 80 125 140 125 42 85 138 129 86 79 114 109 146 144 142 140 138 138 138 137 135 136 140 144 60 70 131 129 133 95 80 97 151 148 138 88 77 98 70 109 149 142 146 144 140 144 144 144 145 146 144 146 144 140 127 138 92 98 118 100 59 53 102 74 90 74 120 102 125 125 123 120 120 98 102 100 83 42 44 52 42 102 91 82 107 127 122 122 120 116 118 120 109 111 111 116 112 111 100 100 100 93 45 51 48 60 77 79 65 65 65 63 60 63 50 42 60 60 47 46 53 31 22 22 21 18 23 24 42 29 91 148 148 148 149 146 140 144 151 146 149 146 144 149 146 150 135 91 64 39 41 77 93 130 123 77 32 21 38 40 34 36 22 19 25 28 29 38 26 38 20 38 88 53 50 108 129 133 107 112 123 118 125 122 122 127 118 116 80 71 116 135 125 123 123 123 122 120 118 122 115 105 63 61 71 38 38 75 55 50 38 29 39 38 63 71 30 39 45 41 56 59 42 50 37 43 36 38 77 74 77 100 120 118 118 105 136 140 133 122 122 127 128 122 60 43 32 64 33 46 100 127 129 126 125 122 123 125 88 85 48 42 44 36 24 26 38 29 22 17 28 18 21 18 18 21 37 54 50 46 39 28 54 90 123 131 125 135 140 133 127 129 122 119 123 125 120 118 123 120 120 120 116 114 114 120 112 109 118 114 116 123 112 67 118 131 125 116 120 120 125 123 120 124
151 154 155 157 153 153 153 153 153 148 105 58 52 52 44 61 73 79 38 71 91 91 90 60 77 142 138 136 130 96 77 52 86 85 79 104 131 122 120 125 122 91 105 95 84 135 129 93 131 73 55 135 146 111 107 136 88 53 144 116 38 57 39 31 16 13 9 7 5 13 22 24 30 75 104 46 39 21 21 31 11 23 27 16 20 22 13 20 13 12 26 65 236 246 249 123 9 11 13 12 5 8 12 18 27 63 23 38 29 40 29 87 140 146 151 150 148 146 148 156 107 53 160 149 149 148 143 127 125 136 131 135 120 85 19 75 146 151 148 135 118 45 37 71 71 123 135 146 135 135 148 95 93 84 51 52 41 73 135 107 29 39 51 105 38 45 88 77 116 135 131 129 131 129 129 125 116 114 114 127 93 70 135 129 127 122 44 85 109 111 118 95 120 125 76 129 144 138 146 140 142 139 142 142 143 142 142 144 143 136 144 144 135 131 136 123 63 48 111 60 76 83 93 125 148 144 146 142 144 131 114 77 74 31 46 59 52 118 105 116 111 109 140 133 133 136 135 137 123 125 131 135 138 129 133 126 133 91 54 48 46 80 114 114 116 131 140 131 132 129 125 116 101 65 67 98 47 32 27 29 32 24 15 14 18 19 73 135 143 140 144 142 138 140 138 136 135 135 136 131 125 135 122 104 60 32 21 56 102 111 96 107 61 18 46 36 32 36 23 22 22 24 39 32 32 24 25 38 70 39 75 111 127 138 128 85 100 70 91 100 127 127 104 88 73 46 105 131 125 123 120 127 124 122 115 118 105 53 73 112 109 86 59 41 39 32 32 35 60 38 36 56 38 56 73 37 68 97 105 104 51 133 97 118 131 140 144 139 146 153 160 155 142 136 149 151 133 127 144 149 63 43 29 30 25 46 105 142 138 127 135 138 140 131 75 61 35 28 29 29 35 52 63 75 73 43 40 40 36 39 29 30 45 37 29 41 45 44 60 83 97 107 114 133 135 127 122 129 140 142 133 133 136 135 129 125 123 123 125 125 121 123 123 123 122 123 123 123 125 125 125 123 118 118 122 123 125 123 112 111
148 157 149 153 155 153 153 153 152 149 153 107 83 138 83 86 62 102 59 41 105 104 93 70 70 123 146 146 142 120 104 127 138 138 140 138 134 135 146 146 138 133 114 111 118 120 102 100 142 112 79 144 155 154 153 151 90 26 122 51 39 55 29 22 7 19 32 10 7 17 27 18 29 51 38 19 17 26 24 30 17 19 25 21 17 19 22 21 16 9 20 71 245 245 249 65 6 11 8 9 2 9 18 30 32 60 32 35 32 21 35 91 153 142 144 146 148 146 146 148 88 70 113 107 103 105 86 88 99 102 100 121 120 127 36 83 122 125 127 120 138 73 22 43 47 98 142 150 111 95 142 140 111 83 45 67 53 74 135 90 52 45 37 71 34 26 100 59 106 140 138 142 138 139 143 136 118 129 127 122 98 88 137 140 134 144 80 116 133 132 121 116 125 136 132 133 135 131 133 136 138 136 136 135 135 136 140 138 138 136 140 127 54 75 93 91 41 41 95 120 80 59 59 109 70 127 144 142 149 136 131 95 35 33 41 41 59 71 102 114 111 114 148 146 144 146 151 151 151 151 136 114 107 88 104 129 138 138 85 51 58 80 118 123 116 123 120 114 114 116 114 106 90 84 77 53 51 31 26 34 19 35 21 17 22 25 64 55 88 123 105 104 114 104 97 114 114 117 111 105 105 121 109 86 85 88 38 38 87 91 64 45 59 70 54 58 48 21 23 22 22 23 41 26 37 24 25 38 60 38 76 112 118 127 109 48 56 59 60 74 122 148 104 93 111 77 77 135 124 122 125 135 133 131 132 125 129 123 109 80 105 113 104 95 94 43 91 75 91 64 28 41 67 65 95 48 70 79 68 52 41 83 86 154 148 147 142 135 124 122 133 142 129 118 110 111 95 74 70 54 43 37 21 16 22 22 44 55 58 61 61 52 58 40 26 26 25 24 30 41 48 59 64 73 111 112 97 88 93 95 86 77 63 64 46 42 40 45 63 90 83 93 103 120 118 127 120 112 129 127 124 122 125 116 119 123 129 128 122 129 125 125 127 138 121 125 131 133 131 127 133 129 131 131 133 132 131 123 129 131
151 157 157 155 155 155 155 155 153 151 155 151 153 144 123 98 64 63 45 46 80 73 98 105 76 135 140 140 142 150 148 136 142 142 149 146 149 148 142 146 144 146 144 144 136 127 129 129 141 144 116 146 149 151 153 155 135 55 45 40 38 51 44 85 20 48 73 53 28 36 38 14 42 70 28 17 23 24 17 34 42 18 26 21 17 26 21 24 18 7 18 112 249 245 246 38 9 14 9 18 9 18 38 35 29 32 36 39 32 26 26 41 97 142 142 146 148 146 149 159 79 67 131 146 140 142 133 133 109 127 127 125 120 122 135 127 129 136 138 142 143 54 38 22 30 60 133 136 135 95 129 122 111 100 50 54 47 40 77 120 102 111 60 75 32 24 47 88 146 144 140 140 122 112 112 125 127 118 125 119 56 90 105 114 114 122 102 107 120 122 116 102 75 100 123 140 142 149 149 146 140 140 142 136 135 140 136 133 134 135 123 118 71 55 58 98 74 79 111 117 56 88 120 97 73 107 131 131 88 61 74 99 60 50 41 44 45 47 77 125 127 149 142 138 136 151 136 85 75 90 86 34 43 61 74 71 144 142 109 61 73 85 116 125 120 126 122 120 122 129 131 122 102 116 134 86 86 32 26 42 26 35 29 30 43 29 39 43 97 120 118 108 111 107 111 114 112 118 112 118 127 123 120 105 116 120 116 105 109 73 112 41 40 100 93 55 42 31 29 27 24 24 26 32 36 26 21 32 44 50 77 95 116 120 118 86 63 39 34 39 85 139 131 100 110 58 83 140 128 129 131 133 136 140 141 142 136 140 98 54 48 91 53 64 136 83 135 113 122 114 50 63 88 42 55 67 120 118 50 42 30 44 87 138 131 132 129 122 131 125 123 127 118 111 120 125 122 114 116 98 109 112 73 20 22 91 102 83 86 97 95 83 93 105 106 105 97 77 90 98 101 109 108 102 121 109 116 128 123 122 123 122 129 112 127 120 79 74 97 91 125 112 111 114 122 125 125 122 123 122 118 120 116 116 114 118 123 116 120 122 120 123 129 133 122 124 127 127 123 122 122 129 136 135 136 133 136 136 133 127
155 157 157 155 157 159 162 160 155 160 160 153 149 151 144 129 56 44 32 45 83 100 95 73 90 153 147 146 146 149 150 146 138 133 142 148 153 151 149 153 147 146 153 151 156 157 151 148 148 149 153 149 148 149 144 144 148 113 59 33 19 46 36 61 45 113 127 84 39 24 55 22 41 58 32 23 38 43 22 32 29 22 32 28 16 24 18 26 11 9 16 159 248 245 243 53 19 13 21 30 63 54 44 44 32 37 25 24 21 39 36 77 116 103 107 131 140 149 123 116 45 79 122 149 142 144 142 146 146 146 146 144 138 142 148 142 142 145 148 149 125 61 47 29 60 46 97 148 144 105 125 85 109 123 31 44 54 34 38 102 125 118 104 125 58 19 37 133 136 138 128 127 116 105 105 111 123 127 129 143 52 79 136 135 133 136 142 140 140 132 142 140 133 129 127 127 118 129 133 105 138 136 130 129 127 131 135 129 129 138 135 146 135 120 100 118 93 93 88 90 59 75 68 91 108 63 105 122 102 110 116 131 142 140 105 105 97 122 122 144 160 155 151 149 160 167 88 36 50 66 79 41 22 38 71 91 147 145 136 114 105 138 144 140 143 138 133 137 140 123 119 123 102 102 102 92 55 42 35 46 54 47 31 35 40 44 45 91 123 116 116 131 138 136 137 135 136 138 140 137 140 138 140 136 131 133 131 129 120 114 133 95 98 98 97 88 42 29 52 30 17 20 30 36 32 17 19 26 38 63 65 77 114 118 104 109 44 36 26 29 39 77 149 139 135 64 73 142 131 131 127 129 135 138 136 133 125 136 144 120 54 78 61 32 68 104 112 120 55 71 58 68 46 39 48 71 79 105 93 31 48 77 112 125 122 125 122 114 118 120 120 109 114 107 104 100 102 97 95 135 180 142 73 108 102 213 206 232 171 125 136 136 138 138 138 136 135 131 136 133 129 133 133 131 123 127 133 133 131 130 131 129 125 125 123 121 129 133 131 127 122 120 124 122 122 122 116 118 117 116 116 123 116 122 111 107 116 118 120 122 122 122 131 125 127 129 127 119 112 112 112 118 120 118 123 114 118 123 127 123
151 153 155 155 142 136 127 109 97 109 91 82 105 107 114 118 82 34 46 64 96 88 43 75 129 148 131 146 155 157 159 155 157 159 157 155 155 155 153 153 144 148 153 153 151 153 151 148 144 144 148 146 148 146 144 148 93 64 65 56 27 40 73 93 72 122 151 22 12 8 33 31 32 36 29 36 59 75 54 32 24 13 23 26 16 12 18 21 10 10 13 173 248 246 234 33 11 35 40 41 43 40 24 38 32 97 100 27 47 39 35 111 133 120 65 100 112 80 51 42 42 60 144 146 142 144 144 144 148 146 148 146 148 151 145 142 144 144 142 144 157 85 35 29 65 54 59 142 116 82 127 80 91 97 41 46 69 50 32 116 104 111 63 102 103 19 48 140 133 135 131 133 138 67 50 67 91 88 122 144 53 98 140 136 138 144 144 143 136 140 135 136 136 133 125 127 127 131 131 59 140 139 135 144 146 142 148 152 155 149 139 144 144 107 107 122 88 54 77 71 26 35 54 70 105 56 88 133 136 144 146 142 144 142 138 140 133 148 160 142 133 160 149 153 157 155 142 44 75 53 44 39 18 29 53 91 138 107 86 48 115 140 118 88 104 135 129 135 131 104 65 54 77 65 38 37 39 44 75 60 31 46 18 21 31 47 60 75 114 135 129 125 140 138 131 135 146 143 146 142 142 140 148 151 148 146 146 146 151 146 135 123 136 120 108 74 37 33 27 18 22 35 31 37 43 22 20 21 42 83 93 74 104 105 102 79 29 38 23 23 26 68 124 90 54 71 68 126 127 116 118 135 142 131 129 127 146 146 144 141 127 41 33 80 60 70 65 104 55 41 83 98 94 48 21 77 90 74 86 30 32 100 151 140 140 140 138 137 135 135 138 127 133 133 116 112 107 107 109 140 140 140 114 154 178 153 124 175 166 125 131 133 135 136 136 135 136 135 131 131 133 133 133 133 136 141 140 138 142 140 138 133 135 127 135 133 122 129 122 120 122 122 120 119 120 120 114 116 114 112 123 120 118 120 122 120 122 122 121 122 118 118 120 116 123 123 123 122 112 109 116 116 114 112 118 112 117 120 112 120
153 155 155 155 155 140 133 128 117 102 91 93 90 96 97 88 97 82 90 125 109 77 86 120 135 133 109 131 133 144 149 148 151 149 151 151 149 148 146 146 146 151 153 151 149 153 153 149 149 151 149 155 151 149 149 153 146 90 93 47 31 27 58 140 111 111 88 7 11 14 20 31 33 26 51 38 58 116 97 39 38 18 14 14 15 22 19 18 8 10 12 216 247 248 191 21 22 37 88 111 54 50 39 56 41 109 141 102 46 24 30 40 107 132 75 58 31 82 55 31 85 127 140 144 142 142 142 145 146 148 148 149 148 137 144 146 144 142 141 144 144 112 83 35 29 34 59 95 133 97 90 83 109 105 39 29 52 61 29 86 80 51 51 66 97 24 73 129 124 131 140 142 148 82 38 60 61 73 90 109 74 127 138 136 144 144 146 148 144 146 146 148 148 146 144 149 116 136 135 131 146 125 131 140 146 144 125 107 144 151 148 146 114 125 98 111 71 51 39 45 21 32 62 60 51 59 75 123 97 136 146 140 138 146 152 151 148 149 148 124 91 151 93 70 128 136 137 86 54 55 28 20 23 24 58 58 123 136 112 30 83 142 102 60 102 129 146 142 105 55 44 33 42 39 29 28 32 50 54 51 45 54 39 47 55 65 55 38 45 98 102 131 135 138 131 125 135 133 136 125 141 132 131 143 144 144 133 135 131 107 104 95 85 77 70 73 77 44 26 32 21 33 31 30 47 30 27 24 38 55 83 71 139 116 83 69 44 31 33 38 39 68 82 97 129 133 114 114 127 122 127 144 142 129 111 114 133 118 129 123 144 82 79 85 46 75 44 52 91 45 98 88 91 55 19 58 86 79 104 51 26 89 120 155 144 148 152 146 148 142 146 148 149 146 144 144 148 151 144 146 145 142 138 134 131 133 136 136 135 131 140 135 131 133 135 133 133 133 130 133 133 131 131 131 135 136 134 140 131 131 135 136 151 136 136 138 135 133 127 127 122 115 122 122 123 127 122 114 123 125 127 109 102 120 112 111 104 104 112 122 116 114 114 116 102 107 114 110 112 111 116 120 111 114 108 112 114 111 109 107
155 157 162 164 160 148 148 151 155 151 149 142 145 151 151 154 159 157 155 138 149 144 133 135 133 114 56 91 140 138 149 151 151 149 140 140 148 148 144 142 148 151 153 149 149 153 153 155 156 153 155 155 153 153 155 160 107 26 18 22 19 20 64 142 138 95 46 31 14 16 18 20 29 64 116 77 34 44 79 40 32 26 9 14 21 25 24 29 21 20 22 240 248 250 114 29 25 54 140 114 59 45 51 58 37 123 162 88 46 23 22 54 109 133 116 73 46 73 107 77 144 140 151 155 153 148 146 146 147 148 148 148 127 122 127 136 146 144 148 146 142 111 74 45 36 29 55 131 140 93 75 52 95 136 75 64 36 42 70 88 63 42 74 79 102 95 104 125 123 138 140 140 155 135 52 58 123 142 151 144 142 146 140 138 144 144 146 148 146 144 148 146 144 144 146 122 65 124 140 86 118 114 125 138 142 142 148 109 106 140 144 144 122 93 146 129 60 48 51 71 24 19 41 68 60 73 73 127 90 111 140 149 144 149 146 138 137 142 135 105 83 82 100 51 100 123 127 102 74 82 38 25 38 18 35 82 98 70 116 59 61 98 95 73 71 79 98 65 40 40 45 43 39 60 54 32 38 44 52 82 97 79 114 127 79 68 71 64 40 98 109 105 117 131 120 125 118 107 123 123 111 107 111 98 91 105 100 64 93 87 91 102 104 100 98 98 138 135 54 54 38 43 63 38 56 38 26 26 29 35 45 65 82 136 131 85 65 35 26 26 45 51 70 119 133 85 93 120 120 140 136 148 146 149 129 131 135 133 140 114 85 109 112 86 102 111 46 51 43 43 109 79 48 21 32 83 95 85 75 41 60 120 102 143 127 135 136 131 138 133 125 136 122 131 135 136 138 129 133 135 125 127 133 127 128 135 131 127 122 119 123 126 132 133 133 129 131 133 125 129 132 131 129 126 127 125 122 133 123 114 118 120 123 123 123 125 123 123 135 125 114 120 131 129 131 129 127 120 125 129 127 114 120 127 123 120 120 122 116 120 117 116 118 122 108 111 120 114 116 112 112 120 114 109 118 112 112 111 111 120
160 160 140 118 127 114 107 120 131 150 160 153 149 155 150 148 150 149 135 136 122 118 136 140 153 129 37 93 153 122 135 157 153 153 149 152 140 146 151 149 149 155 154 153 151 155 157 155 157 157 157 153 153 151 161 100 40 17 23 22 14 42 130 149 151 122 37 32 29 45 24 22 25 61 135 86 27 22 27 31 26 29 22 20 24 30 23 24 31 19 54 248 248 251 56 22 12 74 165 120 80 45 35 61 60 148 82 46 38 38 55 114 83 120 112 54 35 26 93 114 153 148 135 118 123 127 131 136 149 144 144 144 151 151 144 148 148 148 151 148 142 60 42 64 47 23 64 151 146 88 86 74 91 138 85 56 50 51 85 144 122 98 109 55 123 146 138 141 123 119 90 85 103 104 77 111 140 138 144 140 140 144 145 142 142 142 146 149 146 148 149 142 142 140 135 135 71 93 133 60 74 80 140 149 151 151 140 122 71 100 142 148 97 52 107 123 60 30 47 105 26 19 38 39 47 59 75 131 82 131 140 144 135 135 136 146 140 140 142 137 138 79 75 64 125 100 100 127 82 74 16 29 51 52 70 52 66 54 47 47 45 77 70 47 42 47 38 59 74 75 85 70 85 95 109 120 116 105 125 138 73 41 48 129 178 138 131 149 125 71 108 122 157 159 164 142 131 116 144 140 136 142 131 140 144 140 146 130 140 153 149 146 148 136 86 109 131 136 68 21 104 75 82 53 44 38 32 23 23 46 60 64 79 120 201 112 47 21 29 24 46 39 111 153 105 55 65 119 105 122 125 145 149 135 120 142 142 149 151 105 33 54 44 54 85 127 79 90 77 102 135 90 38 17 55 82 61 65 112 42 66 107 129 112 113 121 120 116 114 112 107 104 108 109 109 104 106 114 109 109 100 114 122 112 118 125 119 97 97 118 118 131 131 135 129 122 127 138 133 133 129 118 112 114 122 125 118 127 123 111 127 120 114 109 116 122 116 120 134 122 122 123 123 125 127 131 125 123 124 123 125 123 118 121 125 127 123 118 123 123 123 123 118 123 120 118 120 122 120 111 122 127 79 44 119 91 102 133 133 138
148 133 123 144 157 154 156 153 129 122 155 155 159 157 142 135 149 131 125 125 125 140 125 112 151 151 64 100 153 149 123 155 153 153 149 151 138 142 148 149 151 142 144 140 129 135 150 142 153 151 148 151 154 159 107 36 45 44 64 24 24 118 160 149 93 80 37 17 27 31 29 35 28 47 63 30 18 50 30 20 19 23 21 18 14 40 25 14 24 14 77 251 248 246 31 15 20 39 98 123 59 58 28 45 120 155 66 33 38 38 55 135 146 133 33 28 26 32 104 155 149 136 122 123 127 131 135 140 148 144 146 144 148 146 140 131 123 136 144 136 112 38 24 55 38 24 55 40 85 70 70 122 77 120 97 67 80 104 107 105 123 39 39 50 138 146 142 142 140 142 131 129 129 127 140 142 135 135 135 136 136 138 142 149 144 140 142 146 140 136 142 136 140 138 133 146 95 86 131 77 37 54 142 107 112 102 86 82 80 123 112 133 116 56 59 112 79 29 35 60 44 31 30 30 41 67 109 112 138 138 135 134 146 137 138 149 146 142 140 147 149 123 55 48 120 131 118 63 45 37 41 29 61 84 33 48 93 65 42 91 90 71 48 51 32 82 97 122 135 123 129 131 133 125 109 142 129 116 120 111 105 97 111 82 136 154 160 159 162 158 144 153 148 146 160 157 155 148 149 153 153 151 148 148 157 153 151 152 149 136 148 160 149 136 70 70 133 146 143 55 85 98 59 80 38 24 21 32 41 41 41 52 155 149 146 107 63 24 38 29 22 31 91 97 56 83 85 105 102 120 116 131 136 105 127 142 133 135 135 113 55 44 43 55 65 98 71 63 125 116 98 48 45 25 48 98 18 38 73 67 65 48 99 151 133 146 146 138 131 133 133 129 131 125 125 123 120 120 122 122 109 111 120 116 112 114 125 120 114 116 104 114 125 125 118 112 116 116 116 115 111 105 111 118 118 114 108 112 122 104 114 131 129 125 120 123 123 121 131 128 123 122 119 120 118 123 116 116 127 126 122 120 116 126 129 127 127 116 122 127 123 114 118 116 118 123 122 122 111 109 122 120 122 93 104 91 47 98 105 136
138 146 157 158 149 151 151 152 159 130 90 127 140 140 140 138 155 142 141 144 153 149 146 122 112 140 111 116 152 157 148 148 149 153 149 153 136 146 146 146 148 144 146 144 142 136 120 114 122 129 125 122 120 97 34 58 71 120 59 23 76 159 144 83 70 100 80 57 90 38 27 29 26 19 18 10 46 64 85 100 22 16 17 52 38 29 26 9 15 17 135 251 249 235 22 16 19 18 48 91 47 61 68 79 164 86 26 37 44 95 135 150 112 61 24 136 42 42 98 149 142 137 142 149 146 144 136 140 148 144 133 138 131 135 138 146 133 140 149 149 122 49 38 50 37 22 22 63 82 43 60 82 97 120 161 77 63 109 112 64 82 32 38 98 152 136 140 146 144 136 146 136 135 145 136 140 144 144 135 133 137 137 136 146 135 133 135 133 127 133 138 142 142 148 123 122 74 43 120 96 26 75 140 139 125 95 146 70 60 59 93 104 125 77 63 104 127 40 24 53 65 45 24 35 48 114 136 133 138 144 146 146 142 139 149 148 148 146 142 146 159 151 111 121 127 127 130 114 82 27 61 28 73 43 26 52 75 70 33 102 58 58 66 56 67 108 122 127 131 133 129 131 111 123 123 120 129 133 136 131 132 85 91 90 83 140 159 129 157 153 148 148 148 148 148 145 146 142 144 148 148 151 153 149 149 149 148 146 151 142 155 153 111 135 142 104 100 142 166 120 90 122 91 39 27 21 41 40 51 30 44 64 138 138 123 144 109 46 28 28 24 31 44 60 70 80 68 64 65 98 105 116 140 109 133 146 136 128 135 131 102 29 21 40 55 37 23 37 95 91 86 35 67 29 38 90 31 25 38 56 68 59 116 127 122 131 135 140 144 148 148 148 146 148 149 149 149 146 144 144 144 140 137 142 144 135 131 144 135 133 129 127 133 131 125 120 125 120 105 107 116 114 124 120 120 118 114 113 114 116 105 117 112 118 125 122 120 120 125 122 121 114 116 120 118 116 112 98 116 107 105 114 114 107 104 118 114 118 116 131 135 131 131 120 127 131 123 123 122 122 122 122 125 127 114 133 63 26 52 114
148 122 129 142 109 125 148 155 137 102 116 83 135 123 93 136 123 85 122 144 139 136 140 142 140 129 142 140 151 153 138 144 142 143 125 142 138 141 142 142 138 142 144 141 138 133 125 105 73 111 131 107 118 67 43 80 50 46 13 23 129 144 148 157 91 91 155 131 88 79 74 68 32 16 26 20 33 52 75 133 63 16 17 28 50 19 24 19 19 20 196 251 250 216 16 23 24 38 73 80 33 56 107 140 148 95 31 35 34 109 99 82 73 38 61 155 41 50 104 148 142 136 138 140 136 140 146 145 144 140 142 142 140 138 144 148 144 146 157 125 129 68 34 29 29 32 30 51 47 105 75 55 73 77 102 104 111 98 105 123 65 34 32 74 80 138 131 136 144 140 127 131 133 136 133 136 138 140 136 136 142 140 134 144 144 138 136 130 122 120 105 109 110 100 95 95 109 83 131 114 48 119 142 148 104 122 88 82 80 39 53 88 79 56 68 75 92 48 27 45 45 37 39 43 68 79 133 136 151 149 144 144 140 144 146 149 148 144 140 140 148 148 112 116 142 118 131 104 98 55 28 64 61 47 34 26 28 39 48 101 39 60 71 83 91 107 136 146 138 144 146 136 133 149 146 140 138 140 148 148 138 140 144 140 133 140 133 136 140 146 144 144 146 146 145 148 148 148 151 148 135 140 153 151 146 146 144 115 109 129 148 144 144 142 143 129 114 88 157 151 61 73 83 43 38 17 27 71 85 47 47 54 98 146 111 124 138 52 30 35 32 34 29 38 47 79 42 42 47 77 90 102 104 91 123 131 131 118 123 140 120 88 39 50 59 30 17 25 62 95 112 68 61 31 33 82 33 21 52 35 67 59 116 109 100 91 109 116 116 114 115 122 112 112 112 119 125 125 118 123 131 127 122 125 129 127 129 136 136 139 146 144 148 142 135 136 146 142 136 138 140 146 140 136 135 129 131 133 133 133 127 133 129 129 129 124 120 123 133 109 90 118 118 104 105 125 120 102 111 109 105 120 109 118 112 129 123 127 129 122 131 120 112 128 122 129 125 123 125 122 120 116 116 122 58 52 63 30 29 53
159 155 140 120 136 140 151 147 114 148 133 82 151 123 102 111 104 153 125 123 129 135 135 131 135 136 136 145 144 142 122 140 136 139 131 144 146 142 142 141 129 153 155 149 144 153 155 148 98 54 120 148 135 53 85 58 29 25 54 133 148 136 146 84 98 120 146 162 85 127 58 58 25 12 21 22 21 97 22 82 114 17 11 11 18 14 25 24 26 15 226 250 251 177 12 21 19 40 114 47 27 97 127 148 123 43 58 52 31 27 17 45 114 36 30 58 82 67 98 142 142 151 149 139 144 140 146 151 149 149 146 144 148 153 149 151 129 110 144 118 102 105 53 42 38 34 31 33 112 118 106 74 140 95 104 148 122 109 94 102 35 29 32 38 50 138 138 111 73 104 82 133 136 135 131 133 142 140 120 140 148 138 136 98 75 149 144 136 138 146 146 136 138 138 144 140 137 149 151 155 98 83 125 117 67 100 91 72 90 30 27 63 31 34 34 54 90 40 25 74 61 46 29 90 109 97 138 130 114 146 148 146 146 148 152 149 149 142 142 142 138 125 125 125 88 91 140 105 64 77 56 88 67 55 43 24 51 30 28 107 73 104 131 149 91 67 109 105 146 151 151 146 153 149 148 139 144 140 144 135 136 136 138 146 129 118 123 140 140 136 133 146 142 138 135 148 149 148 142 136 114 118 140 148 140 136 138 116 86 126 125 129 138 136 123 86 107 95 131 155 68 34 39 75 82 36 33 75 70 53 48 41 88 135 129 125 127 70 37 32 43 52 22 30 29 55 36 31 36 53 56 91 98 91 116 111 113 120 129 133 140 112 71 116 82 29 21 19 29 61 58 67 27 21 18 91 30 18 34 44 112 111 153 155 146 118 116 118 122 120 118 120 114 109 105 112 107 104 91 95 116 116 116 107 105 109 104 98 98 104 102 112 112 112 113 114 118 122 123 122 122 118 122 125 115 109 123 122 122 122 123 123 114 122 116 111 116 125 127 116 88 114 120 112 125 136 136 114 104 104 144 138 127 140 135 133 136 131 125 112 133 116 104 125 116 111 125 116 122 129 119 114 111 116 112 97 88 31 39 63
157 153 157 155 149 151 151 149 131 149 100 70 138 75 107 95 107 131 111 134 135 123 144 138 129 133 127 122 138 65 100 140 138 140 148 148 142 138 140 144 133 146 148 140 133 140 151 140 142 79 48 42 53 56 36 44 26 30 133 129 97 136 107 106 148 148 159 142 122 46 19 83 55 16 13 24 26 74 60 93 73 15 18 11 12 17 11 12 16 28 243 248 252 125 17 15 27 38 138 71 69 146 56 120 63 63 83 26 34 11 24 47 77 31 71 44 102 82 118 146 146 146 149 148 148 151 151 151 151 148 142 146 155 149 149 151 127 90 97 120 112 151 112 45 46 65 29 55 129 142 151 88 146 89 105 146 136 120 77 67 33 22 30 35 64 104 97 97 41 31 60 148 148 138 135 135 148 142 138 146 144 144 146 138 142 146 146 144 144 148 148 146 148 146 148 149 149 148 135 98 96 80 83 118 61 80 63 42 52 53 43 60 56 51 30 40 39 27 42 64 61 63 35 109 140 135 146 144 129 143 151 151 151 148 148 149 149 146 145 146 143 136 146 155 117 123 129 123 85 105 75 30 47 38 35 38 32 27 30 91 93 74 128 107 107 109 86 88 125 132 138 140 151 149 146 129 136 123 120 123 138 135 134 125 127 136 133 135 135 136 133 138 136 138 135 136 135 136 138 127 118 135 138 140 140 136 136 138 146 140 125 140 140 144 142 105 73 142 102 122 91 46 53 68 61 61 40 45 63 58 37 59 125 112 129 144 114 67 39 24 40 46 21 25 26 35 26 35 56 47 48 91 114 70 105 92 118 118 121 120 123 102 111 140 122 28 22 24 25 40 46 64 25 31 26 26 38 33 48 44 68 135 135 136 116 118 112 127 118 118 116 127 127 131 131 118 123 120 130 129 125 123 123 125 121 127 130 126 115 117 122 116 111 107 111 111 116 118 112 114 111 114 114 114 111 110 109 102 109 104 97 103 109 96 98 111 103 98 109 105 105 97 97 107 109 95 122 114 112 109 104 102 93 111 114 118 105 109 116 103 112 95 100 102 100 93 100 112 107 97 98 105 112 107 112 129 132 41 44 68
142 140 155 157 144 142 145 151 127 151 91 63 118 102 73 116 129 102 112 133 149 131 142 142 122 148 153 146 139 58 149 153 142 146 148 147 142 148 135 144 155 153 146 140 144 147 144 144 146 133 87 32 27 32 41 52 25 50 73 59 51 36 53 142 151 155 151 114 138 52 9 97 74 15 12 24 29 45 60 67 29 15 16 22 19 9 3 7 13 58 249 248 250 71 17 16 39 38 90 45 139 122 53 70 80 105 38 75 95 50 33 25 43 51 112 86 111 114 140 135 143 140 147 149 151 151 146 148 149 146 144 146 149 139 144 144 140 144 91 107 143 138 126 43 55 59 37 85 122 155 151 124 136 133 112 138 142 115 53 59 36 31 54 40 56 107 30 28 32 21 47 157 127 140 149 148 148 145 149 148 148 146 149 151 149 148 146 144 142 140 145 145 144 142 133 133 138 136 138 107 83 90 67 82 58 51 43 35 53 79 74 83 74 70 54 35 45 39 52 74 83 90 79 118 131 123 112 142 134 136 145 144 153 148 142 144 149 147 148 155 151 149 149 151 144 137 136 142 63 82 77 34 156 29 27 19 24 25 26 54 61 58 82 63 80 93 114 123 106 109 131 140 131 122 123 133 125 129 135 136 135 153 135 133 149 142 135 146 144 138 146 144 142 144 142 146 138 140 143 148 146 142 146 144 138 145 144 143 136 127 141 142 140 135 129 82 72 110 73 44 55 38 55 75 75 68 54 77 61 37 36 61 140 142 123 123 100 67 26 28 39 51 27 30 32 29 34 40 41 45 51 85 104 52 67 95 97 112 121 104 116 125 118 133 125 88 68 47 37 35 41 28 27 21 25 18 28 40 46 42 67 122 114 121 104 79 86 111 118 100 107 122 113 109 124 111 118 127 120 122 116 114 98 101 114 111 120 114 119 127 122 123 123 122 112 116 127 123 118 120 129 129 124 117 133 133 123 114 116 112 111 122 131 123 104 120 122 129 131 116 125 100 105 111 118 122 116 112 107 102 116 107 107 91 100 125 117 118 116 116 109 103 107 104 96 105 112 107 109 98 97 93 112 109 105 107 107 82 33 34
131 148 159 149 118 123 142 118 95 136 83 90 116 83 71 129 120 112 136 111 133 140 149 142 126 155 160 157 127 56 157 160 153 153 151 153 155 157 151 155 151 151 148 142 160 157 157 155 159 90 83 116 82 43 109 54 129 164 82 51 93 33 37 50 88 160 105 125 87 20 11 82 76 16 23 82 46 21 37 28 12 20 25 125 39 12 6 7 16 105 251 249 247 47 19 16 27 39 44 91 155 83 65 67 142 85 77 114 88 54 26 14 38 41 38 60 95 104 153 148 148 155 155 151 151 153 157 156 153 148 149 153 154 146 149 153 149 149 113 109 96 105 118 63 54 44 65 100 102 118 125 118 111 128 123 86 88 91 77 77 40 41 51 44 43 140 98 32 25 28 44 148 41 107 131 144 149 144 146 144 144 144 146 144 136 133 135 133 142 140 144 146 144 144 139 140 125 129 125 127 120 133 74 83 100 67 45 42 77 64 74 64 90 97 70 58 50 55 59 70 83 85 109 116 116 117 105 124 142 143 148 149 153 118 142 153 149 151 151 157 155 149 148 142 144 146 111 96 91 100 18 23 216 21 23 21 19 21 27 31 24 50 85 123 125 136 131 131 138 129 146 144 148 146 146 142 136 138 144 138 135 148 146 140 155 131 144 149 146 146 149 140 142 148 144 146 142 142 146 146 148 140 144 146 146 149 148 146 140 142 148 146 148 146 131 114 82 97 95 61 73 38 54 58 68 50 59 95 98 26 26 58 122 116 118 75 73 59 34 34 24 48 28 43 34 34 36 44 45 59 59 63 74 61 120 122 131 140 129 116 116 122 122 125 146 104 56 26 44 24 35 18 47 28 31 41 37 65 63 83 79 133 135 129 120 98 95 90 122 100 118 123 122 105 133 127 135 131 116 123 127 132 125 123 116 107 97 106 129 144 123 123 127 125 114 133 136 136 127 123 125 121 111 120 97 108 111 112 111 100 97 110 123 120 116 120 130 136 116 114 124 133 133 136 149 126 107 111 102 114 122 118 110 111 100 118 133 133 127 118 120 120 107 108 104 112 107 97 111 111 107 123 131 129 125 112 91 96 40 51
144 140 133 128 142 146 142 151 125 144 64 98 95 83 77 100 93 138 127 109 113 144 144 151 136 146 160 168 131 58 162 160 162 162 157 160 159 157 157 162 148 154 157 159 159 153 153 155 159 67 101 162 114 103 104 112 91 61 61 77 102 125 67 31 29 36 21 26 32 8 16 52 144 45 21 63 46 19 24 33 9 24 21 88 28 15 17 17 11 148 251 250 232 32 19 17 38 67 68 127 131 79 42 59 122 73 93 77 48 38 22 38 31 26 47 97 79 51 104 146 155 153 138 140 136 129 131 135 133 136 159 138 142 133 97 118 113 109 105 112 111 119 129 122 100 95 103 97 105 112 90 98 97 88 100 99 91 105 107 105 90 100 38 35 44 105 65 51 43 18 55 111 31 102 104 71 149 142 144 146 144 127 118 133 135 116 118 122 120 116 116 114 116 122 125 118 114 120 112 107 112 131 79 71 52 53 59 58 61 47 44 64 85 91 60 52 61 54 59 112 133 129 122 118 90 102 107 112 142 149 144 138 153 146 148 148 151 144 136 133 144 136 133 136 146 98 79 85 102 98 19 18 213 25 22 19 16 28 28 27 29 71 79 93 135 136 129 136 128 125 133 144 144 146 150 142 149 151 155 148 144 148 149 144 140 138 140 144 138 144 144 138 142 136 142 148 152 148 142 149 144 148 146 140 146 149 148 140 149 148 140 146 143 140 115 110 114 97 129 112 125 129 32 56 82 46 63 79 86 31 25 48 80 85 83 59 40 79 35 45 29 28 29 31 22 50 91 59 79 81 86 74 77 97 125 114 123 140 135 127 127 130 135 135 122 69 54 74 123 36 20 27 50 52 31 82 63 60 35 107 120 133 98 118 131 111 91 107 111 93 112 107 120 120 106 120 131 122 128 125 104 112 129 127 125 132 146 131 127 125 116 116 131 129 123 128 111 118 140 133 133 135 125 120 112 110 100 98 122 122 120 116 127 120 125 131 107 102 135 162 136 129 125 127 135 127 118 118 120 123 118 127 125 129 133 114 114 111 100 100 98 85 100 109 104 98 100 95 105 112 111 109 118 118 109 125 129 95 48 21
144 144 143 140 138 135 153 151 123 122 65 83 88 88 107 116 122 112 125 124 116 133 137 144 129 133 157 167 125 64 164 157 153 135 112 146 160 151 151 159 146 153 155 151 149 155 155 155 162 67 112 160 70 116 151 77 27 44 59 79 104 79 50 43 15 15 18 13 15 13 20 54 91 51 13 47 76 39 19 15 6 18 19 56 29 17 25 29 12 201 251 250 200 24 37 13 26 38 107 70 77 111 25 41 91 58 39 35 37 38 44 75 62 29 70 129 101 37 82 138 144 144 142 142 144 122 120 123 129 135 160 131 129 129 136 143 138 144 146 144 140 142 140 140 137 136 135 131 131 136 138 135 133 144 142 144 151 151 148 151 85 124 45 38 48 111 65 35 23 16 40 93 25 42 91 43 127 151 146 146 146 136 136 142 142 135 133 135 138 140 129 107 109 105 114 105 95 93 97 80 71 60 44 107 90 97 65 44 43 40 54 53 59 67 95 149 129 95 80 63 125 151 148 148 120 111 125 133 155 157 151 155 160 156 151 149 153 157 155 149 155 159 150 135 103 67 82 109 88 65 31 25 206 30 21 19 16 30 20 18 47 82 105 127 148 142 131 122 125 131 145 148 140 148 146 131 148 150 148 148 151 151 149 151 149 146 144 151 148 149 149 138 141 146 146 135 138 140 142 149 149 139 142 118 133 153 144 133 131 126 138 131 136 142 140 129 129 127 88 71 127 109 40 33 58 35 45 37 59 68 22 48 102 91 55 82 45 61 50 52 47 29 29 34 20 59 93 108 109 120 146 73 47 125 133 122 140 128 133 142 152 149 140 152 131 125 107 136 131 68 24 21 68 51 31 86 52 52 31 38 45 43 82 100 109 123 90 75 86 102 104 86 116 114 114 142 135 133 138 118 109 125 120 116 131 160 155 138 133 118 109 104 121 127 120 123 123 122 133 136 119 114 133 135 138 133 127 120 122 123 129 125 135 127 121 129 131 114 116 131 127 133 127 127 129 123 117 131 136 123 120 129 137 123 99 98 86 70 68 71 56 82 100 91 74 79 83 107 96 118 120 102 90 122 127 131 131 111 71 32
155 151 157 160 160 159 157 157 159 155 157 146 148 160 146 148 146 115 102 111 123 136 112 98 104 138 164 173 109 72 164 157 153 142 135 162 159 153 157 158 146 151 155 155 157 157 157 159 162 59 88 73 33 42 43 21 44 107 95 63 56 86 50 31 14 11 6 26 9 12 20 43 26 38 10 32 58 24 13 10 6 11 26 85 33 24 24 91 21 234 249 251 144 24 54 13 15 42 94 65 71 60 25 46 48 44 23 20 29 43 41 33 55 53 42 67 51 56 114 166 164 147 148 148 146 151 157 144 144 147 149 151 149 148 151 144 140 148 142 135 140 146 144 146 142 142 140 142 140 140 142 142 136 146 143 141 142 140 142 148 88 29 54 64 41 70 118 38 20 19 25 40 16 24 61 38 90 160 151 149 146 148 149 144 147 142 144 148 146 146 148 144 135 133 146 162 151 135 123 107 82 79 97 112 80 67 54 118 144 135 144 77 63 65 47 45 106 157 160 136 82 144 149 155 149 136 129 93 91 109 118 109 112 114 116 136 142 139 143 140 153 135 122 98 68 86 127 112 125 70 20 17 186 33 20 18 15 27 20 22 61 118 100 136 148 144 138 142 144 138 148 151 148 148 155 153 155 151 153 150 149 146 148 155 148 133 136 146 149 147 136 140 151 149 142 140 139 133 135 149 140 133 140 95 100 133 138 131 136 148 144 133 142 144 140 148 157 131 142 104 98 39 32 20 37 91 38 38 29 47 26 63 75 98 61 41 73 45 51 52 44 37 26 45 28 71 133 150 133 100 133 127 79 136 131 146 131 120 122 131 146 135 138 153 149 158 83 125 163 100 45 22 46 67 23 58 61 88 68 60 40 71 86 97 123 111 95 47 58 104 111 121 127 127 133 162 162 160 153 123 129 153 142 138 157 162 159 157 153 146 141 129 133 146 153 131 138 144 142 142 135 118 118 136 122 129 149 151 133 127 102 91 102 104 104 108 116 125 122 109 112 125 118 122 128 122 127 132 125 96 122 131 105 90 82 85 95 83 73 64 48 55 51 43 39 63 65 80 90 98 104 100 93 116 111 109 131 112 114 63
149 151 153 159 160 160 162 162 160 158 159 159 159 159 157 159 160 160 157 151 144 136 131 140 131 89 107 146 83 73 148 153 149 149 157 157 155 155 153 152 136 151 155 154 154 155 160 131 140 52 28 41 60 33 37 30 90 129 56 44 58 135 141 47 27 54 36 88 9 14 14 41 29 18 9 12 33 35 11 11 11 12 26 41 21 60 35 29 31 247 248 252 97 26 40 18 17 75 79 75 37 17 59 74 51 77 27 22 16 29 19 17 21 19 43 122 86 86 135 140 142 142 149 149 151 151 159 154 149 155 153 151 155 155 153 148 151 151 148 149 151 151 148 148 148 148 148 146 146 146 146 146 142 144 142 142 140 140 136 144 140 29 24 59 58 113 47 32 31 21 14 26 19 25 50 27 53 159 149 151 153 148 146 136 142 146 151 151 148 148 148 142 108 112 116 102 79 77 85 88 118 139 155 70 55 91 91 82 68 85 59 78 155 133 133 122 70 65 97 93 45 36 111 97 67 122 131 107 90 86 75 54 59 68 65 80 90 63 91 111 112 74 48 52 68 83 68 71 70 68 47 31 207 55 39 33 28 30 38 51 88 125 109 133 138 142 142 149 151 153 153 153 151 148 155 149 148 153 150 149 148 146 149 140 133 123 135 135 140 127 109 142 140 129 123 157 148 136 142 142 125 138 146 153 146 140 136 149 153 153 151 151 155 149 144 149 150 142 160 127 36 29 80 32 64 136 42 37 21 27 19 38 79 86 140 75 47 32 46 59 37 26 26 47 32 52 124 157 146 125 116 136 111 133 123 157 149 120 112 155 162 157 149 151 157 164 63 40 127 86 38 25 18 64 41 52 56 83 55 74 48 77 129 83 100 79 60 37 68 82 112 118 131 144 160 150 129 133 129 149 148 135 124 123 135 127 122 109 138 155 153 146 123 129 138 133 135 140 133 133 127 129 138 133 120 116 133 151 142 134 118 125 123 114 120 90 115 135 127 144 131 104 133 135 133 131 131 125 107 105 122 114 80 64 68 74 70 80 86 80 74 72 73 69 68 73 89 91 85 73 65 73 94 105 118 133 138 101 120 90
146 149 153 157 160 160 160 159 159 157 157 157 157 153 151 160 159 159 159 159 157 157 158 160 164 140 123 104 50 85 135 133 142 148 153 148 147 151 151 151 118 153 159 159 157 155 153 123 135 45 63 123 98 28 64 133 159 130 53 29 80 127 153 127 133 133 120 116 58 82 43 38 22 21 15 11 28 23 12 18 11 11 19 70 41 77 21 9 59 250 248 250 52 21 31 12 30 75 45 35 27 20 53 62 63 85 46 32 21 21 14 13 17 38 60 149 160 155 151 153 151 149 147 151 155 154 151 153 153 153 151 144 146 107 138 151 146 146 146 148 151 154 151 149 151 151 149 148 148 144 138 138 146 137 140 136 140 144 142 149 111 38 27 40 95 146 54 17 30 19 22 14 16 19 43 23 45 162 146 141 148 144 149 146 147 135 148 155 146 149 146 136 91 100 117 82 112 148 140 157 164 109 71 98 157 159 164 111 123 116 90 83 74 149 152 129 112 65 23 47 74 37 61 33 91 56 118 112 107 90 70 60 72 83 70 68 54 54 54 55 67 65 58 80 34 45 56 20 29 32 37 44 208 40 28 32 47 58 68 67 97 93 109 136 131 136 149 151 151 135 140 153 154 146 148 149 145 148 151 155 151 157 157 146 144 151 157 149 148 146 135 131 144 144 131 137 148 148 144 142 142 143 146 158 144 135 142 148 156 150 144 148 148 138 123 135 137 153 135 107 95 64 98 38 61 149 75 32 22 30 16 48 74 80 138 123 89 38 38 50 32 35 29 68 25 68 120 140 142 136 118 135 129 125 151 153 149 116 105 131 122 123 157 83 67 109 86 48 109 82 30 15 17 91 52 29 45 68 48 42 40 43 90 54 38 36 44 77 56 74 109 116 133 135 153 112 111 138 146 143 129 135 136 146 132 123 131 135 145 153 155 135 68 53 75 133 140 136 136 138 125 120 133 125 127 146 138 131 135 144 146 135 119 114 122 125 135 111 118 131 131 125 133 109 109 114 105 110 120 120 122 109 115 122 86 87 91 144 138 97 101 133 135 111 122 114 114 112 120 122 102 90 87 77 90 125 138 93 104 135
148 142 151 148 149 148 155 151 141 142 142 153 151 142 148 159 149 159 149 146 153 157 151 153 155 155 153 151 140 175 162 146 148 153 148 135 133 138 140 138 131 148 139 146 148 140 148 159 144 41 111 160 100 58 122 175 166 159 85 64 112 98 146 176 144 144 151 111 111 61 47 37 56 11 7 13 31 10 14 39 15 12 17 67 56 74 16 7 116 251 248 245 30 26 22 18 35 21 14 24 25 21 63 37 36 80 44 56 105 59 37 18 74 153 155 148 147 149 153 149 146 146 148 148 151 149 148 144 146 149 148 149 153 42 98 159 151 151 152 144 151 153 151 148 146 151 144 144 148 142 142 144 149 138 148 140 148 153 155 157 90 26 39 42 77 129 63 21 25 23 16 8 16 17 55 24 51 143 139 146 153 144 149 142 131 141 123 142 141 138 136 73 144 159 109 112 160 129 140 160 85 46 133 157 140 148 142 86 143 93 141 159 98 85 109 98 120 60 111 68 120 112 91 30 82 91 88 151 146 127 107 138 112 140 123 93 105 98 77 58 55 55 88 50 45 47 41 65 48 24 26 18 183 39 10 18 21 24 70 83 99 83 109 143 138 120 135 142 144 140 122 107 142 157 144 148 151 144 140 140 155 151 151 148 143 146 151 153 140 155 149 142 140 148 157 146 153 153 149 151 159 153 149 153 151 146 129 144 149 140 153 146 144 142 135 131 140 138 131 100 82 90 85 58 53 159 144 56 32 52 18 52 83 82 157 151 135 77 56 77 22 37 33 38 41 90 123 125 129 151 133 104 118 98 98 112 65 97 120 109 98 109 88 79 83 41 38 75 148 118 63 22 22 75 56 39 64 77 67 83 75 93 138 131 118 107 105 112 104 122 133 125 144 136 146 144 127 155 151 137 138 116 127 135 155 123 120 138 149 151 146 120 112 131 131 142 133 116 136 144 135 140 129 117 123 112 125 133 118 129 131 142 135 114 109 114 118 127 144 125 125 131 127 123 131 133 112 123 136 125 114 116 112 98 116 116 77 101 127 124 120 118 136 120 136 148 148 136 136 146 140 144 149 130 114 93 112 127 96 86
146 144 155 149 149 148 140 143 142 143 140 148 146 148 136 129 148 141 146 136 120 146 148 144 144 140 142 144 145 166 157 135 144 149 153 159 151 149 148 151 151 144 127 93 109 120 122 136 129 112 148 109 83 136 144 174 153 153 125 116 131 111 126 162 155 138 160 165 123 82 67 66 90 38 29 26 22 11 22 24 16 45 19 84 59 37 13 10 180 251 249 236 22 26 17 19 9 17 20 15 16 24 79 55 29 58 56 100 135 85 41 98 151 148 144 144 148 155 151 153 149 149 154 149 153 148 146 146 140 149 146 135 132 42 100 140 135 138 135 123 129 129 120 116 132 149 146 142 138 144 153 148 144 148 143 142 144 146 131 133 67 20 44 79 74 73 142 28 16 19 22 6 18 20 29 19 48 153 127 120 140 148 138 135 112 111 136 155 136 131 104 135 148 95 105 140 135 131 123 59 77 153 150 153 153 148 120 116 123 100 148 140 149 64 53 102 65 85 149 148 61 65 74 67 48 98 64 133 159 133 131 132 105 162 155 135 138 148 149 138 133 99 70 40 86 111 125 91 75 85 73 60 199 109 79 64 61 86 102 122 130 116 122 149 151 142 111 107 126 155 135 131 116 131 157 147 140 148 138 142 149 149 148 149 155 153 151 149 133 149 142 148 132 129 142 144 146 138 142 142 146 142 142 140 149 142 142 151 149 151 157 144 136 146 159 142 157 151 135 109 85 120 112 88 47 146 116 85 56 70 22 37 55 118 148 146 100 48 46 46 27 27 31 35 39 70 140 120 125 120 114 107 104 76 82 68 95 127 109 102 100 102 120 135 120 75 38 30 126 129 122 75 33 53 56 50 86 83 107 144 159 155 153 151 146 149 153 146 154 153 148 146 148 138 138 138 127 148 151 125 125 88 111 156 162 151 148 140 146 151 154 149 135 125 152 142 148 138 127 125 140 129 127 111 109 111 120 142 144 136 127 149 153 136 118 125 104 111 111 123 140 131 125 142 144 131 133 133 120 109 135 95 64 93 146 140 133 79 73 95 135 118 131 142 134 149 148 142 142 148 128 148 145 145 142 135 120 145 151 136
149 153 157 157 154 151 146 137 129 114 148 144 140 133 143 149 153 148 148 146 126 146 149 148 146 136 155 160 154 151 151 146 144 144 148 155 151 148 146 149 146 148 138 125 107 148 151 144 142 149 146 142 164 168 148 124 107 129 127 111 107 77 116 122 135 119 107 114 151 125 142 133 127 122 36 29 10 16 32 19 33 60 19 65 61 31 15 15 224 250 251 220 27 67 20 9 13 16 12 12 13 19 78 123 38 48 114 127 60 64 102 149 151 151 153 155 144 136 140 143 148 153 151 149 153 144 151 153 142 146 144 150 153 39 116 158 148 156 159 153 143 148 127 131 140 151 149 149 143 140 138 135 136 127 122 123 122 125 133 129 107 28 63 51 27 36 90 23 21 27 12 6 19 36 45 14 21 56 64 98 145 146 144 127 118 136 144 144 143 159 116 127 91 123 148 146 146 144 44 88 135 129 121 153 157 149 127 137 65 91 124 140 125 122 105 34 40 79 64 91 155 40 129 120 34 82 70 63 162 144 122 142 136 107 157 157 159 151 148 133 83 44 36 77 109 111 114 112 136 155 160 125 203 166 129 153 144 146 146 138 144 136 116 129 146 144 144 144 137 148 144 146 146 157 154 160 151 144 146 149 149 150 149 149 151 152 148 148 146 142 123 95 111 157 146 151 140 127 141 131 142 136 142 151 151 149 164 157 144 146 144 151 148 146 148 129 153 142 97 100 148 165 151 142 44 111 118 104 44 52 34 23 71 150 153 123 67 58 55 90 48 29 29 42 30 63 151 133 107 122 95 105 97 61 120 88 109 67 53 63 79 58 52 65 68 95 93 32 95 140 112 95 32 24 32 48 70 56 109 144 155 123 131 135 140 149 155 155 153 149 148 148 148 144 148 138 120 136 153 142 144 133 144 155 160 162 154 146 138 142 144 137 131 68 97 155 153 142 129 133 129 109 138 138 140 123 122 114 125 111 120 162 165 159 144 138 135 146 144 127 146 130 97 85 120 102 114 146 133 104 91 91 77 114 100 122 166 138 90 77 111 131 71 114 112 120 129 123 125 136 120 129 131 116 120 123 123 120 111 88
151 155 148 148 148 142 142 149 137 127 135 146 148 148 122 120 136 151 146 144 144 149 149 157 153 135 144 157 159 151 142 155 155 148 135 144 149 148 148 148 142 149 153 157 155 138 144 145 148 142 151 149 149 153 149 85 55 90 102 104 88 75 138 82 102 135 109 133 136 148 133 116 104 75 40 20 10 52 88 61 95 108 46 32 46 32 12 24 241 249 250 200 90 100 23 12 21 14 15 24 19 18 51 119 111 143 155 129 111 125 142 148 144 138 143 142 140 136 129 136 151 154 155 157 151 140 133 131 135 166 168 155 142 37 125 149 142 135 136 151 157 153 151 154 153 155 153 154 148 150 153 151 155 153 153 146 148 144 131 123 71 24 44 64 45 8 36 48 23 27 16 11 24 51 23 17 18 29 26 83 127 133 135 131 131 131 105 104 118 111 46 119 140 138 155 151 136 61 73 142 139 153 148 140 142 146 129 75 74 108 142 166 135 155 146 35 47 109 176 98 98 56 100 98 52 34 155 43 121 93 105 105 111 71 106 110 136 133 131 91 31 56 104 83 90 97 127 131 114 111 114 91 197 175 149 131 135 127 120 149 149 137 157 90 133 157 140 140 144 142 131 112 125 122 98 112 144 149 148 149 151 149 151 149 151 149 148 146 148 149 149 151 153 149 144 148 149 146 138 131 142 137 140 159 153 151 145 138 123 136 148 146 142 148 144 144 148 122 70 112 112 125 136 138 77 42 67 64 82 40 37 29 60 138 147 123 125 61 53 90 54 58 31 38 82 85 129 127 140 138 125 53 95 85 135 75 70 55 64 82 77 85 91 93 98 68 64 55 125 104 59 75 56 20 23 53 48 61 105 82 93 105 105 112 120 118 120 137 151 151 144 129 129 142 116 140 148 139 157 164 159 155 145 136 146 153 148 149 149 145 144 137 133 104 104 138 148 142 131 138 140 127 148 140 118 67 103 158 140 127 120 140 153 160 148 129 112 137 123 136 144 125 109 111 133 133 122 116 144 105 91 93 82 131 123 93 102 116 104 116 98 133 50 63 131 134 120 109 142 118 102 131 123 129 127 125 131 136 118 99
153 157 153 157 151 149 151 151 148 149 151 155 153 146 123 136 144 149 140 142 155 157 153 151 159 155 151 153 157 151 140 149 148 148 138 138 127 142 146 148 149 140 133 148 146 146 157 157 162 129 107 160 126 101 135 105 37 45 97 100 105 130 88 63 64 125 120 142 140 95 68 125 112 86 95 74 82 142 142 125 131 122 140 70 99 52 17 80 248 248 250 185 112 41 18 11 12 26 16 16 24 24 83 98 138 159 149 149 155 153 148 149 146 140 144 135 136 135 124 117 124 140 149 127 100 104 136 144 144 135 135 133 111 36 133 159 155 143 148 127 151 144 136 140 149 153 155 144 148 157 152 155 155 147 144 146 151 148 140 138 47 21 46 58 74 31 7 23 22 18 18 14 41 39 13 12 17 32 32 102 162 149 149 149 151 124 133 138 140 95 70 140 133 136 133 124 98 58 142 125 135 140 146 138 149 136 123 112 148 144 148 140 125 153 67 74 120 80 95 157 56 104 51 82 140 28 120 53 81 144 146 138 135 123 80 123 129 105 116 85 43 82 105 83 93 111 91 98 123 102 80 105 200 153 125 131 142 142 127 127 135 122 151 120 86 104 125 133 136 149 154 146 140 153 151 135 151 153 144 162 157 155 153 155 157 153 149 146 149 146 180 180 153 148 148 148 148 148 142 146 143 131 112 114 118 111 107 100 93 90 80 80 83 90 100 104 114 111 52 95 56 51 88 109 88 33 35 32 52 32 26 40 68 79 114 135 142 129 116 79 64 86 59 45 98 78 65 148 143 140 91 91 64 61 82 47 56 54 92 91 86 98 102 79 73 95 83 55 63 120 80 53 83 21 21 37 50 75 97 50 77 100 91 91 88 98 102 105 125 135 145 144 144 133 125 142 131 102 114 122 138 127 120 138 143 151 148 146 151 151 149 153 148 140 139 138 133 136 133 133 144 146 139 142 129 123 104 114 136 149 164 144 151 162 149 142 127 138 114 127 151 143 148 148 127 144 145 135 144 88 83 68 91 131 162 125 85 79 111 88 75 77 88 68 77 111 114 100 122 115 118 124 125 122 123 105 135 138 136 138
151 155 153 157 157 157 157 160 160 160 157 155 151 157 162 160 153 144 155 146 144 153 155 153 157 159 153 146 149 153 133 144 153 150 149 153 153 151 144 140 142 125 123 149 151 140 146 149 129 107 91 86 91 95 60 60 55 56 56 53 98 143 83 77 82 99 80 111 135 109 136 149 138 144 114 77 50 95 135 112 128 126 148 83 110 148 83 116 250 247 250 171 43 38 14 10 19 32 16 15 20 22 95 131 102 133 149 155 149 151 151 151 159 152 155 148 144 142 142 146 142 146 142 148 153 153 169 148 144 142 141 127 107 36 131 145 144 125 132 148 148 133 127 138 143 152 151 138 142 133 146 160 159 146 159 157 157 148 142 149 80 22 37 75 134 122 13 7 15 17 17 19 45 23 18 13 16 29 52 151 148 150 151 153 153 148 148 155 151 131 147 153 149 149 135 144 114 123 153 151 138 151 153 158 160 140 120 111 133 107 135 122 140 112 53 125 129 107 56 53 65 86 55 90 120 40 97 95 67 142 155 155 155 158 122 144 105 49 90 38 100 138 120 100 98 144 148 151 148 153 142 100 199 176 118 125 120 133 169 146 138 146 148 136 118 77 138 135 127 144 138 159 162 151 155 138 153 135 135 144 140 140 144 153 151 149 142 149 151 142 173 185 146 151 151 151 151 149 139 142 146 153 142 122 129 126 116 123 109 112 112 98 85 77 83 94 73 55 38 36 52 77 85 61 64 29 36 20 33 23 18 22 34 30 40 61 82 93 100 60 56 93 54 45 98 85 47 127 129 104 105 104 56 52 62 53 51 48 50 65 82 83 109 86 65 85 95 55 60 60 136 67 83 18 29 29 48 109 86 88 142 135 140 157 129 118 102 90 118 142 146 146 149 149 153 151 147 140 155 127 133 142 135 155 155 149 146 145 125 151 164 157 151 142 138 144 127 142 146 135 136 146 136 150 144 155 162 155 135 122 144 141 151 159 148 135 123 125 135 131 142 116 122 136 136 143 131 127 91 80 75 79 118 136 111 105 95 70 79 63 63 48 50 64 61 97 107 127 94 107 105 83 54 71 98 98 104 122 114 112
158 160 153 160 159 157 155 157 155 157 157 155 151 157 159 155 146 140 140 135 148 151 155 153 157 148 146 159 153 151 136 146 157 142 144 159 157 155 151 148 144 151 151 158 155 155 147 140 145 82 88 104 109 133 98 104 93 26 54 41 54 86 131 123 83 104 125 111 146 93 153 120 164 129 135 151 127 135 70 109 102 104 118 107 58 107 109 159 250 248 249 60 63 53 12 17 27 33 21 16 13 27 104 142 92 116 148 144 151 151 146 142 140 143 136 142 146 140 135 144 149 164 160 153 160 161 157 159 157 155 153 155 136 38 144 157 149 148 148 151 153 146 136 136 140 138 135 133 129 133 142 140 136 136 142 136 143 132 140 155 75 19 86 111 151 135 28 11 18 15 13 22 9 24 19 10 15 32 100 151 149 148 129 151 153 157 153 153 140 142 125 157 151 146 135 148 80 149 138 122 140 151 166 160 148 153 116 83 70 98 138 149 107 80 58 98 83 51 64 85 36 50 40 32 95 48 95 142 93 90 131 136 138 131 144 75 50 93 88 51 141 129 116 127 125 159 149 149 149 148 154 116 195 185 125 148 158 142 154 146 144 133 112 88 77 88 120 145 136 132 125 135 148 149 140 123 144 136 138 146 150 149 148 138 112 124 140 149 153 151 111 114 142 149 135 129 129 136 135 120 148 138 146 138 136 127 136 146 131 125 142 138 123 127 111 86 79 73 38 29 58 61 80 75 80 36 35 21 32 22 16 24 38 31 21 23 25 38 47 30 38 70 55 41 36 59 42 86 83 77 57 55 64 79 66 79 97 95 93 75 82 111 118 125 120 83 86 82 102 55 91 106 109 75 65 46 64 86 73 88 109 102 112 104 104 118 107 106 93 85 122 123 114 140 142 140 148 153 151 144 153 157 151 155 155 146 148 152 141 146 149 151 151 148 146 148 153 153 151 144 147 153 149 144 142 146 146 144 134 127 131 138 127 131 155 148 144 116 105 127 146 135 136 122 124 120 104 112 73 91 53 85 77 93 64 53 59 68 56 43 58 91 41 54 67 121 125 125 109 109 69 40 79 91 64 72 75 59 63 102
166 148 160 151 162 160 160 153 148 164 166 156 159 146 140 142 142 151 153 148 151 149 162 153 153 154 153 155 118 136 148 140 140 142 151 164 153 151 157 146 153 146 144 153 159 157 155 112 104 104 102 85 129 109 85 93 74 50 33 39 82 63 70 103 71 58 132 131 80 79 135 129 144 100 105 125 125 131 70 82 67 114 68 60 79 149 98 213 250 249 244 51 135 51 18 20 53 30 14 19 17 17 86 100 38 123 131 136 151 151 135 140 131 135 137 153 159 155 157 157 155 160 148 146 156 155 151 153 157 153 151 155 129 37 148 144 144 151 144 142 149 157 155 155 157 154 151 153 149 151 149 148 148 142 146 138 135 138 138 144 74 31 107 105 133 53 22 20 15 5 9 18 14 16 9 11 29 20 75 156 148 149 149 153 153 160 159 153 145 159 133 156 150 146 142 125 55 159 140 148 144 133 136 146 136 97 64 83 88 125 135 138 83 88 105 135 67 107 129 169 95 24 16 34 107 70 32 157 146 63 129 159 148 140 160 33 77 159 64 97 118 105 127 129 123 131 127 127 129 133 133 121 159 166 112 120 191 149 149 155 153 141 125 155 160 145 120 144 155 140 118 144 107 123 112 95 102 135 114 118 164 155 135 85 69 120 112 105 102 140 131 144 157 151 118 111 91 114 133 122 149 138 123 123 133 138 138 153 140 133 140 157 153 141 127 112 77 93 67 58 97 109 129 129 122 71 32 28 41 38 21 20 59 52 44 23 47 59 59 26 42 61 55 33 26 22 31 77 54 59 82 86 133 122 105 105 114 131 129 127 125 135 140 130 125 140 146 155 148 140 140 139 123 144 138 109 111 122 93 88 74 75 82 67 72 82 75 74 104 135 120 104 125 125 129 133 161 159 153 151 157 160 148 155 159 157 155 154 151 148 148 149 149 148 148 148 148 140 138 129 116 116 123 127 109 100 100 138 154 144 144 136 142 140 140 142 142 135 135 146 138 151 146 127 116 125 125 89 67 59 67 86 77 40 63 74 60 74 108 86 75 82 40 50 64 114 105 116 88 79 40 41 50 63 95 87 79 86 98 116
155 120 100 146 159 157 142 129 138 160 133 148 151 140 142 152 146 153 160 148 146 135 136 125 120 142 140 149 116 129 153 146 140 138 138 129 136 153 135 153 162 131 133 153 159 122 129 109 97 74 40 98 104 112 105 105 70 70 51 57 45 68 79 109 107 42 51 131 79 122 116 123 74 131 144 83 93 74 85 104 114 127 138 90 79 90 80 232 250 250 236 127 159 114 19 19 105 45 11 16 21 34 112 45 93 162 155 149 164 168 151 149 153 160 155 160 153 151 154 157 158 151 140 141 148 149 153 144 144 157 149 148 116 34 148 151 149 145 142 148 159 155 155 159 151 151 151 153 154 149 149 149 149 149 153 151 151 153 153 164 140 64 91 114 105 19 22 32 15 4 5 10 18 9 5 10 30 29 29 114 135 135 137 140 127 136 155 149 144 154 116 123 135 155 156 133 59 162 144 159 114 107 136 136 135 122 127 125 144 140 146 120 122 90 138 105 107 114 116 123 109 82 23 24 86 104 38 120 166 71 95 164 155 157 127 45 136 135 55 98 123 151 149 148 144 133 135 136 135 136 129 122 146 140 77 95 125 127 138 129 127 133 131 136 125 120 118 118 106 102 116 114 144 131 149 157 151 153 178 171 162 151 160 71 35 146 131 112 109 125 135 155 164 142 120 129 133 124 102 103 144 136 122 162 138 136 138 159 151 123 125 159 148 123 142 149 122 93 86 83 131 105 81 142 159 155 43 43 32 71 41 25 47 48 68 68 80 85 116 48 61 68 68 80 53 20 38 72 91 133 155 127 148 140 146 142 140 151 149 140 146 149 146 139 144 148 144 146 146 140 147 149 136 144 146 148 153 148 148 157 139 142 138 131 127 112 112 122 140 140 138 146 112 116 123 114 135 136 136 149 151 133 131 142 151 149 133 133 157 156 151 151 151 151 148 123 138 122 111 102 122 107 97 100 122 114 70 63 105 140 136 140 136 151 149 140 144 151 150 140 127 136 129 116 105 107 59 79 71 97 96 68 61 82 90 88 93 91 98 59 55 63 48 51 71 92 97 102 82 32 24 44 46 60 53 56 67 95 104 112
133 113 120 122 125 102 87 94 118 135 123 135 103 168 159 162 157 159 159 147 160 159 135 131 136 138 120 135 140 148 126 138 153 138 104 116 142 104 90 114 148 146 140 133 116 118 79 79 146 104 63 82 82 86 111 101 68 59 64 38 42 79 82 120 42 54 93 114 133 137 129 118 116 111 153 97 65 61 62 95 93 98 95 82 109 71 85 242 249 250 234 100 141 120 19 31 75 28 12 13 21 54 90 84 153 155 151 155 159 155 151 148 146 155 155 157 160 157 155 155 155 155 157 160 159 156 155 146 144 148 142 100 91 75 149 154 149 151 152 151 159 144 148 144 142 151 151 153 149 148 148 148 148 146 151 149 148 149 159 100 83 52 61 116 55 32 32 15 13 11 18 13 16 17 7 10 23 26 50 164 151 153 144 139 146 126 114 125 114 102 111 118 135 136 131 93 82 114 131 102 97 107 127 146 133 127 102 119 120 144 129 67 95 91 105 112 131 133 99 73 133 136 37 29 39 86 85 70 138 75 58 91 116 148 50 91 146 110 77 82 160 155 149 151 136 136 112 133 146 149 145 140 161 178 140 148 142 144 148 146 144 148 151 144 131 136 131 98 107 114 138 90 91 122 132 133 142 144 146 149 133 136 153 88 33 131 142 142 143 127 133 140 147 148 122 131 148 140 129 112 164 148 146 144 118 146 148 142 127 123 122 135 118 133 149 138 125 122 136 120 104 114 85 75 93 142 75 23 24 50 52 22 30 44 98 90 85 50 63 41 54 71 85 82 50 24 38 47 138 160 135 142 144 140 135 138 147 146 136 142 159 159 153 151 148 146 144 144 144 144 144 146 148 144 144 146 136 138 135 136 140 149 149 149 144 153 158 155 153 142 129 122 131 117 136 148 155 157 149 136 168 138 133 140 137 122 142 160 157 151 149 142 133 118 136 144 148 151 146 153 159 159 148 146 147 135 110 85 138 123 112 148 129 160 159 133 135 133 128 127 123 131 107 114 125 93 90 125 86 98 58 52 51 63 59 53 68 118 100 67 40 42 73 60 55 70 70 47 47 28 79 93 79 80 43 54 54 73 105 121
109 127 129 133 105 133 140 146 142 148 148 157 153 157 122 169 173 164 164 142 150 131 116 133 149 108 111 131 160 157 146 147 155 151 138 109 109 111 151 77 85 56 77 65 63 100 75 68 105 107 111 64 82 120 108 98 75 63 61 52 26 71 53 91 61 85 122 79 85 129 111 148 97 97 148 109 45 84 102 106 70 153 98 138 100 100 140 247 249 250 227 59 49 81 25 38 71 29 21 24 63 125 118 138 153 160 157 157 152 150 151 151 149 153 153 155 155 154 155 155 155 155 155 155 153 144 148 155 153 149 151 157 157 162 155 151 149 151 149 148 144 148 149 149 149 148 146 146 146 146 148 148 148 146 148 146 145 146 138 50 24 38 52 83 61 23 26 14 15 11 18 20 20 14 27 18 13 12 102 131 118 115 116 129 129 127 120 125 118 114 107 125 140 138 133 104 123 112 74 59 88 111 104 107 102 91 71 95 98 105 95 51 86 60 71 79 88 114 116 80 133 123 45 32 29 52 105 48 123 149 97 29 33 44 44 118 145 37 53 136 133 120 140 147 123 123 114 83 127 149 151 122 173 186 138 149 151 146 146 142 142 146 148 150 146 144 129 135 157 144 155 155 103 124 152 149 157 148 144 148 118 151 160 102 30 125 140 131 137 133 133 131 125 131 127 125 131 120 131 133 118 129 136 129 134 136 133 138 144 142 143 146 138 133 141 140 133 133 136 74 86 102 93 86 104 146 86 24 31 35 50 31 20 47 114 65 80 88 40 38 48 90 83 102 131 55 22 53 117 151 142 128 127 140 140 136 144 146 144 140 111 140 138 136 140 159 149 144 138 146 144 149 140 132 131 129 104 123 164 142 133 136 148 131 113 138 136 149 149 149 153 148 164 160 155 162 160 155 153 159 176 175 169 162 149 133 148 159 153 153 155 149 140 136 131 129 131 140 135 162 159 146 136 140 123 120 146 146 140 135 133 151 159 151 135 93 65 84 118 120 131 137 114 88 95 65 56 53 55 67 59 54 53 58 71 75 80 109 125 98 79 92 118 109 83 82 70 68 71 71 105 75 58 55 74 52 47 56 77 105
157 153 148 128 131 162 158 155 162 162 159 160 155 153 146 136 133 144 142 135 140 123 118 160 67 114 157 133 136 162 164 155 153 148 147 109 90 67 67 70 39 26 47 54 73 97 94 111 107 79 85 85 64 129 100 60 73 71 77 40 27 44 50 122 111 75 112 63 58 83 73 146 111 97 140 148 105 80 64 86 52 70 133 112 131 114 155 249 249 250 204 46 50 98 50 53 33 48 25 43 82 126 135 129 151 142 150 157 155 153 155 155 153 151 149 151 155 155 155 155 155 153 151 153 151 151 151 153 153 153 149 149 149 149 153 151 149 149 150 149 146 148 146 146 146 146 148 148 148 147 148 148 148 148 148 146 146 151 137 74 34 43 31 60 75 24 18 34 22 12 13 13 19 23 21 12 17 44 140 142 140 140 140 138 138 146 140 138 140 140 142 140 136 138 133 136 136 131 135 142 140 148 151 138 136 144 140 127 129 111 82 74 86 60 60 58 65 120 125 95 100 93 41 44 114 22 64 50 77 136 132 48 82 73 75 41 80 27 118 136 112 88 102 93 73 116 111 125 148 133 118 144 183 200 125 110 140 146 146 146 145 146 148 146 149 144 131 146 149 148 144 157 153 140 123 138 153 151 142 155 151 151 162 111 31 123 155 155 148 149 151 150 150 149 149 148 140 140 146 144 138 142 133 129 131 133 125 125 127 111 129 123 117 120 120 120 125 122 114 99 73 91 116 85 120 136 138 46 32 26 36 32 17 44 112 65 64 104 56 53 54 75 53 105 148 70 63 138 138 120 133 118 121 127 153 105 47 118 151 144 138 142 149 137 138 159 153 138 141 142 135 133 138 143 144 144 135 127 153 166 159 142 146 136 131 129 112 102 136 138 151 142 142 138 125 135 149 151 160 152 152 151 153 144 144 136 140 151 148 151 120 104 129 138 149 142 129 140 136 105 104 97 111 102 112 118 112 105 100 101 114 122 104 82 46 24 26 41 58 45 46 44 47 43 42 31 32 39 50 50 159 109 60 59 65 53 75 109 104 100 117 127 125 131 138 138 140 120 111 116 120 114 73 68 102 82 63 56 61 85
166 173 169 159 159 159 107 131 136 157 149 157 146 140 153 135 155 116 111 136 142 146 144 146 111 41 95 166 154 141 102 156 153 166 148 122 73 64 44 31 32 41 45 64 90 80 77 112 90 89 46 79 74 73 129 58 73 68 79 97 51 29 37 59 120 109 88 122 98 92 133 123 94 122 122 93 86 59 38 80 121 93 104 77 70 40 169 250 249 250 160 35 27 86 80 67 73 39 75 32 80 138 82 114 146 123 138 136 136 151 153 155 153 153 149 147 159 155 155 156 155 151 151 153 151 149 151 153 153 153 151 149 149 149 149 149 149 149 149 148 148 148 147 149 149 149 146 148 149 148 148 148 149 148 148 148 148 151 144 115 47 16 48 61 44 29 18 39 30 9 10 10 13 27 26 24 29 71 140 146 146 146 148 146 142 142 144 144 144 136 146 146 144 146 146 148 148 144 144 148 151 146 146 148 151 148 153 155 154 153 157 157 151 139 115 106 76 73 90 93 79 56 40 34 118 55 22 46 71 164 118 116 77 77 79 47 26 48 70 97 144 153 153 156 136 129 123 111 93 122 133 135 180 206 119 124 105 146 140 153 159 155 149 146 144 148 133 153 159 153 148 153 151 148 155 121 123 151 151 149 153 153 152 120 29 113 159 153 149 149 149 148 149 148 148 140 149 151 148 148 149 146 146 148 146 148 144 142 138 125 131 131 142 144 151 160 155 151 127 80 60 93 140 129 89 118 136 61 33 33 24 28 18 33 97 70 67 56 60 70 47 69 50 88 114 91 112 136 149 135 149 149 142 133 162 120 21 82 159 133 123 127 118 93 91 106 105 136 138 142 129 142 168 155 149 146 140 127 136 153 148 135 148 148 138 136 136 135 140 144 142 123 135 149 140 127 131 142 142 130 136 135 111 109 120 145 144 137 123 138 131 136 146 153 153 157 144 138 134 109 105 98 112 93 120 122 118 118 97 75 77 74 68 67 59 51 56 59 56 75 61 53 61 45 46 50 45 43 53 58 91 80 61 61 63 90 93 95 97 107 122 100 101 140 142 135 140 144 131 135 149 125 111 113 131 118 120 111 105 111
175 159 123 120 171 144 150 159 142 136 142 143 133 131 133 105 138 162 142 107 104 97 107 90 90 88 32 38 34 26 36 105 120 127 118 112 100 77 73 53 34 64 61 47 64 97 38 54 75 91 70 59 64 68 114 79 82 70 63 105 48 51 41 38 68 114 123 86 90 77 105 112 135 118 135 65 46 52 67 114 54 116 140 63 31 35 153 251 248 249 53 15 15 32 67 135 123 96 80 26 59 70 36 65 153 159 146 136 138 155 151 148 151 157 159 160 158 157 155 155 155 153 153 153 153 155 153 153 153 153 153 159 151 149 149 149 149 149 149 149 149 148 148 153 153 149 148 146 148 148 148 146 148 148 146 148 149 150 158 61 29 13 48 63 36 16 12 31 24 47 13 9 14 32 35 21 16 68 159 149 146 148 148 144 142 144 144 144 146 140 146 148 148 148 149 148 148 147 144 148 151 149 149 148 148 151 153 151 149 150 153 153 153 155 159 157 151 142 139 146 148 120 100 86 68 43 31 52 82 125 109 86 93 97 95 75 46 77 97 68 59 60 98 118 122 112 122 144 136 109 104 131 168 208 123 122 120 120 125 116 136 144 133 120 129 162 144 144 138 146 148 146 148 148 159 160 135 131 159 155 155 162 160 135 28 105 166 155 153 153 153 154 153 153 148 146 155 157 148 149 148 146 147 147 148 149 131 136 148 146 144 127 155 144 151 162 144 95 107 98 68 111 149 140 105 114 129 91 33 83 20 50 32 36 122 86 93 83 37 45 31 68 34 38 65 100 77 82 129 122 116 124 122 114 125 111 26 67 148 137 125 116 120 116 116 111 140 149 120 127 140 148 160 169 148 159 149 150 148 136 139 140 142 141 118 109 123 127 140 129 125 116 133 144 144 112 114 140 95 89 151 144 112 120 140 148 142 148 127 121 131 144 136 118 118 144 118 97 112 86 105 118 148 140 149 138 135 131 129 116 123 120 120 111 95 109 112 104 105 116 118 112 109 118 114 122 119 111 107 107 104 93 100 102 84 123 135 129 122 131 127 123 118 131 131 135 135 140 144 138 148 148 138 138 148 125 116 131 132 149
175 173 160 158 175 171 171 168 176 160 160 155 160 171 164 146 149 142 138 144 153 146 129 104 131 149 114 83 54 39 40 39 39 37 33 30 52 56 38 45 28 59 110 83 74 74 63 50 88 93 71 116 93 86 93 53 93 40 42 74 38 63 63 42 50 51 58 102 52 95 97 155 116 93 144 58 107 65 50 71 71 109 88 38 39 17 149 251 249 244 47 45 34 33 102 155 137 77 25 35 41 26 27 93 157 148 146 151 153 149 149 149 148 151 157 146 146 159 153 153 159 155 155 155 151 144 153 153 153 153 153 164 149 146 153 153 151 151 151 149 149 149 149 151 149 151 151 148 148 149 149 149 150 149 148 148 149 153 149 23 21 42 58 64 77 25 20 73 82 122 10 11 12 28 29 20 16 32 68 118 153 149 146 146 145 148 148 146 148 138 144 149 149 149 149 148 148 148 148 148 146 148 157 149 148 148 153 153 153 149 152 151 152 153 153 151 151 153 155 155 155 157 158 162 157 149 157 146 135 127 131 133 146 144 135 133 109 85 70 75 88 74 77 67 53 52 73 102 129 138 120 98 148 149 93 118 116 138 159 159 149 136 148 173 153 123 140 148 129 138 146 140 138 133 138 127 144 138 120 116 131 140 142 125 31 90 153 148 149 148 151 154 155 155 168 168 159 159 159 155 155 153 153 151 148 151 155 151 148 149 149 149 148 149 155 148 146 149 118 127 151 116 146 90 47 32 75 102 32 88 26 39 35 26 123 67 83 116 47 60 37 85 50 50 70 100 88 129 148 144 144 144 136 133 138 129 29 56 146 133 129 125 125 129 126 120 127 127 123 123 122 120 120 140 133 149 151 148 146 140 133 135 133 144 144 136 149 142 138 146 140 135 129 133 125 122 120 121 114 104 131 142 139 148 142 133 117 118 133 142 146 155 151 135 104 130 125 120 101 83 104 135 142 128 151 149 148 136 109 148 162 129 131 155 162 149 151 155 140 140 122 114 138 140 133 135 131 135 135 136 144 135 138 140 129 138 149 142 141 144 138 135 140 135 135 138 136 136 135 133 135 146 146 146 151 151 135 127 136 142
162 164 173 171 166 160 168 168 164 164 166 166 168 168 153 168 155 142 155 157 149 151 142 149 153 136 144 138 149 118 90 107 95 77 64 55 50 41 30 31 34 46 98 111 113 90 58 71 56 75 90 74 73 54 52 70 118 59 74 68 77 72 51 38 60 45 22 86 61 98 98 153 75 143 144 116 108 77 63 86 82 99 52 37 47 22 219 251 249 236 88 95 29 35 106 123 62 25 33 103 68 32 31 118 164 155 159 162 148 144 148 142 149 155 157 133 140 162 157 142 131 140 153 149 140 122 137 133 131 137 146 149 146 140 144 155 155 155 155 151 149 152 149 147 146 153 151 149 149 149 150 149 149 148 149 149 149 149 155 91 86 99 36 76 149 61 73 100 120 116 19 10 13 15 16 40 47 98 131 149 153 149 147 148 148 148 148 148 148 146 146 149 149 149 149 152 151 151 151 149 146 151 155 151 148 153 155 153 151 153 155 153 153 153 153 153 153 153 153 153 155 158 155 155 157 156 157 157 154 149 151 151 151 151 151 146 149 155 148 143 138 140 123 127 125 77 79 116 140 138 123 112 125 90 100 116 102 133 151 148 136 133 125 111 127 129 137 142 151 157 157 168 169 162 157 157 160 160 155 153 151 120 153 140 32 80 153 148 153 148 146 144 123 129 136 122 127 140 142 138 135 138 140 146 146 147 153 153 149 151 151 151 151 160 153 148 148 153 132 125 138 135 90 55 64 33 41 84 39 25 39 34 44 15 65 41 88 116 64 41 48 65 52 50 58 83 64 138 146 142 144 146 146 144 148 142 33 55 159 147 148 148 146 149 149 149 146 144 144 142 138 131 136 135 135 125 131 123 123 125 122 122 120 104 105 112 111 118 125 131 118 115 114 111 111 98 93 126 102 102 105 114 146 148 131 142 144 116 97 122 135 144 133 129 142 140 136 149 160 155 144 144 142 129 135 147 148 135 129 132 127 100 111 133 146 127 105 138 148 148 120 120 136 129 105 116 120 136 148 120 83 111 155 146 133 111 111 125 114 118 144 129 125 123 118 144 146 148 146 140 123 120 116 109 107 107 127 125 144 140
153 169 160 166 160 162 164 166 164 166 171 164 157 171 166 164 159 161 169 159 149 151 149 166 162 166 149 148 171 159 157 148 136 129 123 120 115 104 111 122 100 88 112 98 98 137 73 37 39 73 76 90 83 73 41 64 86 55 38 31 79 39 34 50 106 31 32 105 114 68 85 136 112 102 112 125 136 120 95 90 146 97 41 59 58 57 234 249 250 231 114 95 135 90 133 160 52 39 123 111 29 27 34 61 107 111 91 75 166 159 153 149 148 142 142 146 142 148 157 152 153 148 146 151 147 148 144 148 155 151 149 148 151 148 144 153 157 159 159 160 157 157 157 151 148 151 151 151 151 149 148 149 144 127 140 148 149 151 153 162 153 63 44 77 118 58 112 162 136 53 41 9 17 15 17 68 151 164 153 153 153 150 149 149 149 149 149 149 151 155 153 149 149 151 151 151 152 153 153 153 153 155 155 153 152 157 153 153 155 149 157 157 155 153 153 153 157 153 159 157 155 164 157 155 157 157 156 153 155 153 151 155 157 151 148 149 148 146 146 145 140 144 145 148 146 142 136 122 109 155 147 148 138 136 142 127 129 133 127 105 122 120 107 86 90 70 93 118 178 157 149 151 129 129 140 116 107 166 160 162 155 34 136 148 33 71 157 144 112 122 142 116 97 138 123 123 120 133 149 164 155 146 136 140 140 133 131 124 126 127 129 123 118 116 114 125 114 123 148 125 121 151 100 120 138 67 43 45 32 16 43 37 60 20 56 56 90 135 80 57 60 63 37 50 83 58 84 109 151 146 142 142 142 138 144 149 38 43 148 144 148 148 140 138 139 146 144 144 144 142 140 140 140 138 149 144 148 148 149 143 142 140 135 136 138 138 135 133 131 129 129 129 131 120 112 116 105 123 118 113 107 100 122 124 116 122 122 112 100 93 118 129 123 116 131 125 131 148 131 125 123 116 77 121 121 93 116 127 120 121 125 133 118 127 153 144 120 87 82 127 149 140 140 146 135 159 153 148 149 133 91 105 151 153 133 118 93 80 75 82 126 120 129 116 118 111 112 100 119 131 112 112 105 97 88 71 47 68 97 138
144 144 141 144 146 129 117 146 129 127 157 149 140 162 156 151 171 171 153 140 160 183 180 168 162 171 164 159 162 166 155 140 151 135 122 102 75 47 37 38 32 32 51 53 65 63 72 44 28 53 86 102 75 52 30 19 21 65 53 38 64 45 27 91 53 42 32 120 105 102 91 112 97 111 118 151 125 82 118 104 175 100 58 42 50 51 244 249 250 208 120 127 148 95 58 114 120 105 116 61 25 47 54 63 109 125 60 4 100 140 146 125 129 135 133 138 140 140 155 159 151 140 153 148 149 159 159 151 149 160 151 148 157 151 149 160 156 157 162 162 160 159 157 151 151 155 149 149 146 138 127 150 148 151 153 151 155 155 152 155 155 133 88 85 100 98 151 149 159 42 55 27 23 13 24 43 149 160 153 156 155 153 153 157 155 151 153 157 155 155 153 151 149 149 149 148 149 150 153 153 153 151 151 153 154 155 153 157 159 151 153 155 159 157 151 155 149 146 149 150 159 169 160 156 155 157 155 149 149 143 148 159 155 149 153 148 153 148 148 149 151 148 140 148 149 142 140 148 148 146 129 120 104 129 136 135 142 146 135 135 155 149 123 105 104 125 107 112 111 107 133 135 135 136 127 148 155 162 144 135 142 44 153 155 38 64 158 146 133 136 144 144 144 144 144 136 123 127 125 159 165 159 165 160 159 151 159 159 138 133 129 129 135 146 123 122 123 122 116 122 104 104 70 114 149 90 33 19 26 26 54 51 85 24 65 91 114 142 107 68 73 63 42 60 122 123 82 50 138 149 148 148 146 136 138 157 44 33 142 144 136 135 136 136 133 138 137 136 132 129 129 129 131 123 133 141 142 142 144 144 142 142 140 140 140 142 142 142 149 153 149 151 153 150 146 144 140 148 148 148 146 145 138 135 138 135 129 132 129 120 118 123 122 122 105 109 112 111 107 115 111 95 95 105 118 104 104 129 127 128 123 122 122 107 142 144 151 50 16 74 146 139 135 105 102 129 138 140 114 138 138 138 113 86 91 95 85 104 122 116 112 123 100 63 107 109 127 118 120 144 138 142 141 140 144 135 138 148 136 140
148 148 127 151 155 123 142 152 136 131 140 122 153 160 148 146 123 144 159 157 149 171 168 166 162 159 188 162 155 171 168 162 169 164 153 146 146 127 95 67 43 67 23 19 17 12 17 33 21 17 19 29 26 34 39 21 12 9 22 36 39 47 20 45 32 34 44 55 95 98 67 125 97 133 86 109 149 118 97 133 144 112 47 51 66 70 248 248 250 204 168 173 183 159 86 115 149 127 71 26 26 90 31 38 79 88 42 9 97 144 140 138 140 140 144 142 148 144 125 146 146 146 146 136 139 129 118 143 148 154 148 148 149 153 149 131 105 123 129 112 109 109 138 153 154 153 149 144 136 131 122 133 155 155 155 153 151 123 131 144 149 153 79 64 142 164 155 149 149 129 33 33 17 13 17 32 131 162 157 153 142 144 144 142 146 149 141 122 114 136 145 143 151 159 157 153 157 155 149 153 153 155 153 153 159 162 155 155 155 148 144 140 122 131 162 148 136 159 155 135 157 157 160 155 149 149 146 137 131 118 133 138 131 142 149 149 159 148 153 154 148 148 142 131 114 98 104 135 118 125 133 111 112 122 95 127 149 153 149 144 131 131 127 123 90 122 113 98 97 105 97 135 146 110 97 138 140 135 150 140 114 146 168 146 40 65 151 157 160 160 164 162 151 157 164 159 155 159 155 129 129 155 153 140 157 142 128 135 120 123 136 133 146 159 153 146 146 142 135 109 109 105 107 118 135 55 16 40 114 45 38 54 98 21 46 125 148 144 81 60 83 65 46 58 109 111 107 63 123 140 151 148 149 148 142 162 55 28 143 151 142 140 146 146 144 142 140 140 138 136 140 133 135 136 133 136 142 136 135 140 142 138 140 138 144 144 140 136 145 148 149 146 138 149 148 148 143 146 150 144 140 142 140 140 142 142 142 144 144 146 148 146 140 144 144 135 136 136 136 136 135 128 133 123 117 120 126 123 111 109 112 114 111 107 116 118 127 61 19 71 144 120 122 106 111 125 125 166 162 134 138 140 127 118 133 135 138 129 112 121 125 125 107 82 111 151 148 140 136 142 146 144 151 133 125 127 140 138 143 142
159 140 123 149 158 164 169 155 160 142 140 142 165 159 166 176 148 159 151 153 166 143 117 164 168 179 157 155 155 141 180 173 162 168 164 180 188 157 188 183 181 189 162 146 146 100 91 75 70 63 80 58 54 41 33 29 27 24 19 21 42 63 59 59 54 25 53 56 70 90 91 107 119 77 86 91 90 80 118 148 149 136 122 102 102 160 250 248 250 164 146 112 159 159 123 58 111 83 35 52 114 86 47 70 138 129 107 119 153 160 144 142 144 144 144 144 129 153 171 168 166 154 142 146 148 140 83 123 124 116 122 116 119 123 100 77 102 124 118 109 109 127 131 112 146 166 138 140 131 112 127 122 125 142 153 157 151 146 149 133 114 131 116 32 123 114 129 136 131 127 52 19 17 21 51 127 142 148 151 149 125 135 131 129 135 153 157 155 151 151 159 166 159 159 160 142 122 136 123 129 153 153 153 155 138 140 157 140 144 144 140 142 125 136 162 155 149 153 153 149 153 155 159 156 149 149 148 142 148 137 135 122 111 135 125 135 140 144 135 148 159 160 155 153 151 146 140 140 136 142 149 133 136 112 93 146 153 144 149 144 151 160 155 153 153 153 153 140 144 146 140 149 151 149 144 157 152 143 148 148 144 122 93 93 41 48 151 125 159 151 160 162 171 169 168 166 159 151 160 148 142 164 155 136 144 138 130 133 159 157 151 151 151 151 149 146 144 142 155 151 151 155 159 159 138 85 59 71 111 48 32 61 65 23 28 127 146 173 102 55 111 80 93 79 95 112 148 105 127 149 146 138 135 135 135 146 57 24 120 138 126 129 133 132 135 136 142 142 144 151 147 151 146 146 134 144 148 142 131 136 142 139 140 142 146 144 142 140 130 131 135 123 114 140 155 125 135 138 149 157 158 155 148 144 140 140 142 138 138 140 146 142 139 143 140 148 148 143 140 141 142 140 138 142 146 140 138 136 138 141 138 135 135 135 136 134 140 91 17 50 138 123 120 112 127 129 120 112 122 118 116 109 104 118 131 123 123 122 111 114 111 119 122 122 131 140 149 149 151 144 129 129 125 125 118 125 116 95 135 140
142 142 144 153 157 157 170 173 164 155 154 169 176 159 157 157 164 168 168 173 168 168 169 150 162 176 175 162 151 162 157 151 153 161 166 171 181 160 176 176 186 185 159 180 159 157 169 183 199 173 173 170 176 164 122 142 149 126 93 77 40 41 80 54 60 32 28 44 73 79 79 59 85 61 86 117 146 86 95 125 166 88 60 59 127 178 250 248 246 131 114 123 119 138 133 105 123 109 46 97 151 104 136 148 155 153 146 151 154 153 149 146 144 146 141 144 149 135 125 122 131 123 118 135 144 151 142 151 148 136 135 135 123 129 129 129 135 136 151 133 131 129 125 129 118 109 133 131 127 106 112 105 101 114 120 95 74 85 98 114 140 160 125 46 129 129 129 131 118 75 91 25 31 82 136 159 159 149 151 156 149 151 155 153 122 120 123 146 157 146 148 166 159 151 162 151 131 140 153 144 153 151 142 138 120 107 100 91 118 155 133 136 135 140 148 160 155 155 155 159 153 148 149 151 157 149 159 153 144 136 136 146 146 148 133 153 142 142 136 138 164 160 164 162 157 153 155 155 149 144 146 142 144 146 135 153 129 118 131 138 155 151 142 151 155 129 88 131 140 151 168 159 160 162 140 162 160 162 155 148 153 132 115 122 55 43 148 138 151 151 140 142 140 135 146 118 127 122 118 127 140 133 139 160 157 157 151 160 162 160 152 148 146 155 160 149 144 148 150 148 144 142 138 133 111 46 45 59 27 35 20 30 53 23 24 146 169 168 111 42 111 77 91 70 83 93 159 121 104 173 160 156 157 160 157 169 82 21 120 162 148 146 142 142 140 138 135 133 127 125 131 127 116 115 112 138 138 135 125 129 133 135 142 148 147 146 148 148 148 149 146 142 142 142 142 136 135 139 138 142 151 153 149 142 144 144 142 133 129 136 148 144 142 138 140 148 149 142 140 142 140 138 138 138 138 138 140 137 136 138 140 135 136 136 137 138 148 118 16 44 159 155 154 154 149 146 142 142 140 131 127 123 129 129 125 127 123 123 122 116 111 111 112 118 116 111 118 118 122 118 122 118 114 125 125 122 88 77 79 109
97 98 104 107 112 114 122 128 130 143 151 153 171 164 159 155 151 162 169 158 157 154 157 155 148 151 159 173 169 178 151 153 162 169 159 153 169 176 149 169 168 164 178 157 185 178 142 159 173 146 175 175 169 160 134 175 180 171 169 162 120 70 60 131 171 151 127 127 65 100 67 85 138 100 86 51 44 48 79 107 104 98 61 48 59 176 251 248 244 86 74 111 107 155 136 153 120 105 67 73 112 112 131 131 116 140 151 153 153 149 151 148 148 138 128 131 128 118 114 124 142 133 112 133 146 160 168 157 168 164 159 153 151 153 152 150 144 138 144 142 148 146 144 135 90 48 116 127 164 168 168 164 168 160 138 135 98 75 93 138 131 127 91 91 129 142 133 140 155 129 144 38 97 168 145 135 149 146 158 155 157 164 151 155 149 146 142 123 131 135 132 131 140 149 153 148 135 125 138 148 146 148 149 149 142 140 112 135 151 146 146 140 131 142 135 123 151 155 157 151 133 107 127 156 157 148 160 153 144 159 151 142 153 146 135 157 149 160 157 153 160 159 157 159 160 144 145 151 149 149 164 159 149 151 156 153 151 147 142 133 140 149 151 154 136 131 123 148 90 88 160 140 107 129 133 138 144 144 137 148 149 155 168 152 149 142 140 140 136 136 136 135 133 136 120 125 136 123 109 109 135 136 131 146 141 137 133 144 133 133 140 140 141 146 144 140 144 148 146 144 146 151 142 129 131 70 102 51 32 77 25 37 77 25 29 111 157 136 88 50 114 79 83 125 114 98 166 148 85 157 151 148 149 144 153 171 97 21 111 162 150 153 152 151 146 151 153 148 148 148 151 140 135 133 140 90 85 123 122 118 112 125 126 122 118 124 125 123 123 126 127 131 135 136 136 140 142 148 148 142 149 149 145 146 148 151 146 142 142 142 142 141 142 142 142 142 143 142 141 142 140 140 140 140 138 140 140 138 133 135 136 138 138 138 138 135 142 129 18 35 135 114 125 135 135 139 140 146 149 144 142 146 144 146 151 149 148 142 140 140 138 136 140 135 136 136 131 130 131 127 129 129 120 127 129 127 116 109 97 112
105 102 105 104 100 100 100 100 97 105 98 98 105 112 122 120 120 130 146 148 149 162 149 155 159 157 159 168 164 168 155 155 155 171 151 164 175 171 164 179 165 171 166 153 162 159 148 164 151 157 168 154 162 159 146 131 164 169 164 164 169 180 193 160 160 143 114 93 74 77 142 159 169 151 157 182 122 118 116 148 131 129 91 51 31 194 251 249 238 91 74 96 112 109 138 138 98 132 118 77 111 131 140 142 136 136 153 142 137 142 146 140 138 127 123 136 144 140 144 144 142 142 138 138 149 140 154 162 164 175 164 152 151 151 153 151 150 151 142 146 142 142 138 133 140 137 136 118 144 146 148 153 160 155 144 143 159 147 114 137 97 90 109 77 53 100 125 157 127 144 140 135 149 135 131 136 140 140 138 107 142 160 131 140 148 135 116 125 131 129 144 127 129 151 157 146 112 116 125 135 123 136 158 144 148 152 139 133 135 135 140 135 112 133 136 133 136 157 152 149 157 159 166 162 166 149 153 156 153 160 159 151 145 129 133 138 123 112 133 160 150 160 159 155 157 148 149 155 157 157 165 162 169 164 159 151 149 148 148 146 155 151 140 136 118 135 138 138 123 144 133 120 122 142 168 125 118 138 139 122 122 138 122 131 160 160 146 122 122 148 159 160 160 159 157 149 142 148 155 159 149 160 171 166 168 166 168 175 173 168 165 151 142 146 146 142 135 135 136 138 135 131 129 132 125 107 71 44 88 80 25 36 90 30 39 84 152 135 97 47 114 74 75 122 112 79 135 155 145 155 149 127 109 123 142 155 107 21 95 169 164 171 164 149 144 155 155 151 151 148 153 136 136 102 90 73 90 129 128 112 118 157 153 144 142 146 148 144 142 144 146 142 140 131 129 129 129 129 127 122 123 123 123 123 129 129 135 129 136 136 136 140 140 140 144 142 142 146 148 146 146 146 144 142 142 144 142 138 138 138 139 142 142 140 142 133 135 140 22 27 122 102 98 130 123 118 122 120 120 146 156 148 138 125 82 109 146 148 151 146 140 138 140 135 130 136 144 144 138 131 125 123 105 93 91 114 133 140 159 136
114 113 112 114 112 107 109 107 109 105 98 100 98 97 97 96 100 105 102 109 120 125 133 148 135 135 146 146 151 149 144 146 151 159 159 164 162 158 168 168 148 153 162 149 153 162 149 160 164 176 133 131 171 189 162 148 159 169 129 127 154 138 142 133 142 168 169 163 171 123 107 105 80 83 86 102 151 157 194 185 180 185 183 178 142 236 250 251 227 82 91 67 74 104 127 136 111 129 142 123 146 157 158 155 155 155 157 148 133 148 140 136 139 144 140 157 155 157 153 148 161 149 133 140 154 138 146 159 160 166 162 157 155 157 155 151 153 148 146 149 151 147 144 144 146 148 146 140 144 149 149 148 151 150 146 149 133 97 74 111 133 151 140 122 107 118 143 135 120 122 142 142 138 123 123 160 157 156 149 135 140 120 109 115 142 149 154 153 131 109 138 149 146 155 149 155 138 107 95 102 102 123 160 153 155 148 138 132 138 138 138 140 136 142 140 122 68 55 79 105 133 138 136 146 169 157 156 160 164 155 151 159 152 142 140 135 122 116 136 133 133 144 144 155 154 151 149 148 146 144 148 141 149 160 161 159 151 149 153 149 148 153 138 138 148 146 144 140 135 133 112 91 73 116 146 135 136 133 99 125 138 118 145 151 140 157 155 133 120 125 148 159 164 144 146 153 160 162 160 162 157 157 155 151 152 160 153 146 151 162 168 168 160 159 160 156 162 162 162 160 164 157 151 154 153 133 121 88 74 70 50 32 80 31 53 41 90 131 105 45 93 53 52 93 75 98 118 144 135 136 157 157 155 157 155 157 125 22 80 171 162 160 159 159 151 144 142 148 150 144 133 106 105 129 169 136 143 162 142 155 157 173 157 155 171 171 159 160 162 162 157 158 153 142 149 157 149 152 153 148 151 149 148 146 144 140 133 136 135 124 125 127 120 125 122 123 125 118 122 129 131 133 131 131 136 140 138 138 140 140 144 144 149 146 145 138 140 159 32 22 118 145 136 144 140 136 139 136 135 133 138 136 138 133 125 136 135 138 142 136 138 138 136 133 125 129 148 142 135 135 131 128 127 131 118 112 123 120 111 73
140 140 138 142 136 133 129 122 122 123 123 122 114 111 109 105 107 111 111 111 107 107 111 114 116 122 120 127 129 129 135 136 138 155 171 176 160 155 148 148 160 149 155 157 155 162 155 171 168 169 160 151 159 169 160 155 133 135 164 155 164 151 156 169 129 166 160 151 145 151 169 151 136 169 151 122 128 100 79 73 107 123 125 129 111 243 250 251 221 142 181 157 153 153 131 133 149 144 144 148 148 151 151 153 150 155 157 162 151 159 146 138 146 151 154 155 145 142 149 155 162 159 151 155 183 164 169 149 146 144 151 157 158 173 166 153 135 153 157 153 153 151 148 144 144 144 143 146 148 148 148 148 149 129 133 142 114 95 91 88 114 127 140 168 157 159 160 157 149 148 147 135 136 131 127 115 118 140 140 155 149 148 171 168 176 176 166 160 133 146 140 144 118 118 107 78 98 133 154 144 135 135 112 131 113 112 104 112 133 140 149 123 122 112 102 131 133 97 67 51 53 61 59 85 97 109 138 159 160 150 138 144 146 153 155 159 153 155 154 151 142 142 149 155 153 151 152 149 155 155 146 148 140 135 140 157 151 151 151 151 144 150 148 153 157 149 149 146 145 153 146 144 144 148 153 142 148 155 144 149 162 160 151 142 133 138 146 155 142 135 151 154 151 131 125 164 169 157 153 159 159 159 155 159 159 162 155 146 151 162 155 155 160 155 153 156 155 159 155 151 173 151 146 153 158 136 134 135 97 107 104 24 80 23 71 71 131 151 127 46 111 45 79 58 83 129 130 133 126 127 127 110 142 129 125 138 120 24 55 140 137 123 116 142 129 129 135 142 153 160 151 116 143 144 203 155 155 146 127 149 109 129 149 148 155 166 157 153 151 159 159 153 140 138 138 142 153 149 145 138 138 133 131 131 133 140 127 133 149 146 146 151 155 151 136 139 153 148 146 141 133 131 129 127 125 115 115 122 123 124 125 123 127 133 135 131 129 151 45 21 100 151 140 159 148 138 138 142 131 127 145 149 146 146 144 138 136 135 135 135 138 138 135 138 143 136 131 131 131 133 133 136 131 136 122 107 118 127 122 105
140 140 137 136 136 138 140 137 138 138 140 140 136 136 135 135 135 131 127 120 114 111 107 105 109 106 107 111 109 109 111 112 114 120 120 127 131 136 129 128 138 144 155 166 160 159 160 180 159 155 157 133 157 161 146 151 155 162 169 160 157 160 151 149 154 160 155 164 155 125 144 153 146 153 153 136 144 153 116 114 135 107 127 24 38 247 249 250 204 149 161 159 140 159 135 158 168 173 178 161 168 168 144 149 146 164 171 155 138 151 159 166 155 135 135 136 140 133 138 164 154 148 159 160 148 138 138 155 166 149 155 140 133 104 85 91 72 114 153 151 122 105 148 153 149 144 144 146 146 136 114 104 122 111 114 114 111 122 131 114 120 97 115 159 146 127 155 164 168 153 149 142 148 125 98 105 120 124 146 151 140 146 155 168 175 160 157 157 135 142 144 140 114 114 138 133 160 142 114 150 175 148 118 122 95 75 98 127 146 125 111 131 167 169 151 145 148 173 144 125 109 74 68 91 91 88 86 91 95 121 122 102 86 107 95 85 102 127 120 148 155 146 146 144 151 148 142 138 155 166 157 148 136 118 122 133 135 135 160 168 162 159 155 148 153 151 149 149 155 161 159 165 160 159 157 160 162 160 162 155 152 155 155 152 153 139 131 149 146 135 148 159 157 155 141 140 144 155 151 151 158 162 171 162 157 164 168 171 157 127 114 128 151 166 154 153 151 131 114 120 146 114 116 127 131 112 100 129 144 90 50 25 67 46 59 58 112 138 130 43 105 46 95 82 122 159 155 151 160 162 157 155 160 168 164 166 148 29 54 161 142 144 127 135 131 127 129 136 112 107 95 91 142 131 127 112 118 82 93 131 97 102 139 157 146 146 151 116 105 129 133 142 135 129 111 118 138 153 155 145 138 148 129 105 118 157 148 135 142 148 140 140 136 153 131 123 149 168 159 149 129 136 157 133 120 133 129 129 122 129 126 138 135 125 136 124 123 159 54 17 74 127 84 85 91 118 133 125 123 118 122 125 131 135 135 137 136 138 138 138 140 138 142 136 129 144 144 136 135 135 136 138 133 133 133 135 135 136 140 138
138 140 138 135 135 135 135 138 138 140 138 140 140 138 138 137 131 123 120 123 118 112 104 98 98 97 98 104 105 105 105 109 107 107 105 104 104 107 109 116 120 120 122 127 133 140 135 148 149 153 140 147 153 148 153 159 162 162 155 151 155 168 157 166 149 151 152 155 166 133 149 160 151 155 138 162 157 135 159 144 166 123 183 54 43 252 250 249 171 122 193 175 162 151 142 153 159 186 181 189 139 175 193 178 160 90 138 169 146 184 163 133 116 131 135 135 144 144 138 129 144 147 157 160 137 142 146 151 148 153 157 148 136 90 85 109 116 116 120 98 86 54 127 136 149 122 115 133 135 123 98 129 131 118 91 114 97 144 142 127 136 144 148 159 154 149 162 149 153 155 159 151 166 155 136 109 135 164 166 157 127 153 153 164 166 160 162 150 151 149 148 144 142 146 155 155 144 142 136 138 149 140 135 133 133 114 129 100 144 151 169 153 136 133 120 164 160 157 164 159 160 160 171 159 151 146 142 149 124 100 91 91 85 67 89 98 91 107 107 107 149 160 160 140 83 61 51 46 71 83 60 53 79 116 116 102 79 112 136 146 148 142 151 160 164 160 160 160 159 146 158 154 153 160 164 164 162 153 151 150 149 151 153 153 156 151 144 153 149 138 125 155 144 142 169 159 144 149 133 114 123 145 149 176 146 127 151 162 138 104 86 116 146 160 160 160 155 144 109 138 149 149 146 151 149 142 143 148 129 71 68 75 36 63 50 54 102 129 97 36 73 74 135 86 125 149 159 149 151 153 148 149 152 152 153 149 151 33 49 162 144 138 129 127 138 148 155 136 133 111 112 140 118 114 133 125 146 109 133 133 110 112 136 146 149 148 133 151 146 140 135 136 149 144 138 136 105 102 142 152 153 166 155 145 123 122 112 95 100 127 155 144 133 148 153 148 144 149 144 122 127 160 159 142 131 127 122 120 114 120 118 101 88 97 86 111 135 146 83 15 50 129 127 120 95 123 149 142 146 145 129 122 107 116 153 142 135 131 111 120 131 125 122 140 135 123 111 123 135 131 142 146 142 146 144 138 136 138 145 148
139 140 138 135 133 135 133 129 129 129 122 120 116 111 104 98 88 90 90 95 98 102 104 107 107 105 102 95 93 93 95 98 100 104 107 102 105 105 105 104 104 105 105 105 105 109 110 107 112 118 111 127 129 135 136 141 149 155 150 140 153 166 164 166 164 178 164 143 162 153 142 149 159 159 138 142 166 144 157 157 175 155 183 171 122 226 171 164 167 168 164 155 138 173 131 140 171 125 151 166 127 125 186 164 149 140 114 133 171 183 175 141 140 175 155 163 169 140 160 162 120 65 70 140 131 135 129 119 118 142 146 135 114 100 140 151 135 135 116 111 102 104 108 125 114 111 93 56 58 98 122 138 112 133 109 111 123 112 111 111 144 149 152 157 155 159 164 159 155 155 142 152 149 175 164 166 159 154 151 149 148 155 151 149 166 148 131 142 152 160 155 148 157 157 153 153 149 157 155 153 148 153 144 138 136 137 135 112 135 141 136 122 123 133 127 139 127 112 114 138 125 146 168 153 157 159 151 138 136 142 160 153 138 97 98 105 116 111 104 86 61 71 64 44 46 60 48 42 45 67 48 43 55 46 55 60 74 103 127 136 138 133 135 175 159 159 162 162 162 146 171 175 162 160 159 153 151 149 148 149 149 151 153 146 142 148 151 144 149 164 159 142 140 142 149 166 146 143 140 144 137 146 140 120 107 122 144 151 146 129 127 133 155 144 153 127 97 83 134 166 160 168 157 153 164 169 168 148 133 134 111 112 39 26 32 48 105 140 107 54 91 65 125 114 151 129 146 151 146 144 146 144 149 142 138 149 162 40 39 151 148 144 136 134 122 114 102 80 75 64 82 109 88 105 166 142 156 144 160 155 149 156 153 146 128 131 101 122 114 100 109 129 114 123 132 116 109 122 129 119 140 144 155 142 122 123 123 122 140 148 149 159 159 146 160 151 155 148 125 109 140 153 164 164 155 148 146 149 149 148 129 116 111 116 104 120 136 144 100 15 42 133 135 136 138 136 142 144 135 149 146 148 146 148 159 162 160 138 133 122 129 126 95 104 118 80 93 142 140 140 129 123 120 116 121 136 133 134 107 91
137 138 136 133 131 131 130 117 112 112 111 107 107 104 107 111 116 116 112 118 118 114 115 114 111 112 116 116 118 117 114 114 115 116 118 116 114 111 104 105 104 105 107 107 105 105 107 107 109 109 109 107 107 105 107 102 112 112 114 114 123 135 135 144 151 168 155 149 153 159 150 148 169 160 160 151 164 157 178 166 175 155 159 168 160 141 153 155 148 157 149 154 151 135 155 166 121 102 146 166 173 149 197 162 152 171 173 183 167 160 148 155 129 168 120 120 123 180 149 180 189 160 141 169 155 140 159 136 112 140 136 120 131 133 125 136 144 153 153 155 155 148 144 142 146 122 116 111 142 138 133 136 122 120 136 129 120 133 116 107 153 173 144 120 142 160 155 146 159 157 149 160 114 125 125 133 102 102 122 144 162 164 157 171 168 171 149 146 146 157 136 144 160 159 155 155 160 151 148 154 153 153 149 142 151 148 149 153 149 159 138 146 149 162 144 112 123 109 105 104 80 116 125 127 111 160 164 162 161 160 162 157 155 139 157 160 148 146 135 118 104 102 135 75 61 56 55 53 64 82 58 70 82 59 68 51 64 67 93 109 122 123 97 111 144 149 151 155 164 136 122 148 144 153 149 151 153 153 153 148 151 155 155 148 142 146 148 144 142 107 80 43 71 135 110 88 102 90 144 149 148 137 129 125 133 146 115 97 114 144 125 114 135 146 140 122 94 75 131 160 159 138 120 114 122 129 146 157 155 114 86 93 85 23 38 45 86 129 80 73 86 70 159 120 153 131 122 123 102 85 116 91 61 47 42 75 108 38 21 88 162 125 55 64 77 63 43 55 97 107 60 105 104 98 83 114 146 142 140 151 151 123 151 138 140 144 133 148 152 151 149 142 121 133 136 140 144 151 151 142 138 122 131 135 135 123 91 90 159 164 162 149 149 138 140 111 98 82 82 93 133 151 164 162 162 155 151 146 146 148 144 138 138 135 118 112 114 135 133 19 35 148 136 134 138 138 136 139 138 137 140 136 129 133 142 141 142 133 142 140 142 118 107 118 133 125 135 148 148 153 149 148 144 133 109 95 107 125 112 114
135 136 136 133 133 135 138 136 136 136 135 135 136 129 123 118 116 112 117 120 120 126 130 131 133 138 140 140 141 137 136 138 138 140 140 140 138 136 142 138 136 135 131 129 124 113 111 109 104 105 108 105 102 102 104 95 109 100 102 100 97 100 102 102 98 109 114 120 120 127 136 142 136 135 157 158 159 146 164 157 157 164 166 151 153 162 171 168 149 149 159 162 181 168 162 167 164 162 144 157 197 138 160 159 138 169 140 159 160 164 175 157 168 178 148 136 149 160 171 171 151 169 144 170 175 144 171 169 151 185 160 176 175 168 162 146 151 148 157 162 142 145 138 136 136 144 120 120 149 146 144 142 148 144 162 151 133 122 116 77 129 171 162 149 147 148 127 102 144 138 97 103 90 125 127 120 114 98 123 145 131 144 164 140 125 155 155 155 148 132 125 144 160 166 122 117 144 148 140 137 146 127 114 151 146 131 95 112 114 118 133 133 135 157 151 146 154 149 135 153 142 157 153 102 104 100 102 142 140 142 146 144 148 160 142 116 140 148 142 133 125 135 151 136 131 120 123 114 97 98 88 107 105 85 107 138 123 122 120 129 138 162 151 138 171 159 138 114 79 95 100 102 100 143 141 140 140 155 160 162 160 160 159 162 159 151 144 148 138 116 131 125 98 114 104 93 123 91 142 135 149 140 148 164 144 160 115 116 155 157 171 171 162 158 164 162 158 157 150 159 155 168 180 160 151 151 148 136 155 133 82 98 133 31 40 42 80 160 68 86 85 50 109 125 138 142 146 146 140 133 122 99 140 125 113 104 104 104 85 118 118 122 102 104 112 116 122 131 123 122 135 159 139 131 144 112 135 180 142 193 185 129 159 133 132 129 125 146 148 138 111 91 111 129 140 133 144 138 144 155 168 162 155 151 153 151 146 136 139 155 146 129 118 88 78 88 91 98 98 80 118 141 169 160 157 160 160 154 144 135 133 111 125 109 126 133 125 120 131 21 29 148 155 146 138 140 135 119 138 133 109 102 97 100 133 139 133 125 133 107 131 131 103 107 125 104 107 118 144 162 155 146 136 136 123 109 122 149 153 151
135 135 135 133 133 131 131 132 133 135 135 131 134 131 128 131 129 129 131 131 133 136 136 133 133 136 136 135 135 133 133 133 135 135 135 136 136 136 140 140 140 142 142 142 140 137 131 129 126 123 121 116 112 109 107 109 105 104 100 98 102 104 102 107 106 100 104 105 100 107 104 104 107 111 118 120 119 127 135 140 114 140 149 151 155 157 143 155 155 157 164 162 168 171 173 168 155 160 155 169 162 164 143 149 166 157 159 157 166 178 162 136 146 173 175 181 166 168 180 160 93 148 153 133 85 138 143 153 181 123 140 171 188 136 144 176 171 176 142 180 176 159 185 144 148 142 157 171 150 157 151 149 148 144 144 149 148 146 151 145 133 155 147 144 155 153 144 127 144 138 125 127 129 140 144 135 138 146 140 146 140 140 125 100 105 131 142 157 140 114 118 138 119 111 93 122 131 131 190 146 140 155 116 112 79 91 91 64 75 127 135 111 97 118 132 120 122 124 116 122 135 123 133 112 105 123 123 131 138 135 118 129 136 137 104 118 153 157 148 144 148 130 121 136 135 136 146 140 135 131 144 146 133 133 135 148 149 144 111 111 109 140 162 133 146 140 140 128 111 142 131 138 116 111 102 140 125 95 79 88 101 107 107 108 91 90 74 75 107 112 122 131 135 135 133 133 122 125 125 122 135 122 140 138 146 160 178 149 148 149 153 168 162 159 144 153 162 153 148 151 140 162 171 166 162 159 157 164 142 83 80 105 131 50 30 41 74 122 46 68 96 47 93 116 148 148 149 153 140 135 149 144 155 155 151 157 160 146 160 152 122 155 151 127 123 138 132 149 160 142 136 155 140 125 131 93 102 116 95 95 144 149 153 162 148 145 133 131 131 114 97 102 133 137 120 107 100 98 105 136 139 155 159 140 125 125 164 125 118 131 133 148 155 144 135 148 140 133 121 127 133 118 100 105 109 109 118 120 100 111 111 104 114 138 140 111 142 120 129 26 23 85 88 98 100 90 90 91 116 114 74 82 77 91 140 138 131 127 129 125 140 175 169 161 149 127 118 116 131 153 162 148 144 153 140 162 159 149 138 141
123 123 125 122 122 123 118 114 114 122 127 131 129 131 135 135 135 135 136 133 131 129 123 120 118 116 116 122 122 124 122 125 127 126 127 133 136 136 135 136 136 136 136 136 136 136 136 136 138 141 138 137 136 136 133 131 122 123 122 118 116 114 109 109 111 112 107 107 109 106 109 111 111 111 107 107 107 105 105 107 114 118 125 133 135 135 127 131 136 159 160 166 155 157 166 148 153 168 164 166 168 160 164 169 157 157 153 151 157 149 135 153 146 146 155 166 159 160 170 125 100 107 151 136 88 79 95 55 116 146 139 98 153 140 151 146 185 112 97 127 168 159 171 153 169 175 164 183 183 162 176 168 148 149 142 159 189 151 144 135 146 148 142 138 140 144 118 134 149 144 149 122 123 151 166 164 159 148 144 140 155 137 107 111 122 146 138 140 159 135 142 116 138 134 123 131 146 136 169 129 127 105 109 107 122 109 111 118 125 125 131 112 105 93 112 120 63 79 80 114 142 135 135 118 85 80 63 75 133 142 148 148 138 167 169 175 169 169 157 151 159 166 153 144 152 136 129 142 159 138 135 122 140 118 88 120 141 164 159 162 136 138 123 127 114 114 131 123 133 131 122 140 121 107 120 118 155 160 133 109 83 83 74 60 65 55 48 37 40 35 38 50 90 136 153 168 171 136 125 129 144 151 127 109 105 112 114 112 125 93 102 113 98 146 168 142 139 155 153 149 148 151 155 158 157 150 144 144 73 31 56 53 88 59 21 47 61 107 28 52 68 63 125 97 146 159 155 151 116 104 138 146 144 146 131 138 148 144 127 109 149 135 131 127 116 107 140 153 146 142 104 91 79 85 91 75 123 116 89 112 129 138 157 135 116 127 131 120 92 122 120 129 133 162 140 127 116 127 135 107 67 90 111 129 127 112 104 92 125 142 123 122 144 146 135 120 129 148 136 125 105 135 142 135 146 140 123 123 116 126 125 112 105 105 125 107 91 118 112 38 20 67 93 100 90 70 50 53 123 125 112 164 168 155 144 136 127 129 148 162 155 164 168 164 160 155 151 149 151 136 135 144 150 149 144 155 144 135 111 123
114 114 116 114 114 114 114 116 118 118 122 125 127 132 129 127 123 122 120 125 127 127 125 125 125 129 127 124 124 125 122 122 123 123 127 129 131 131 129 129 129 128 127 129 129 129 129 132 135 138 136 138 136 138 137 138 138 138 140 139 140 138 135 133 133 129 123 123 120 114 115 118 118 111 113 111 111 114 112 109 111 109 112 119 114 116 116 119 119 125 123 131 142 138 140 136 146 157 157 151 148 135 148 148 144 142 153 153 155 153 162 166 162 140 149 153 149 162 155 112 168 155 151 144 140 160 153 168 157 155 148 135 146 151 160 131 157 123 166 146 155 138 180 174 135 136 162 162 147 149 153 153 166 180 136 148 159 144 180 155 160 162 162 146 149 135 135 153 133 133 138 118 120 142 112 127 157 151 143 166 163 160 160 166 168 160 152 164 159 153 155 131 116 144 116 86 97 106 118 135 136 123 135 148 142 126 135 146 135 60 140 114 98 120 118 95 100 112 67 95 122 142 129 122 125 123 102 125 127 129 108 109 135 142 159 171 178 176 168 157 160 157 151 155 153 146 144 159 131 120 147 129 136 135 125 107 106 147 164 169 140 125 116 146 159 142 122 133 133 127 123 164 138 105 129 142 146 144 112 142 138 159 164 164 144 138 93 67 74 59 53 55 51 43 51 81 93 102 149 142 148 135 116 112 156 111 80 95 83 109 131 148 149 162 151 148 162 175 173 148 149 159 149 135 159 155 142 127 123 97 109 112 107 95 22 42 55 83 43 82 48 90 169 122 105 118 121 122 120 125 138 133 105 138 157 149 153 157 136 123 143 151 155 144 149 148 151 151 148 140 138 134 136 136 133 148 138 144 160 148 155 155 166 151 149 149 146 154 162 160 140 129 133 155 143 127 105 153 157 116 82 112 111 123 144 105 105 129 173 164 144 160 149 120 123 139 138 140 142 151 120 129 136 109 109 104 98 85 91 87 79 63 60 86 86 112 135 136 102 40 24 82 155 135 111 149 129 111 144 146 123 137 146 142 144 147 147 125 111 105 114 109 133 138 156 153 155 142 142 145 139 148 149 149 149 146 127 122 113 105
112 111 109 109 109 111 111 110 114 114 118 120 112 112 120 120 119 122 116 114 114 114 118 118 118 123 123 118 120 125 125 125 125 125 123 123 123 123 120 119 120 120 121 120 120 120 120 121 123 126 125 123 131 136 135 135 136 136 136 136 136 135 135 135 136 138 135 131 131 136 136 136 135 129 130 126 120 118 112 105 105 104 104 111 112 114 107 107 107 107 107 109 107 105 109 116 120 123 123 127 129 131 136 135 138 135 142 140 136 144 142 157 164 164 168 153 136 160 151 148 146 140 142 136 151 151 140 125 149 123 148 151 159 153 157 144 151 127 140 133 151 133 129 133 149 135 175 197 142 155 159 153 144 129 174 148 185 175 192 162 199 173 173 186 173 157 155 171 144 157 186 155 129 114 118 122 127 118 146 144 144 138 142 146 149 135 148 144 155 153 153 153 146 146 148 142 136 135 93 116 136 137 131 148 162 163 159 151 168 90 93 114 131 127 119 90 137 116 104 111 136 149 153 135 133 149 133 136 138 136 90 67 64 91 140 146 115 133 135 133 168 159 116 131 131 112 122 131 129 122 58 138 127 131 142 123 109 141 149 153 168 170 155 151 166 148 147 135 140 157 146 142 135 135 135 122 105 102 87 74 98 110 119 155 118 149 142 129 148 142 136 149 151 103 75 47 47 51 90 135 160 152 127 116 151 153 140 146 127 142 148 155 143 138 138 149 149 147 153 188 175 148 153 155 149 138 133 114 114 111 86 114 162 168 42 23 36 58 56 70 74 114 144 104 118 120 138 127 111 123 135 128 125 146 153 144 140 148 146 133 149 151 146 144 116 144 151 136 144 151 133 138 135 129 136 144 149 149 135 138 129 107 123 136 131 144 149 140 153 142 127 146 148 104 102 159 142 146 120 138 157 148 149 153 159 165 153 151 143 145 144 131 133 129 120 160 149 136 138 144 148 137 110 105 122 131 140 142 149 155 157 144 133 120 133 133 122 98 109 88 47 88 116 111 74 80 119 125 109 136 148 159 155 136 123 122 100 97 131 127 125 90 100 97 86 117 120 91 102 104 107 120 123 133 138 129 131 129 120 112
123 122 116 114 109 109 114 112 114 115 116 116 112 112 113 111 111 112 114 112 112 109 109 109 112 112 112 114 116 120 120 122 123 122 120 118 118 117 116 116 118 116 118 121 116 118 120 118 118 120 122 123 125 129 134 133 133 133 135 136 135 132 134 133 136 138 136 136 136 138 138 139 136 139 138 136 133 135 131 125 120 119 114 112 112 114 111 109 111 107 109 107 107 105 104 102 97 111 112 114 111 116 120 116 125 127 125 131 133 135 140 135 148 157 160 153 153 157 151 144 146 158 162 168 144 149 149 157 149 151 153 148 144 149 149 127 153 136 164 152 120 111 157 136 148 142 151 162 138 148 155 160 148 149 122 111 160 162 172 159 141 153 142 168 157 153 162 160 118 160 169 170 181 142 146 121 155 173 183 175 155 153 157 162 166 155 129 122 149 159 146 151 151 140 144 151 159 151 127 140 147 125 109 104 112 142 146 144 160 142 70 159 133 145 105 98 135 135 120 130 140 155 140 138 148 141 129 125 136 125 118 138 107 55 77 102 91 97 111 140 148 151 163 144 146 151 183 150 146 142 100 126 157 162 153 169 161 140 116 105 153 159 141 148 157 175 166 166 159 158 151 151 149 148 142 146 146 149 148 135 131 127 136 153 131 136 136 144 144 140 144 134 133 127 97 105 118 134 107 109 133 153 151 155 134 148 162 173 178 172 153 138 133 129 135 131 136 160 138 183 122 71 59 111 148 155 148 136 118 118 135 136 157 143 87 25 67 43 83 69 80 136 97 93 159 164 160 172 127 120 120 148 136 135 137 142 142 151 148 138 144 156 109 83 100 146 140 120 102 67 56 64 118 159 144 142 138 142 122 133 120 129 135 133 149 118 116 109 125 155 153 168 186 168 157 155 146 153 142 153 153 153 153 131 120 138 116 93 118 123 80 93 129 186 147 138 148 138 136 160 162 149 143 148 138 140 127 116 122 107 118 135 148 141 136 135 148 157 143 138 151 136 121 133 120 97 97 116 91 86 82 70 67 58 50 51 38 51 50 71 109 81 90 75 82 98 97 82 90 100 104 102 75 86 100 75 56 51 60 85
127 129 127 122 125 123 124 118 116 116 116 116 114 114 111 111 114 114 115 112 114 116 112 114 114 118 116 116 119 118 119 122 125 126 127 125 120 120 120 122 120 118 118 118 119 102 111 120 119 122 123 125 125 127 125 125 127 127 129 133 125 122 126 129 131 129 132 135 136 138 138 138 136 136 135 135 133 133 135 133 136 136 133 133 131 125 123 116 111 109 109 114 120 114 109 113 111 114 112 112 112 114 108 102 107 111 112 116 114 116 118 120 124 129 129 131 140 146 146 142 127 144 142 129 133 157 146 133 138 148 144 149 136 161 160 151 155 148 143 166 148 154 142 145 148 155 150 138 116 127 160 155 133 149 154 153 143 149 134 140 138 151 166 178 107 141 176 160 157 160 166 114 185 146 151 160 114 130 131 183 149 149 196 166 179 176 199 176 175 175 169 147 144 146 129 136 159 162 144 169 145 144 122 107 127 162 157 144 83 53 29 98 74 68 122 122 125 151 153 142 140 151 153 138 127 114 132 133 142 123 131 125 107 109 140 116 109 135 123 135 136 146 155 153 159 166 157 168 181 162 140 149 168 181 178 189 180 168 160 166 153 138 120 125 133 136 136 171 175 140 125 151 153 151 155 135 144 140 136 149 149 171 155 144 157 146 120 95 104 95 107 93 97 86 80 97 111 169 176 148 163 176 138 131 123 123 122 144 159 164 157 155 151 138 107 122 135 125 112 110 74 97 127 114 151 157 157 148 133 135 144 129 133 150 112 30 70 45 70 79 67 120 114 127 135 122 138 159 146 144 108 175 160 136 138 149 160 160 145 146 155 138 68 83 116 144 143 144 133 118 104 122 149 160 153 148 129 104 77 138 157 140 129 133 144 114 153 151 131 136 148 153 148 153 142 114 95 136 144 146 135 131 151 164 149 129 118 112 133 142 135 142 127 155 127 83 88 111 98 112 134 140 144 140 131 112 88 61 75 68 73 160 133 127 109 98 105 136 135 122 127 120 100 133 146 131 109 98 97 97 102 59 64 104 116 123 98 80 77 59 82 114 129 121 118 114 113 107 131 140 140 122 111 112 118 109 95 91 85 77
127 125 123 123 125 123 127 122 120 123 122 123 122 120 123 123 125 125 122 122 122 120 120 118 116 120 112 118 116 116 116 116 118 118 118 118 120 118 116 118 116 116 119 114 114 104 108 118 116 114 116 120 117 112 109 114 111 111 111 111 111 111 112 112 114 116 116 120 122 127 127 127 129 135 136 136 136 136 140 139 138 142 142 143 142 144 142 140 138 133 131 133 136 131 131 129 117 116 116 112 111 112 109 111 107 116 116 114 109 109 109 114 116 116 109 112 111 111 112 114 125 125 123 131 135 135 136 135 140 136 142 151 126 148 146 116 133 149 156 155 146 149 162 157 155 162 149 141 159 142 133 125 148 147 128 123 144 151 144 129 138 136 155 126 157 120 127 149 136 95 142 100 133 159 162 144 116 142 155 149 157 135 149 181 157 149 166 126 153 155 151 168 142 151 176 183 144 142 164 159 164 149 133 127 61 68 88 74 55 58 82 80 74 90 91 91 88 123 125 120 107 98 88 45 100 114 159 140 140 153 146 153 153 123 162 146 144 137 144 153 153 153 148 149 148 151 154 169 150 162 157 148 135 133 120 136 164 171 142 159 157 150 151 129 142 133 154 155 168 166 155 146 153 151 162 136 129 142 153 153 132 125 105 136 162 159 144 127 144 111 105 86 85 115 138 122 129 164 176 175 169 180 166 159 146 140 118 112 139 149 85 77 82 80 104 104 82 85 100 126 142 160 168 163 159 165 169 164 155 144 138 148 159 155 143 49 35 46 55 64 61 138 160 163 149 83 52 68 104 120 116 150 166 164 129 116 142 120 138 131 142 151 129 142 153 149 142 157 160 151 121 136 149 142 140 151 140 114 138 153 160 138 144 162 159 146 146 146 148 153 142 133 133 102 87 90 91 107 118 157 144 153 157 151 159 138 127 146 160 137 109 136 144 142 135 117 125 132 135 127 133 127 116 120 136 142 142 109 118 110 112 135 148 146 144 120 99 77 75 131 146 107 105 86 61 93 107 97 131 127 133 139 133 142 138 123 122 114 135 143 137 127 116 123 120 121 138 136 133 136 131 133 129 148 151 151 148 148 142 140
120 120 120 123 125 122 125 127 125 127 129 131 129 129 130 129 129 127 127 125 122 124 123 122 121 116 116 114 114 116 116 109 111 115 109 108 102 105 109 107 107 107 107 111 112 116 114 112 112 112 112 114 114 109 111 109 109 109 109 109 111 111 111 114 112 113 112 115 114 118 122 123 125 130 136 136 135 135 135 136 136 140 140 138 141 142 142 142 144 142 140 140 138 142 140 140 140 135 129 129 122 114 116 114 105 102 102 102 104 109 111 114 109 102 105 109 107 114 122 124 131 136 138 140 142 136 138 140 142 140 142 141 138 138 140 140 142 133 136 135 140 133 135 148 153 125 129 162 146 148 143 148 138 144 91 142 146 142 136 148 138 148 166 145 186 134 116 142 133 127 162 112 93 127 109 157 160 146 162 151 166 146 123 144 122 180 159 127 133 122 133 162 125 162 168 168 131 149 148 153 173 194 203 142 146 112 142 153 148 151 153 157 146 140 129 116 85 98 97 104 104 79 77 59 98 105 80 54 100 105 123 127 135 104 146 153 148 133 149 151 154 153 151 151 153 151 147 159 162 155 155 148 146 140 116 105 104 107 119 95 93 138 123 122 131 135 156 164 157 148 160 180 159 127 117 125 119 144 175 155 153 159 114 130 168 176 155 136 122 91 106 140 100 96 109 105 133 135 151 160 135 111 120 130 131 133 157 160 136 146 146 123 107 102 104 112 107 105 117 138 140 122 157 157 155 159 160 168 159 151 153 152 146 102 142 85 22 29 60 67 61 148 135 153 149 122 111 105 131 120 76 67 129 151 124 116 144 125 130 160 155 151 127 123 144 151 149 138 144 146 146 138 140 131 129 118 102 83 125 148 146 148 125 89 153 157 148 153 163 155 148 146 148 155 146 144 142 136 127 136 144 175 160 148 146 149 160 160 149 118 95 122 153 149 149 155 155 146 140 138 114 85 82 80 79 109 144 133 133 123 144 131 138 146 135 136 123 111 85 116 144 131 123 79 64 106 138 137 144 156 173 151 144 137 133 131 135 151 138 140 135 142 136 131 144 116 123 123 138 127 114 111 68 93 127 135 97 138 139 136
118 123 127 129 129 128 129 129 129 129 129 127 129 131 131 131 129 124 126 123 120 122 123 124 123 120 120 120 120 120 120 119 116 112 112 111 107 107 112 104 104 107 104 109 111 112 111 114 112 107 111 111 118 120 116 116 118 117 116 114 116 117 116 123 122 120 118 118 120 118 122 122 120 120 120 122 123 123 122 123 125 128 127 123 129 131 129 133 130 128 129 129 127 127 123 125 129 131 131 133 131 129 123 118 114 120 125 127 131 133 136 134 135 135 136 134 133 131 131 135 135 137 136 136 136 136 136 138 138 140 138 140 140 140 144 144 142 142 142 140 138 138 140 144 146 131 144 144 135 133 140 146 140 146 120 141 138 138 140 135 133 166 160 149 140 168 157 122 142 150 148 162 135 149 144 127 135 74 93 93 109 144 135 140 104 153 114 102 104 135 134 140 95 148 133 138 140 144 135 188 144 178 125 180 155 153 144 189 146 120 153 166 148 164 146 127 148 162 157 122 144 127 138 107 53 45 48 64 68 43 52 46 55 84 68 65 107 109 160 153 155 159 146 153 148 133 146 157 169 181 159 155 163 164 151 142 146 136 132 146 151 151 146 155 144 138 148 140 131 148 148 118 149 159 153 151 140 168 155 152 149 149 146 136 142 144 127 149 143 155 153 121 76 83 104 71 75 58 89 97 70 73 131 105 128 122 142 144 153 136 142 138 131 138 133 116 105 104 123 144 122 98 116 135 153 148 156 154 142 138 155 164 146 135 125 122 60 75 122 135 115 126 140 120 118 136 140 114 82 85 116 111 122 127 122 114 112 105 111 138 153 169 153 142 148 149 131 135 95 86 111 97 75 72 107 135 102 98 127 144 153 129 129 127 162 153 159 154 159 162 151 138 127 126 135 139 144 138 136 138 136 157 148 127 133 141 142 135 136 151 146 151 148 146 146 144 151 127 109 122 77 80 63 65 102 114 149 120 105 90 83 112 146 176 130 97 109 140 136 129 138 129 157 149 138 130 137 148 146 140 151 159 149 149 149 149 142 153 136 140 146 146 140 133 157 146 138 135 116 142 120 100 107 100 77 111 118 125 111 135
118 120 120 122 123 123 125 129 127 127 123 123 124 125 123 123 120 116 115 114 114 116 118 114 114 118 118 118 118 116 118 118 118 116 119 122 123 116 114 111 111 107 111 114 112 111 107 110 109 109 109 109 114 118 115 114 114 114 114 114 117 118 120 123 116 120 120 120 120 120 120 118 114 114 114 112 116 114 112 112 114 112 116 118 120 114 112 112 111 111 112 112 112 112 114 116 123 122 120 122 127 135 136 138 136 135 138 138 139 136 136 136 138 138 136 136 137 136 136 136 136 136 136 135 135 135 133 131 135 137 136 136 136 136 136 136 138 140 140 138 136 136 136 136 136 133 127 125 127 127 138 136 135 140 146 131 133 136 144 133 129 144 155 136 127 150 125 120 154 144 140 149 149 167 142 144 157 109 102 97 109 116 98 139 136 142 133 105 140 136 129 166 122 122 135 129 131 122 123 131 128 140 114 117 173 159 164 155 149 144 127 144 144 164 183 114 133 143 155 112 91 27 39 77 185 186 151 169 173 148 129 109 73 68 45 44 52 85 164 151 136 148 127 120 141 109 135 146 157 166 133 155 175 162 166 166 171 169 166 155 153 149 148 149 146 154 157 144 142 146 140 142 136 159 166 151 111 135 140 145 159 141 123 136 135 131 90 136 160 146 131 148 155 146 138 125 104 75 64 79 90 120 151 148 100 120 123 91 85 98 74 70 86 118 136 138 104 112 142 162 125 123 122 114 129 95 65 90 131 109 131 149 166 196 140 91 122 142 125 122 131 122 93 109 83 88 120 108 90 89 95 110 112 111 109 95 120 90 91 102 111 114 133 148 144 125 131 104 74 91 88 75 70 90 102 111 123 146 149 146 142 125 117 142 191 162 138 109 129 136 129 123 127 133 138 155 153 162 157 144 153 157 149 142 148 135 149 146 151 140 143 153 149 144 122 123 160 138 136 133 105 118 135 151 160 123 127 138 140 144 137 125 122 142 159 151 157 171 146 142 148 109 149 158 160 155 144 144 142 135 133 146 142 136 127 148 135 135 140 133 133 133 127 118 93 91 123 129 135 157 140 120 136 144 131 88 86 129 144 133
111 110 111 112 112 109 112 118 114 114 112 114 109 105 109 109 105 107 111 111 114 114 112 112 114 116 116 119 118 118 120 122 120 120 125 127 127 127 127 127 127 127 127 121 116 114 116 111 107 111 111 111 111 111 111 111 112 112 112 109 107 112 116 116 118 121 124 123 123 123 123 123 122 119 116 109 109 111 112 112 112 111 112 112 112 114 112 114 123 125 125 125 131 133 135 135 135 133 129 129 129 133 133 133 133 133 133 133 135 136 136 136 136 136 136 136 135 136 135 135 136 136 136 136 136 136 135 135 136 136 135 135 136 136 138 138 136 136 136 136 136 136 135 135 135 135 131 127 128 133 136 138 138 140 140 144 142 140 142 142 138 133 131 131 136 140 146 138 142 140 149 133 131 114 114 148 146 166 129 146 135 136 138 146 112 122 144 120 135 155 157 169 153 107 83 153 138 107 127 149 175 153 149 114 122 129 105 112 127 136 142 156 131 142 156 144 131 132 123 105 129 93 83 123 146 159 127 151 181 140 98 146 144 127 114 129 171 111 104 116 105 155 111 134 136 114 120 95 93 90 102 121 97 112 136 148 148 131 142 159 171 140 146 129 130 112 149 186 126 109 111 102 98 79 133 142 125 116 129 142 155 146 139 138 142 150 148 144 149 136 123 148 148 140 138 135 116 86 114 146 130 125 159 127 110 149 148 133 102 107 100 118 111 112 102 136 134 118 125 155 114 98 105 148 150 138 135 149 140 140 138 120 127 133 151 112 105 109 109 105 90 90 79 129 140 142 127 86 86 140 135 109 138 149 148 138 122 127 147 97 47 105 112 144 159 114 114 133 93 85 97 146 144 123 88 79 111 160 164 175 166 142 191 173 146 123 102 138 147 155 160 159 148 131 140 155 168 146 137 149 136 114 164 166 157 138 153 159 140 131 131 164 151 148 149 125 155 168 155 157 149 148 140 144 171 149 162 162 142 153 148 149 148 144 144 138 125 140 159 148 157 153 146 146 138 161 146 123 112 85 86 93 73 73 97 135 120 140 146 129 118 113 91 83 131 109 107 104 75 80 111 140 151 136 118 95 85 104 100 106
112 107 107 116 112 100 105 111 105 108 107 110 109 109 112 112 112 112 111 114 116 116 116 114 116 116 116 120 122 125 128 131 131 131 131 131 127 127 127 126 127 127 127 125 122 123 123 120 116 114 114 114 109 109 112 116 122 123 124 122 120 121 123 123 123 125 129 127 127 128 129 131 131 131 129 123 123 123 123 122 120 122 123 129 131 135 135 137 138 138 136 135 135 135 136 136 136 135 135 135 133 131 133 133 133 133 133 135 135 135 136 136 135 136 135 135 136 135 135 136 136 136 136 136 136 138 139 136 136 138 138 138 136 136 136 132 128 131 133 135 135 136 136 140 140 138 140 140 140 142 142 142 138 136 138 135 131 127 127 125 127 135 133 138 140 146 146 148 138 139 144 140 127 129 127 153 159 144 109 150 135 136 127 159 120 129 127 138 127 118 121 135 147 144 142 114 125 122 98 130 77 88 70 74 104 122 79 75 63 83 120 112 125 149 144 114 131 122 133 136 159 127 139 140 123 108 70 74 68 34 41 52 85 46 41 42 71 54 44 71 55 38 46 43 39 36 44 45 42 54 59 45 55 75 82 54 88 56 65 123 97 114 129 104 135 102 105 104 105 107 97 97 95 79 77 123 151 157 149 140 149 155 138 125 138 157 151 151 148 138 135 146 155 144 140 138 135 135 136 135 144 136 134 118 135 139 146 138 153 168 137 148 148 149 112 105 140 127 118 160 168 153 157 175 173 160 143 140 151 146 162 162 135 91 82 104 125 133 138 147 138 98 70 75 111 112 97 111 97 109 151 152 140 164 155 159 160 157 160 175 136 118 109 88 104 133 148 164 140 123 93 70 91 162 153 146 151 171 159 131 144 160 173 162 148 105 114 140 144 133 147 171 155 144 125 127 162 155 135 161 173 150 189 179 149 166 176 148 117 112 80 91 122 155 153 136 149 168 148 156 118 95 136 138 148 153 120 90 89 160 114 102 116 127 118 77 82 133 149 116 114 120 131 122 102 127 129 148 133 131 130 131 123 107 136 140 142 125 88 144 144 138 131 105 104 104 131 125 125 146 91 77 97 100 86 155 169 155 133 125
107 109 109 111 109 105 116 114 107 105 107 109 110 111 111 111 111 116 118 122 120 118 121 116 118 118 116 116 116 120 122 120 120 120 122 122 120 120 120 122 123 125 127 125 125 123 124 125 125 122 123 122 125 125 127 127 127 129 131 127 125 125 125 127 127 126 129 131 130 127 129 131 133 133 131 131 131 131 131 126 125 118 115 125 127 129 131 133 133 131 136 136 133 133 133 134 133 133 134 135 131 131 135 133 133 133 135 136 136 136 136 136 136 135 133 133 136 135 133 135 136 136 135 131 127 129 129 131 129 133 138 138 136 136 138 133 131 133 133 135 136 138 138 138 130 127 125 125 121 120 119 120 120 118 122 123 120 122 126 129 133 133 135 138 140 144 144 144 144 144 144 138 140 142 146 144 140 136 141 134 135 140 151 133 135 127 125 103 116 90 65 73 74 84 80 63 50 73 67 59 53 91 48 33 51 38 32 32 31 34 43 52 41 53 38 55 46 38 29 43 44 32 65 31 38 39 38 28 26 50 73 70 38 77 53 60 58 30 30 68 74 53 35 29 40 40 39 28 44 42 32 39 41 28 28 29 37 60 58 45 32 38 41 42 45 67 70 50 47 48 34 51 71 71 86 107 126 157 102 59 83 88 133 146 144 153 155 153 151 149 142 142 149 146 144 142 138 131 125 136 148 151 138 148 152 140 135 141 148 159 146 136 151 157 151 123 149 178 173 175 168 168 159 168 168 180 178 155 166 162 144 116 73 85 112 131 116 133 100 114 169 142 131 118 130 127 127 160 153 159 164 118 104 125 148 153 173 155 160 183 175 160 146 150 127 129 129 154 180 169 142 102 90 129 139 176 163 160 164 138 133 143 175 171 178 162 152 155 166 149 159 164 164 146 169 162 162 146 115 120 133 140 138 123 125 97 112 149 145 120 114 122 112 126 116 118 98 123 123 146 144 118 75 91 144 144 77 93 102 155 131 118 112 104 79 107 149 136 175 157 124 135 144 125 122 118 131 148 141 149 142 149 131 125 118 125 74 86 82 140 142 123 142 136 112 91 105 77 104 148 120 86 86 122 109 123 123 138 142 155
112 105 105 107 104 105 105 107 105 105 107 111 109 109 105 104 105 107 105 104 107 111 112 111 114 114 116 114 114 116 114 112 112 112 112 112 114 116 118 122 125 127 127 125 120 112 120 133 133 131 131 127 126 127 125 127 127 129 131 129 127 128 127 127 129 129 131 133 133 130 131 131 132 131 131 131 131 131 131 133 135 131 131 131 130 129 129 132 131 131 133 136 133 133 133 133 131 133 133 133 131 132 133 133 133 135 135 133 135 136 136 136 135 133 133 135 136 136 135 135 135 135 133 129 125 125 120 116 116 118 123 125 123 122 123 123 125 124 123 123 123 124 123 120 115 111 114 116 114 112 107 109 107 109 114 118 122 125 131 135 136 136 134 136 135 135 133 136 136 135 131 131 130 131 130 131 130 131 132 136 140 140 140 138 140 140 135 136 127 113 93 109 98 56 36 41 38 32 23 29 38 38 50 53 58 34 36 68 41 31 65 54 32 59 45 42 44 33 34 42 37 22 29 45 50 48 46 46 61 41 41 40 46 36 68 61 62 48 40 47 39 28 35 37 52 43 60 54 41 39 40 46 52 42 73 67 51 35 38 42 41 22 29 38 28 26 26 31 28 32 41 24 39 44 32 30 52 64 35 34 63 76 82 92 131 127 122 155 149 164 168 159 146 159 162 157 148 148 140 90 127 159 151 149 149 148 148 142 136 123 100 125 173 171 151 145 159 166 178 186 153 144 151 169 178 175 185 164 153 97 88 91 111 116 98 131 111 146 142 118 107 90 60 91 120 111 140 166 157 176 194 136 77 60 86 118 161 148 148 171 168 166 173 157 175 171 145 118 135 166 203 206 175 144 136 169 201 188 163 164 166 148 157 148 158 173 168 159 160 169 160 153 164 149 131 160 166 156 156 152 127 142 135 129 155 140 138 111 120 93 90 113 144 153 138 135 105 102 127 129 129 102 95 87 68 98 97 114 106 129 111 98 97 129 111 120 136 120 145 160 155 146 114 85 119 142 146 131 114 82 82 105 80 118 135 129 95 98 97 136 129 92 95 125 140 125 116 99 86 73 47 74 86 111 136 135 112 102 73 71
127 122 112 111 114 105 104 104 104 105 105 107 107 109 108 109 105 105 104 102 102 104 107 102 102 98 102 109 111 116 118 122 122 122 125 127 122 123 127 127 127 127 122 124 127 133 137 132 133 133 131 127 127 127 127 127 130 131 131 131 131 129 127 127 127 131 131 133 132 130 131 131 130 131 131 131 131 131 131 129 129 129 131 131 129 131 131 131 134 134 133 133 133 133 133 131 133 136 135 135 136 133 133 133 133 136 135 133 135 136 136 136 134 133 133 133 136 136 135 133 133 133 134 131 127 120 116 116 114 115 114 114 122 117 114 114 120 120 120 116 114 114 114 114 114 118 122 125 125 125 127 131 129 129 129 129 131 129 131 133 131 129 126 127 125 123 125 123 116 114 114 120 122 123 127 129 131 129 131 133 135 135 138 136 138 140 142 143 146 148 146 144 149 151 138 136 131 118 93 82 82 58 41 55 51 47 44 53 46 36 39 29 40 51 60 41 32 41 29 21 34 61 41 35 32 59 41 39 40 31 47 53 54 54 48 30 51 58 53 51 35 47 51 21 44 25 28 64 55 60 35 52 33 60 52 56 79 61 51 38 52 54 53 48 32 36 38 43 47 42 42 39 43 38 29 40 33 46 47 52 36 45 36 40 37 29 35 34 29 59 53 98 77 53 70 95 159 157 157 164 168 161 160 162 157 149 149 155 155 149 157 136 149 169 157 148 155 153 155 151 144 140 144 149 140 129 136 149 142 131 131 127 129 129 131 138 109 107 148 142 136 140 73 102 99 146 183 153 120 138 135 140 138 125 135 125 135 142 136 171 179 153 168 144 159 160 109 83 86 107 123 97 80 131 138 160 169 159 175 180 160 151 145 159 178 173 153 118 125 146 148 151 160 151 153 142 95 109 135 118 169 118 97 104 144 162 151 115 107 74 90 91 93 112 122 125 125 175 175 151 162 155 138 118 90 90 100 116 97 102 85 90 97 114 116 97 95 109 85 95 111 99 80 97 149 101 93 85 59 42 79 100 95 90 135 116 123 114 123 125 127 114 105 116 129 142 120 119 116 122 127 131 138 105 72 127 129 140 140 120
104 104 111 114 116 114 123 135 136 127 118 103 98 104 113 113 104 104 107 109 109 111 112 114 114 114 116 114 112 112 114 125 124 125 123 123 125 125 125 125 125 125 125 125 127 132 131 128 129 131 131 129 131 133 133 133 133 133 133 133 133 129 127 127 127 131 133 129 131 131 129 129 132 131 131 131 131 131 134 130 128 131 131 131 131 131 131 133 133 133 133 133 134 133 133 133 133 135 135 135 133 135 135 133 133 136 136 135 136 136 135 137 135 135 133 135 136 135 134 133 133 133 134 131 130 118 114 115 111 104 95 97 102 100 104 111 120 122 122 123 123 122 117 117 123 129 129 131 131 133 131 133 133 133 131 131 131 129 131 131 131 129 125 125 123 125 129 129 129 129 129 129 125 125 127 127 129 129 127 129 129 123 131 133 136 138 138 138 135 135 135 134 136 138 138 143 146 144 149 147 146 151 148 144 137 138 125 107 91 65 47 32 42 28 31 29 30 30 32 30 38 41 37 22 31 37 43 44 34 35 38 31 26 36 35 29 44 40 54 58 38 45 44 38 63 55 42 50 41 51 27 41 35 63 58 53 73 74 51 55 71 46 55 58 41 63 61 52 65 65 47 46 85 51 53 105 77 75 86 61 38 46 65 67 54 51 98 38 36 51 33 37 39 26 31 32 47 51 59 51 64 71 80 83 88 118 135 146 159 166 164 159 155 162 164 157 157 148 148 148 153 148 138 144 159 155 142 141 144 144 140 148 138 120 102 104 138 138 138 135 125 104 140 149 122 112 111 122 177 196 134 116 89 109 116 129 133 136 135 189 196 151 157 178 153 136 151 168 138 114 127 97 118 160 123 125 133 104 82 95 129 136 137 151 175 146 146 118 109 145 153 112 118 136 162 164 155 116 82 120 129 114 114 114 89 108 111 123 166 164 136 82 90 118 138 159 169 159 140 133 135 146 127 100 88 105 93 88 102 80 70 104 104 91 70 83 80 83 68 71 58 46 98 112 104 90 56 58 91 85 86 98 105 93 93 86 100 114 125 102 111 142 131 126 123 116 112 114 109 112 106 98 100 111 112 122 131 129 118 138
118 104 109 116 114 118 125 125 138 131 127 122 118 120 118 118 118 120 123 125 125 126 125 123 122 122 123 129 125 125 129 125 123 123 125 125 125 125 125 125 125 127 127 126 127 129 129 128 129 131 131 131 133 133 133 133 133 133 133 133 133 132 133 129 127 131 133 129 133 135 133 131 131 131 131 131 131 131 133 131 131 131 131 131 131 131 131 133 135 133 133 134 133 133 133 133 133 133 131 133 133 135 135 133 133 136 136 136 136 136 136 135 136 136 138 138 136 135 133 133 133 133 133 135 135 131 127 127 127 121 114 107 107 105 114 115 123 127 125 126 127 123 127 127 131 131 131 129 129 127 129 129 127 129 129 129 129 131 131 131 132 129 125 129 127 127 129 129 129 129 130 129 125 125 127 124 127 127 127 127 125 125 125 126 131 131 129 127 127 129 131 136 133 131 129 127 120 118 120 120 116 114 120 123 129 129 129 131 135 131 125 116 109 100 83 71 59 53 46 56 41 43 29 31 38 33 30 37 31 24 29 32 32 40 40 37 30 31 34 28 29 40 35 38 45 43 38 30 40 38 27 38 50 27 31 38 26 32 25 37 53 73 50 34 70 77 53 53 73 65 61 89 73 63 61 60 75 53 48 54 75 65 79 95 58 48 80 50 58 44 34 48 39 42 47 31 27 18 33 40 37 42 47 21 46 34 44 46 47 46 68 68 80 87 97 104 94 131 144 140 151 160 157 144 142 148 115 120 93 120 122 122 112 88 97 98 79 82 88 138 164 138 135 148 129 112 114 75 100 68 56 56 83 120 154 149 135 159 164 169 173 153 142 156 131 136 157 180 148 123 88 86 142 171 131 127 136 149 135 120 140 121 138 158 164 153 142 149 146 151 157 142 151 114 119 144 114 46 129 138 114 117 142 148 149 162 144 135 158 133 116 120 127 116 127 146 98 73 104 94 86 112 125 93 102 83 73 62 58 63 91 122 59 70 77 75 68 64 83 70 56 60 68 90 100 91 88 66 74 80 86 97 83 73 64 83 123 75 68 79 85 102 120 122 127 123 83 112 118 105 114 105 82 80 83 97 116 120 122 114
129 118 112 111 109 110 110 109 111 116 114 118 123 125 122 116 125 131 120 131 127 125 131 108 104 113 122 123 123 121 120 120 122 123 125 125 125 125 123 125 127 127 127 123 127 129 129 129 129 131 131 131 131 131 131 129 129 133 133 134 133 134 135 133 133 133 133 135 135 131 133 133 131 131 133 133 131 131 131 131 131 130 131 131 131 131 131 131 132 135 133 133 133 133 133 133 133 133 133 133 133 133 131 131 131 133 133 136 136 136 136 136 138 138 136 136 135 131 131 131 131 131 131 133 133 131 127 129 135 133 136 136 136 127 127 122 119 120 116 111 111 111 116 123 129 135 129 127 125 126 127 127 127 128 127 127 127 129 129 127 127 127 127 127 127 127 127 127 127 127 127 127 128 127 130 127 125 125 128 134 133 134 133 129 127 122 123 125 118 118 120 120 116 118 123 124 122 120 123 120 116 116 116 116 120 120 120 119 117 120 122 123 127 127 129 131 131 131 120 118 112 95 88 75 58 53 50 42 43 38 42 45 40 41 36 29 35 39 30 27 31 34 33 31 37 44 33 37 29 29 29 34 33 25 30 44 32 33 44 30 31 37 33 50 43 45 32 45 67 75 70 44 58 75 58 44 52 61 54 42 83 122 83 80 85 55 63 54 88 56 44 67 59 73 53 33 50 75 42 41 39 52 50 46 31 25 25 27 45 39 41 40 60 54 26 21 32 55 56 53 45 37 104 135 127 91 51 136 127 102 131 160 148 116 127 139 122 59 71 79 138 142 129 133 129 116 114 118 104 98 105 64 86 95 97 123 125 114 116 148 109 55 32 70 135 97 122 131 164 149 131 126 149 116 123 124 111 149 185 180 155 118 149 175 168 153 146 146 155 140 98 91 109 166 169 142 138 169 164 140 122 138 149 130 133 149 153 175 168 140 112 122 125 109 92 102 109 112 97 88 86 82 75 77 73 68 71 65 61 74 111 70 70 83 80 91 65 63 88 58 44 55 90 131 112 83 86 90 85 88 105 83 65 54 67 60 64 102 63 67 74 73 86 98 90 91 77 86 102 95 112 123 104 80 71 73 91 114 98 85
114 112 107 109 107 109 116 120 118 118 118 124 125 123 118 104 127 129 105 125 123 124 129 118 120 125 127 127 123 122 125 125 123 123 122 123 125 123 127 127 128 127 127 129 131 131 131 131 131 131 131 131 131 131 131 131 130 133 134 133 133 131 131 132 133 133 133 134 136 136 133 132 131 130 133 133 131 131 131 131 131 131 131 129 129 131 131 131 131 131 133 133 133 133 133 133 133 133 133 133 133 136 135 131 131 133 131 129 129 125 118 105 95 97 109 112 122 125 125 125 125 127 129 131 133 129 125 127 127 125 125 123 122 114 112 107 104 104 105 109 109 109 106 120 125 125 127 127 127 127 127 127 127 127 127 127 127 125 125 127 127 127 127 127 127 127 127 127 125 125 127 129 129 131 133 131 132 127 129 133 131 127 129 122 110 105 104 107 109 106 102 100 101 98 95 95 95 93 98 100 104 107 109 107 104 104 100 107 104 103 102 104 105 107 114 114 116 118 123 120 118 122 127 127 123 122 118 109 109 102 93 88 80 82 68 70 64 64 55 50 40 40 32 22 26 41 26 35 32 37 39 38 33 33 32 26 32 26 31 35 35 30 40 44 38 44 48 43 37 38 41 32 38 50 67 48 29 53 42 24 65 109 73 58 65 68 58 59 59 79 60 39 45 32 59 86 43 46 54 68 52 52 48 48 56 39 24 38 30 25 35 37 37 33 26 37 40 44 32 38 52 26 30 38 72 25 53 61 77 35 26 43 82 116 105 105 136 121 90 109 114 111 106 140 181 159 127 116 114 109 104 122 122 105 85 88 85 86 90 68 52 36 43 109 116 90 86 90 125 140 160 131 133 127 93 97 97 109 88 95 79 59 56 93 127 155 148 123 142 160 144 128 133 168 178 151 104 135 164 178 180 178 166 149 135 131 109 127 129 146 160 166 160 140 104 91 102 115 95 65 93 107 79 80 74 73 74 54 54 74 64 68 80 80 76 83 105 118 114 91 70 71 88 122 151 140 104 107 107 111 116 123 106 127 100 77 71 97 129 90 75 77 74 59 67 74 85 55 46 64 83 125 125 85 68 71 67 71 65 77
120 116 116 114 112 116 123 125 120 122 120 123 116 111 111 116 113 116 118 123 118 122 122 125 129 133 131 127 131 133 133 129 138 116 107 111 109 122 120 123 125 123 123 127 129 131 131 131 131 133 134 131 129 131 132 131 131 131 133 133 129 129 129 125 130 131 131 129 129 131 133 133 129 130 133 133 133 134 133 133 133 131 131 129 129 131 131 131 131 131 131 131 132 133 133 133 133 133 133 131 131 131 131 131 131 131 131 131 129 122 120 116 112 112 116 118 123 123 123 120 118 116 118 119 118 113 105 102 98 104 104 100 102 107 112 112 112 116 118 120 120 123 122 127 127 127 127 127 127 127 125 125 125 125 122 125 126 123 123 125 123 123 125 125 125 127 127 129 125 125 123 122 120 120 127 125 123 126 122 118 116 105 98 95 88 86 90 86 86 86 85 85 85 82 77 79 77 70 69 68 68 67 68 68 70 67 70 70 74 82 83 82 80 80 82 85 90 97 102 103 100 104 111 112 114 114 114 114 112 109 109 105 97 102 105 105 107 112 105 105 102 102 91 75 64 54 48 46 41 42 47 41 38 41 35 32 29 42 42 32 35 27 31 38 32 36 38 34 31 34 33 29 33 43 41 43 34 47 53 42 43 44 53 55 36 51 37 53 39 54 42 40 41 55 38 40 50 27 40 53 44 38 27 56 54 61 31 34 28 51 51 21 26 27 29 40 37 27 43 45 48 40 35 29 32 16 40 32 30 54 51 20 38 37 37 39 38 40 45 58 67 51 95 144 127 132 131 140 107 95 131 140 152 136 123 93 86 99 133 133 114 111 109 151 122 111 107 105 105 123 142 145 133 142 138 145 138 122 102 107 95 73 65 58 74 42 46 67 90 159 140 115 98 138 146 135 135 140 146 149 178 186 189 186 175 162 162 133 114 125 140 131 104 98 98 71 64 56 50 75 78 91 93 79 109 105 82 60 47 105 47 46 58 79 85 87 75 138 127 112 88 78 64 86 136 140 93 93 107 102 97 129 111 122 140 142 127 111 129 135 109 91 87 52 56 86 104 88 50 61 83 86 86 79 88 104 67 72 88 77
116 116 116 114 118 120 118 116 119 123 122 120 119 118 119 122 120 122 120 120 120 122 122 125 131 125 127 120 100 111 111 112 123 122 123 127 127 128 124 120 123 120 120 123 124 125 123 123 125 129 127 125 129 131 129 129 129 131 133 133 131 131 131 126 127 127 125 122 123 125 127 129 129 131 133 133 133 133 133 133 133 129 129 133 133 131 130 133 129 127 129 133 133 133 133 133 132 131 131 131 130 129 130 128 127 130 129 127 127 129 129 129 127 127 129 129 129 127 129 123 116 111 112 111 109 105 102 104 109 111 116 121 122 125 127 127 129 129 129 131 131 131 127 127 127 129 130 129 127 127 125 123 125 125 127 125 123 129 127 125 127 127 125 123 124 123 122 114 106 97 95 90 86 81 74 74 74 77 80 82 83 85 91 96 93 88 89 83 79 77 81 79 71 77 77 79 79 74 71 70 71 68 63 61 61 63 70 70 65 70 75 75 76 74 75 80 79 71 73 80 81 86 98 102 104 111 112 114 109 112 112 111 111 111 109 111 111 112 114 121 119 116 122 118 121 114 114 119 107 102 91 77 71 72 50 46 45 52 44 40 47 41 38 28 35 43 29 26 37 36 36 41 38 52 63 64 37 58 52 60 48 42 44 38 32 46 59 77 46 39 45 47 32 34 44 48 36 21 28 47 50 22 26 38 37 29 27 41 26 33 44 31 43 63 36 50 24 42 37 45 58 35 29 21 34 25 34 31 27 35 43 16 17 25 28 40 32 24 19 27 45 32 24 39 47 70 59 60 52 100 58 60 136 149 139 112 104 122 159 144 111 155 138 114 146 102 116 127 144 98 71 58 116 146 135 144 133 116 125 127 135 127 107 77 54 65 91 80 64 65 109 124 93 90 111 138 105 85 97 111 125 125 127 131 142 138 138 135 118 109 95 82 67 55 53 51 44 44 67 80 45 43 68 54 48 64 67 73 82 51 74 67 56 79 109 100 95 67 90 75 91 74 61 91 125 114 102 82 71 73 77 102 88 71 71 131 160 153 144 140 130 123 138 86 71 91 77 53 58 46 58 63 59 55 79 148 77 77 67 68
131 127 127 123 120 118 118 118 120 122 120 118 123 122 122 122 122 123 120 120 122 122 122 116 115 119 122 122 114 122 122 129 127 125 125 125 125 122 129 127 125 127 131 127 123 100 100 114 111 112 114 120 122 125 125 123 125 131 131 131 131 131 131 131 131 127 127 127 127 127 127 127 129 131 131 129 131 127 127 129 127 127 126 127 127 129 129 131 127 123 125 131 133 133 133 134 133 131 129 132 131 131 129 127 127 127 127 127 127 127 129 126 123 125 127 127 127 125 127 132 131 129 127 127 127 129 127 125 125 125 127 127 129 127 123 125 127 127 127 129 129 129 127 129 125 127 127 126 127 127 129 129 128 123 123 120 111 114 118 120 123 126 123 122 109 93 88 85 80 71 71 71 71 74 73 73 75 77 73 74 71 67 65 74 79 80 80 85 88 85 86 88 83 79 74 70 68 71 70 73 80 74 71 67 65 64 65 64 63 63 65 67 67 63 65 68 65 63 65 70 71 79 85 98 102 105 109 112 107 109 111 112 114 114 114 114 114 114 114 118 118 116 116 116 116 117 122 125 120 122 118 114 112 112 109 98 97 93 83 73 75 61 48 54 55 48 44 38 39 36 47 61 50 40 45 53 44 47 41 54 44 41 27 43 38 43 56 61 47 43 44 33 48 52 44 48 48 40 30 37 32 29 51 31 27 32 35 28 31 30 36 46 41 44 41 22 12 22 23 28 26 38 38 29 59 32 23 35 41 37 31 29 33 23 20 22 32 21 17 23 29 32 32 24 52 40 28 40 37 45 36 12 26 38 82 83 90 109 123 86 95 98 148 138 133 131 125 131 144 138 136 142 146 143 116 116 123 135 140 131 123 120 90 82 73 104 98 120 140 116 109 114 127 104 82 90 114 116 138 138 159 155 138 125 136 109 107 98 82 67 60 44 44 39 51 45 38 72 74 48 55 58 43 38 50 49 65 86 64 35 56 74 71 93 97 90 80 56 58 82 110 98 88 86 127 111 74 98 80 86 95 98 98 86 82 93 93 97 102 155 151 169 168 188 173 148 160 97 88 85 50 52 70 55 105 159 111 120 79 86
44 61 79 102 122 127 133 131 123 118 116 114 116 118 121 118 116 120 120 121 123 120 119 119 122 120 120 120 120 114 109 118 118 118 122 117 120 127 120 122 118 114 123 120 116 120 125 125 122 125 122 120 118 118 123 122 120 120 123 124 127 129 129 129 129 131 132 128 129 131 131 131 131 131 131 129 127 125 125 125 123 123 125 122 122 123 127 125 123 123 127 131 127 127 131 133 133 133 133 131 131 129 131 131 131 129 129 127 129 129 129 127 123 123 126 125 125 123 122 117 122 125 127 129 125 125 125 125 123 125 125 125 124 123 123 123 123 119 118 114 117 123 125 129 131 123 122 122 120 118 107 105 102 93 95 94 85 75 73 71 74 77 77 75 73 73 75 76 74 70 71 71 71 73 74 73 74 71 68 73 77 75 75 74 73 75 74 73 75 75 73 70 71 65 63 63 65 65 67 67 72 71 70 65 68 68 65 64 65 66 67 67 67 65 64 64 65 67 71 74 75 80 85 97 104 104 107 109 107 105 107 110 116 112 116 114 114 114 116 116 114 111 111 111 109 109 112 112 114 114 111 109 107 107 109 112 111 108 109 111 112 105 107 109 98 95 93 71 63 52 60 55 38 35 26 33 38 33 41 35 32 47 50 38 54 34 43 50 41 44 34 35 42 56 39 41 39 50 42 54 52 42 51 71 77 64 51 51 36 45 48 63 61 64 65 51 38 26 41 26 18 21 19 27 39 30 26 34 31 17 21 20 24 40 56 41 58 34 26 31 43 34 38 40 58 35 44 52 50 32 37 44 48 52 42 36 35 75 109 74 73 39 58 71 91 64 66 123 127 125 133 151 140 155 116 144 125 111 140 135 127 129 109 98 109 100 118 128 114 111 155 151 129 140 138 135 135 135 140 149 157 152 138 147 137 95 74 85 80 51 38 38 55 55 43 44 52 54 52 83 59 43 50 37 59 55 38 58 46 46 59 52 86 74 75 86 54 46 40 68 93 71 74 68 100 118 93 74 74 91 93 74 90 73 54 71 85 88 114 150 157 151 155 164 155 133 166 124 131 133 99 83 80 68 109 118 98 91 82 77
22 15 17 19 28 38 54 72 91 111 120 122 125 125 120 116 113 118 118 120 122 122 118 120 122 122 122 122 123 120 98 86 86 90 112 107 125 129 120 123 125 127 129 129 129 129 129 128 125 125 127 131 123 116 127 129 118 107 105 100 107 122 123 125 127 129 129 125 126 131 131 129 128 131 131 129 127 127 129 127 123 127 129 129 129 125 123 125 123 125 128 126 122 120 126 127 129 129 129 129 132 129 131 133 135 131 131 131 130 131 129 127 125 125 124 125 125 125 121 118 120 122 125 125 122 125 125 125 123 124 125 123 122 122 125 123 122 118 104 88 79 73 82 90 105 109 114 120 118 114 100 88 82 77 80 82 77 71 68 68 65 65 67 71 73 73 76 76 75 73 82 79 79 75 74 74 74 71 71 71 74 77 74 74 73 71 71 70 67 65 68 67 67 67 65 67 68 67 63 61 60 60 60 61 63 65 67 63 63 68 67 68 70 68 67 67 71 70 74 79 82 97 98 104 102 102 105 109 107 103 105 107 109 107 105 105 107 107 111 107 114 111 109 111 111 109 109 109 107 107 107 107 106 108 112 111 111 109 105 107 109 109 107 109 109 111 110 110 104 95 86 83 82 73 67 58 58 58 53 47 46 53 40 32 51 54 47 55 55 67 46 48 53 38 32 42 33 39 63 37 73 77 46 53 38 44 56 58 65 55 46 41 51 60 32 50 54 40 51 52 41 55 52 36 32 50 25 29 32 32 29 20 26 28 26 51 41 59 51 39 27 55 37 45 61 31 33 32 83 31 29 52 43 51 55 68 53 59 40 28 45 48 33 29 52 50 46 47 37 26 40 39 70 70 100 29 56 120 133 136 82 116 152 122 114 91 138 149 109 116 149 155 135 135 136 140 142 146 144 144 133 131 131 125 140 151 136 133 86 44 36 40 68 67 48 56 48 46 55 65 42 34 48 33 39 46 37 67 51 41 58 59 61 104 109 89 61 61 71 71 56 63 116 82 52 61 73 52 85 75 58 53 59 58 35 48 66 85 98 102 122 155 148 138 142 153 145 129 118 114 120 120 100 75 142 93 63 65 80 85
221 191 140 68 41 21 15 14 16 22 32 47 65 88 107 112 127 123 120 120 122 120 120 116 120 120 123 120 120 123 122 109 98 116 123 122 123 123 125 123 123 125 123 122 122 118 131 125 136 135 111 116 122 118 123 121 114 122 125 120 120 122 120 122 122 122 120 117 122 120 123 123 125 125 129 123 125 129 129 129 125 125 127 132 133 129 125 127 126 127 125 123 120 120 122 123 125 124 123 127 127 129 129 131 132 131 133 131 131 133 131 131 129 127 123 122 123 123 122 122 122 122 122 120 120 122 121 122 122 123 123 122 122 123 127 125 123 126 122 120 118 109 98 82 79 82 83 82 90 98 105 108 97 90 82 73 68 68 65 65 65 67 70 75 76 73 67 67 71 67 73 71 75 80 79 75 74 71 73 73 74 75 74 71 75 75 71 70 71 71 70 68 68 68 67 68 67 63 61 67 68 67 67 65 64 60 63 70 70 68 67 67 71 74 77 77 74 74 75 85 90 93 99 105 107 107 109 109 105 105 109 107 102 98 96 91 91 91 91 85 88 97 97 97 97 99 98 98 98 98 103 104 102 98 105 105 107 109 109 111 109 107 107 107 103 98 98 97 100 102 100 95 93 88 90 90 88 83 74 71 68 58 53 54 50 45 47 41 40 50 47 41 56 63 71 53 38 58 64 39 45 43 28 32 52 45 56 46 52 45 64 52 45 52 38 32 46 44 56 39 37 52 43 45 38 41 56 38 52 45 38 31 27 40 23 26 20 26 32 36 16 17 24 23 32 41 44 38 47 37 38 45 31 64 50 47 38 38 41 16 43 75 54 27 42 39 50 90 36 22 35 34 26 26 32 35 35 47 49 42 19 19 54 112 127 140 214 217 208 148 138 149 154 144 144 125 116 122 116 118 121 100 114 118 66 48 70 109 82 47 45 53 102 75 68 75 67 48 59 71 54 47 51 45 33 22 60 52 38 41 52 90 77 85 77 90 109 111 91 86 68 82 79 73 52 48 46 38 56 65 71 55 52 56 64 47 61 84 64 97 98 122 146 122 111 125 114 138 157 114 114 140 138 129 148 127 79 60 52 55
235 237 238 240 235 227 194 151 83 45 26 17 14 17 20 28 45 64 85 95 118 125 133 131 123 122 124 120 115 116 118 116 116 122 122 118 123 125 125 123 120 121 120 114 112 118 116 112 118 112 104 111 118 125 127 127 131 127 125 125 125 122 122 122 122 122 125 127 112 107 111 97 102 125 112 116 118 122 122 124 123 122 122 123 125 127 125 127 127 127 125 123 123 123 125 125 125 125 125 125 128 125 125 123 124 127 129 129 131 126 121 127 127 125 127 125 125 125 124 123 122 122 122 120 120 122 122 122 122 122 122 121 127 129 129 131 131 131 127 125 125 127 120 111 100 88 79 75 75 75 73 79 82 80 71 73 74 70 68 64 63 65 65 64 65 70 70 68 70 70 67 67 65 67 68 71 71 71 73 73 74 71 71 71 67 68 68 67 70 70 68 67 68 69 65 68 67 68 67 64 65 67 67 67 65 67 67 63 65 70 64 65 70 73 73 72 71 68 67 67 71 71 80 83 88 90 87 90 86 86 82 75 74 74 73 74 73 74 72 73 75 78 74 79 82 77 83 86 83 83 90 91 95 97 100 107 104 105 107 111 109 105 105 105 100 98 97 95 93 98 90 83 81 79 80 83 85 88 88 85 85 79 75 77 71 68 70 64 64 58 56 56 63 64 67 55 64 70 75 64 60 54 40 82 61 35 39 29 33 45 47 43 51 45 53 45 46 56 33 46 54 56 52 41 41 36 40 44 53 39 35 39 60 40 37 61 64 38 38 41 16 31 50 35 38 42 34 42 59 17 19 30 31 37 42 35 36 47 82 46 46 30 44 51 60 46 51 63 55 34 47 28 36 38 48 32 36 33 26 35 32 21 22 24 33 42 53 47 62 74 65 93 109 104 56 82 84 75 86 129 75 54 67 112 112 105 100 100 61 64 85 71 39 41 50 84 79 56 50 59 32 39 71 46 28 34 56 29 26 32 45 79 64 63 101 88 61 56 70 79 82 75 55 64 65 73 60 56 55 56 53 43 54 46 53 53 43 56 47 58 91 82 74 93 109 100 64 92 95 80 80 107 168 175 159 129 122 67 40 56
237 234 230 232 234 238 238 238 240 238 232 201 169 114 55 29 19 16 16 24 29 38 51 70 93 114 133 134 133 127 118 116 118 113 117 116 118 118 122 120 120 120 120 122 123 123 123 123 122 122 120 121 120 120 120 120 127 127 127 118 114 122 122 123 123 119 125 129 122 102 100 118 118 120 114 114 114 118 121 122 125 120 119 118 122 122 124 127 123 125 127 127 125 125 125 125 129 127 126 127 126 123 122 122 122 123 121 122 124 120 121 125 123 123 127 131 132 129 125 126 125 127 127 123 122 118 114 118 122 123 125 120 116 116 114 111 111 116 115 104 93 85 88 86 86 83 75 79 79 79 77 66 70 71 70 73 71 70 70 71 70 68 68 70 70 71 71 70 70 68 68 68 70 68 70 70 67 68 70 71 71 70 70 70 68 71 74 74 70 70 73 71 71 70 70 68 68 71 70 68 68 65 67 68 68 71 74 71 70 70 71 73 71 71 70 71 68 70 67 65 68 64 65 61 64 68 64 73 75 74 74 68 70 75 76 79 79 79 79 73 73 78 74 70 73 75 80 80 79 83 86 86 86 93 97 97 104 105 104 107 105 104 103 102 100 100 97 93 91 91 90 85 82 77 73 74 75 82 83 82 82 82 81 82 83 79 75 75 76 75 80 77 75 71 74 79 83 88 86 89 97 97 97 105 93 97 88 79 79 63 58 47 38 43 52 61 32 32 41 39 49 53 46 29 26 31 41 39 45 41 38 61 82 79 50 40 38 24 55 59 50 60 41 58 59 24 53 28 71 25 24 22 22 38 20 24 70 55 40 56 53 43 38 37 34 45 71 38 43 32 28 30 34 26 44 50 23 38 59 36 33 21 21 28 55 42 40 25 31 29 32 30 32 33 16 41 38 17 27 42 33 45 43 44 60 58 58 47 45 53 83 88 45 44 37 31 40 39 21 23 12 13 47 71 56 38 36 24 48 55 27 40 45 68 131 114 85 80 58 54 61 71 55 64 70 60 68 64 55 39 47 52 55 52 50 32 38 38 37 44 85 91 80 79 149 73 44 58 45 67 64 68 98 144 160 153 162 181 178 144
194 213 229 234 237 236 233 230 229 231 233 238 240 243 240 232 216 180 133 80 44 29 21 18 20 23 32 45 64 85 105 122 131 131 125 122 118 118 116 116 116 116 115 122 123 123 125 125 123 120 118 119 118 118 118 126 123 122 122 111 114 118 118 118 111 116 112 111 114 116 107 121 116 116 118 116 116 123 123 111 107 123 129 114 116 107 102 114 114 119 120 122 122 123 123 123 123 123 128 125 125 122 122 122 123 123 122 122 122 125 127 122 118 120 123 125 122 123 123 123 122 122 123 125 124 120 116 111 100 97 95 89 86 86 82 73 70 70 74 75 88 90 86 85 86 79 75 78 77 75 75 68 65 64 67 68 65 70 67 65 70 70 67 68 67 65 67 67 65 63 65 71 71 71 68 70 71 71 77 73 71 71 72 70 71 74 76 75 71 70 73 73 71 71 73 73 74 73 73 71 70 68 67 64 65 64 61 63 65 60 65 70 68 70 73 71 68 63 64 68 68 64 63 63 59 59 60 59 61 61 59 63 61 64 68 72 71 74 77 79 80 77 73 70 63 63 70 75 77 86 86 85 86 91 91 90 95 104 104 104 102 96 97 97 97 100 96 93 93 95 97 91 90 93 89 90 97 95 95 95 93 91 93 86 95 100 93 95 91 90 93 98 98 97 98 100 105 98 98 93 91 90 86 85 85 88 88 90 91 88 95 101 98 88 83 88 58 59 80 59 45 41 53 45 51 44 61 38 51 46 31 53 52 53 61 54 41 38 34 64 65 55 54 53 50 53 61 35 56 61 41 48 42 42 48 53 38 56 39 32 40 44 47 28 19 33 39 32 38 19 20 26 30 38 38 33 44 45 19 32 30 22 30 50 64 51 45 45 38 33 48 59 39 29 29 52 53 26 33 46 35 29 59 45 186 43 42 47 54 118 107 104 105 85 53 38 109 52 75 29 29 47 34 39 45 38 71 77 38 38 38 73 79 131 133 91 80 67 45 61 64 67 68 77 76 60 50 41 41 43 40 33 53 54 47 39 74 61 53 58 91 131 129 100 135 111 90 83 92 123 166 123 129 127 146 164 188 180 166 144
58 60 77 77 133 188 216 225 232 237 240 238 233 232 232 234 238 240 242 240 239 232 211 168 107 55 27 18 16 19 19 29 38 52 71 95 112 127 131 125 123 122 115 112 109 111 112 114 114 114 119 120 118 116 116 125 123 122 118 111 116 120 118 118 120 122 120 120 127 122 122 122 116 117 120 123 127 129 112 79 97 105 111 111 116 107 104 110 115 116 116 116 114 116 114 114 111 109 120 123 122 122 122 122 122 120 120 120 120 122 122 118 118 118 120 120 118 120 122 123 120 120 122 120 120 122 122 123 120 120 112 107 102 96 90 85 82 74 74 74 73 67 75 85 91 88 79 79 80 74 70 75 70 68 71 69 68 67 67 64 65 67 67 67 64 65 67 68 68 70 68 65 65 64 64 68 68 71 71 70 70 71 71 70 70 71 70 64 65 67 67 68 68 67 68 65 64 65 67 67 68 67 65 63 62 60 60 56 61 63 58 59 61 61 61 63 68 63 63 63 63 60 63 68 64 63 64 61 61 61 61 64 64 65 71 77 75 74 77 84 82 79 90 83 82 77 77 79 77 82 86 88 95 97 93 90 93 93 85 83 85 86 93 95 97 95 95 95 94 95 95 93 95 98 98 104 104 104 104 102 102 100 102 105 105 106 107 107 102 102 102 100 102 102 104 105 107 105 105 104 105 109 105 102 105 104 98 98 95 93 90 86 83 75 75 80 90 97 97 88 75 88 98 88 93 102 75 61 51 71 77 68 55 63 71 68 41 23 37 53 63 46 56 47 48 53 44 44 52 47 45 50 53 46 35 63 51 45 29 58 60 38 44 38 31 33 39 54 61 48 38 35 23 21 29 37 35 105 43 32 39 51 47 58 45 38 54 40 39 35 38 67 60 33 27 75 54 48 28 28 30 43 43 31 112 97 38 77 97 100 91 85 85 133 131 88 149 105 165 146 155 168 146 108 123 114 95 70 35 27 88 105 123 107 122 122 127 109 120 120 118 105 90 109 107 99 90 80 73 65 46 45 54 67 60 56 118 102 98 102 91 102 144 97 107 123 129 127 126 155 136 136 139 142 155 176 175 162 166 181
68 70 60 59 55 55 59 63 88 122 155 200 223 234 235 238 236 236 232 232 233 236 238 241 243 241 233 213 173 116 59 38 22 17 18 19 24 31 46 67 82 100 116 125 123 123 117 115 111 109 111 114 114 112 112 114 112 122 129 127 127 123 123 120 122 122 120 122 125 121 116 121 125 116 118 122 120 112 104 116 112 112 104 102 114 116 122 118 116 116 116 116 120 112 111 116 125 111 109 112 111 114 116 120 118 114 115 118 122 122 120 118 120 120 123 122 120 120 122 122 122 122 122 120 120 122 120 117 120 120 121 116 104 102 91 77 61 63 65 67 64 59 61 60 60 59 64 70 70 68 68 75 71 70 68 68 68 71 71 70 71 69 70 71 65 63 61 63 64 67 68 65 65 65 65 65 63 65 67 68 67 65 65 65 67 70 68 64 65 67 66 67 67 63 65 64 63 64 64 63 63 63 67 68 63 64 65 68 68 68 61 59 60 60 56 55 61 61 62 61 60 61 60 55 67 72 71 68 66 64 65 65 65 65 61 62 67 68 70 71 75 79 82 71 73 70 70 77 77 80 80 80 88 91 91 91 93 91 82 77 82 90 98 98 97 93 93 98 98 98 95 96 93 97 95 87 90 91 91 95 95 99 100 102 105 105 100 104 107 105 105 105 107 107 107 107 107 107 107 111 111 109 107 106 109 107 107 105 105 104 102 97 98 100 97 93 88 82 76 91 88 91 90 77 86 85 90 86 92 91 90 88 75 85 71 43 64 51 54 51 52 41 42 51 38 34 48 46 44 31 38 53 35 45 38 52 44 32 40 54 31 40 55 44 33 22 36 46 55 51 55 40 30 41 53 50 43 40 41 45 48 44 36 38 36 17 30 59 58 67 53 56 46 39 31 36 43 30 54 62 63 107 129 118 91 131 48 63 75 77 88 142 149 104 129 131 166 157 131 127 100 131 142 157 164 168 100 149 114 114 88 90 68 111 122 138 162 168 178 178 159 109 95 135 175 168 125 109 122 104 111 131 124 102 45 63 118 104 141 155 144 118 148 148 142 160 162 157 151 148 135 123 141 142 116 169 139 153 171 157
73 70 67 67 67 67 67 65 73 65 56 56 61 82 114 155 200 225 231 236 238 237 236 234 234 236 238 238 238 238 237 235 223 200 155 90 53 31 21 18 17 19 26 34 50 62 93 113 123 127 127 122 107 107 114 107 105 109 111 114 120 120 120 120 123 122 122 125 122 123 120 116 122 109 107 109 112 114 114 112 114 122 122 114 114 115 116 116 114 116 116 119 122 104 118 115 109 98 109 112 100 95 98 111 111 114 114 116 120 120 114 122 123 122 122 122 122 120 118 122 122 122 122 122 122 122 120 120 118 114 116 116 107 109 102 86 68 63 64 63 63 61 61 61 61 61 60 59 61 63 60 63 63 63 63 63 67 71 71 68 71 70 70 74 71 74 71 71 64 63 65 65 59 63 65 68 67 65 68 68 65 60 59 63 63 64 64 67 67 68 67 70 68 65 67 65 64 65 65 65 64 64 67 67 67 65 65 65 68 65 65 63 63 63 63 61 60 60 60 59 61 65 68 67 67 70 64 63 63 64 59 55 59 61 63 61 63 60 59 61 64 58 54 55 54 56 67 70 63 64 67 68 80 86 88 88 88 80 80 85 85 88 91 95 97 93 97 98 98 97 91 93 93 90 86 83 87 86 86 90 88 95 98 100 104 102 100 105 107 104 105 107 105 107 108 109 109 109 107 105 105 106 105 105 105 105 105 105 105 105 104 104 109 111 109 107 107 104 97 104 104 104 100 97 95 93 98 98 98 90 90 90 88 94 88 95 85 80 88 90 70 58 53 55 55 47 47 40 45 42 58 38 27 58 50 39 33 42 39 34 32 42 59 41 32 37 59 46 71 52 53 55 54 45 49 22 36 51 30 37 38 29 37 65 42 51 81 74 53 29 44 34 26 30 48 65 60 32 33 54 111 127 81 71 73 139 83 102 109 52 74 98 151 123 123 169 180 90 104 149 113 129 173 127 118 168 85 71 109 140 149 159 122 135 128 144 109 131 71 55 64 144 142 127 129 148 159 146 135 133 112 102 104 91 74 51 47 48 75 131 138 153 153 151 168 181 173 157 157 146 146 107 102 149 129 160 162 180 181 162
61 63 70 70 67 67 64 67 67 70 77 77 75 73 71 59 55 63 79 109 148 193 217 233 238 240 238 236 233 231 232 234 237 240 242 241 242 239 218 181 123 71 38 21 14 13 17 24 32 45 67 85 100 119 125 123 123 118 111 109 105 109 107 104 107 114 120 116 116 119 118 118 121 122 118 116 118 118 118 114 114 116 111 114 114 120 122 122 120 127 120 109 86 104 116 111 101 104 114 120 118 122 123 118 118 112 112 111 111 114 116 116 118 118 118 118 122 123 120 120 120 122 122 122 120 119 122 118 116 114 100 88 81 77 79 73 71 70 67 62 63 61 60 59 56 56 60 61 59 61 63 63 63 65 71 70 68 67 65 64 65 67 67 67 67 68 77 79 75 71 77 77 68 67 63 66 67 63 65 64 64 61 61 61 61 59 61 70 68 67 69 73 65 64 65 67 64 63 64 65 63 61 61 63 61 60 61 59 63 63 65 64 64 64 67 70 68 67 67 64 67 64 67 68 67 68 68 68 65 64 63 64 67 63 60 56 59 61 61 64 67 64 67 72 69 65 67 68 65 65 66 63 67 71 74 74 77 79 82 77 74 75 71 70 71 80 88 88 94 95 93 91 88 90 91 95 93 102 102 95 97 100 102 104 102 104 104 105 102 98 99 97 97 98 98 102 104 102 102 100 101 100 104 104 104 104 104 104 105 105 105 105 107 107 107 107 105 104 104 104 104 104 105 109 107 109 111 107 105 104 107 103 105 102 97 100 97 95 95 96 90 82 71 61 56 51 46 44 51 51 47 52 52 53 38 56 58 60 47 45 63 31 50 48 36 29 34 41 43 46 35 38 36 35 79 63 36 35 45 47 83 74 42 68 63 43 44 42 38 31 39 37 32 25 31 53 61 43 82 53 71 88 64 55 116 145 149 97 116 135 151 129 116 111 90 116 142 131 146 157 162 129 151 131 111 153 160 155 136 140 90 140 142 131 111 116 95 91 91 150 122 148 176 138 138 125 118 105 91 116 123 155 129 123 131 127 127 118 120 111 83 136 166 169 171 159 155 157 173 155 159 155 148 153 151 157 169 164 171 170
63 63 64 64 64 64 64 64 64 67 75 73 73 73 75 75 65 65 65 63 59 58 60 73 104 146 181 217 227 234 236 239 236 235 232 232 232 234 238 241 242 243 238 227 196 148 93 50 30 21 18 21 21 27 39 51 68 91 111 117 118 116 118 107 102 102 102 99 98 109 109 114 116 115 116 118 120 120 120 120 120 120 118 116 123 130 122 118 118 125 111 102 105 111 118 112 118 120 120 120 120 123 126 125 120 114 112 119 123 120 109 111 104 93 100 102 104 112 116 116 114 113 114 114 114 114 120 114 113 122 122 115 98 88 79 68 65 64 63 60 55 54 54 55 53 52 55 55 55 58 61 63 61 63 63 64 64 68 71 69 67 65 65 65 65 62 61 63 67 68 66 65 67 70 74 71 67 74 74 73 64 63 63 63 61 63 60 58 61 64 63 70 71 64 65 74 73 64 63 67 63 61 67 71 68 68 70 65 63 63 60 60 61 64 67 65 65 67 68 67 67 67 67 70 70 70 67 67 67 67 68 73 68 61 65 64 61 58 59 60 56 54 58 60 63 64 64 64 67 67 68 70 68 67 65 63 62 60 67 70 71 67 65 65 61 70 71 71 71 75 80 79 75 74 73 90 93 93 93 97 102 105 105 102 100 100 100 100 102 97 88 90 95 97 94 98 100 100 100 100 100 100 102 104 104 104 104 104 105 107 105 102 102 104 105 109 107 104 105 104 104 104 104 104 104 107 109 107 105 105 105 105 105 107 105 105 105 102 100 98 93 91 93 90 78 71 71 71 65 60 63 59 59 59 45 44 60 46 48 56 53 48 37 41 54 55 55 37 43 60 48 38 52 39 31 54 38 42 53 52 38 37 50 44 80 65 52 43 77 58 53 26 28 58 29 56 40 59 64 79 47 68 71 115 173 112 107 133 129 160 157 116 140 123 138 83 75 63 119 88 120 146 101 127 120 131 114 142 94 82 68 125 123 114 105 136 147 83 122 123 122 146 120 160 140 105 50 97 153 104 98 149 129 90 80 98 138 160 107 105 136 133 76 135 131 140 109 123 173 131 144 146 88 62 59 90 138 153 135 144
61 63 63 63 64 63 67 67 65 67 70 67 67 67 68 71 70 70 71 71 70 71 67 55 56 60 60 61 68 97 125 173 199 225 235 240 241 235 233 231 230 228 230 232 239 243 240 236 230 210 173 114 61 35 23 19 19 20 23 30 41 58 81 98 112 122 118 111 107 109 105 102 102 102 105 105 109 111 114 116 116 122 125 125 122 122 116 114 113 112 116 118 121 120 118 120 118 120 116 118 124 112 118 125 114 118 111 104 109 116 111 112 107 107 107 107 109 111 112 114 114 111 107 111 109 109 114 114 118 114 114 112 107 104 109 104 97 88 83 73 71 70 71 63 58 58 59 59 56 56 61 63 61 61 61 60 58 64 64 61 64 67 67 74 79 68 64 62 65 65 64 64 61 61 65 66 63 70 75 75 70 68 64 64 63 65 65 61 58 62 63 61 60 60 63 61 56 59 65 65 61 63 65 67 70 73 73 68 68 71 65 65 68 67 64 61 61 64 64 64 64 65 65 64 67 67 60 58 65 66 67 67 61 55 54 56 58 60 61 63 60 60 60 60 63 61 60 63 60 59 59 59 61 61 64 63 65 60 55 56 58 59 58 58 56 58 58 60 61 60 60 63 59 59 74 70 67 64 65 71 82 95 101 98 95 97 102 104 104 102 98 97 100 102 100 100 104 104 105 107 104 104 104 105 102 102 102 100 100 100 102 100 100 100 98 105 101 102 102 102 103 102 104 104 105 105 104 102 101 104 104 104 105 104 105 104 104 102 100 100 100 102 98 95 90 77 77 77 73 75 75 77 79 77 79 75 77 73 74 71 62 64 45 45 55 52 48 41 51 61 55 56 59 39 33 71 50 41 48 65 34 52 36 31 42 55 46 34 58 61 71 74 59 73 53 51 36 60 93 88 97 68 82 85 135 125 125 111 122 100 83 98 122 104 93 140 136 74 154 135 102 118 112 74 91 155 120 127 71 85 67 74 95 151 111 131 129 143 149 122 71 42 55 131 144 71 61 93 109 67 71 95 136 125 98 43 97 148 102 86 138 114 38 63 111 151 105 123 111 86 116 114 122 64 73 90 146 105 91 97
64 63 63 63 61 61 68 68 63 63 65 64 65 67 66 65 68 70 68 68 67 68 64 64 68 70 70 68 65 63 59 61 54 61 75 122 157 200 216 229 239 238 236 237 234 229 229 232 235 238 242 241 241 234 212 188 138 66 39 25 18 16 18 22 33 46 61 74 100 109 112 120 116 114 105 104 105 104 105 104 105 104 114 116 115 119 118 120 123 120 122 122 118 116 112 118 119 116 114 122 120 127 102 85 133 114 102 108 105 102 111 105 111 111 111 111 112 114 114 114 114 111 105 111 118 114 111 88 93 90 79 90 82 83 100 104 116 120 114 111 115 112 116 109 104 104 95 85 78 69 64 61 64 64 66 65 64 68 67 68 67 65 64 64 63 61 61 63 65 67 68 68 71 71 68 64 63 64 63 61 61 61 58 64 68 79 82 79 78 74 68 64 61 62 61 60 60 65 63 60 58 60 64 63 61 65 61 64 67 68 68 68 68 66 68 67 65 67 64 65 65 65 67 65 65 56 60 61 60 61 59 54 54 58 59 58 56 64 65 61 60 58 58 62 68 65 63 64 63 61 58 56 56 58 57 59 60 60 59 59 59 59 60 61 63 60 59 59 59 60 67 67 68 60 70 58 58 58 58 58 58 60 61 61 64 74 82 83 82 80 77 74 79 83 98 105 109 105 111 116 111 106 103 104 100 101 100 100 98 97 98 98 101 100 97 97 99 100 100 98 98 99 97 104 100 98 100 98 100 104 104 104 105 105 105 105 105 109 105 100 102 104 100 102 104 86 77 80 79 75 78 83 86 90 90 93 102 104 103 97 100 98 98 91 86 82 79 75 71 60 58 55 53 55 56 41 83 53 37 54 58 60 54 40 42 51 61 53 44 43 35 38 68 39 33 60 53 48 73 51 53 52 85 123 130 88 102 85 112 114 133 140 100 112 118 105 183 146 123 114 157 136 111 82 112 148 98 104 131 136 125 118 136 118 102 127 118 136 109 123 138 122 122 102 90 159 166 97 98 111 93 75 100 133 142 67 64 107 104 118 133 118 75 80 114 118 63 122 130 97 77 71 131 135 114 149 156 133 148 138
65 64 63 61 61 63 63 61 61 60 68 67 64 64 63 60 60 67 68 67 64 65 66 68 68 68 68 70 71 70 70 71 68 65 58 58 52 53 60 75 112 153 196 218 225 234 237 236 234 233 229 229 229 228 232 231 236 243 241 229 189 139 90 50 28 22 19 16 21 25 32 48 64 81 97 114 122 123 116 107 102 104 109 108 104 107 107 111 116 118 116 118 116 116 120 120 118 120 118 120 122 100 83 107 118 107 100 113 118 114 118 120 116 114 117 114 114 104 111 114 114 116 104 97 123 138 133 121 95 91 86 85 95 118 95 80 108 114 112 112 118 117 114 112 112 116 118 107 109 93 82 79 65 68 67 65 64 65 64 61 65 61 61 62 67 71 68 64 63 61 59 61 64 64 67 63 67 70 64 67 65 61 63 64 65 67 65 65 68 68 68 73 77 73 67 63 61 60 58 68 64 63 63 61 59 60 58 58 59 59 60 59 59 60 64 66 65 67 71 68 67 67 68 67 63 60 60 61 61 60 56 55 56 60 60 56 54 59 61 59 59 59 60 65 67 65 63 65 65 63 58 58 59 60 62 63 60 61 61 60 64 63 60 60 58 61 60 64 64 64 67 65 65 65 61 67 71 64 67 70 67 63 59 55 58 59 61 67 64 60 65 64 63 60 65 70 80 98 95 97 97 102 102 96 97 98 97 97 98 98 97 97 100 100 98 97 102 102 100 96 97 100 97 104 104 102 103 98 100 102 100 98 100 100 101 100 101 105 105 106 104 98 95 104 107 102 100 98 88 86 79 80 83 80 79 84 93 97 95 93 95 98 107 111 111 111 105 107 107 105 105 98 95 91 85 82 77 79 81 77 86 80 74 60 48 54 43 38 51 59 22 32 58 52 55 56 50 31 44 55 59 50 53 93 105 100 98 125 141 142 114 124 136 142 145 111 104 135 100 88 159 151 107 104 105 114 102 146 128 111 97 114 157 107 67 98 97 63 104 95 120 122 90 109 105 137 183 147 109 119 138 183 90 122 97 83 98 93 102 97 107 122 102 140 142 125 90 75 50 67 70 93 63 82 133 146 176 161 90 124
65 64 62 62 61 63 64 61 61 63 63 62 64 67 64 61 60 60 65 64 61 63 63 64 64 63 63 65 68 68 68 68 68 68 71 67 67 66 65 61 59 56 55 59 79 107 158 185 212 227 231 237 236 234 231 227 232 240 240 232 238 237 241 241 231 206 157 105 63 42 25 18 18 21 24 31 42 63 80 98 112 123 122 120 112 112 109 111 112 109 109 109 109 111 116 116 118 122 122 122 120 113 107 116 116 116 120 118 118 118 118 117 120 120 116 118 114 105 109 121 125 125 102 100 116 105 105 111 100 100 98 104 114 119 111 105 105 109 109 107 114 114 111 111 109 112 115 112 114 116 118 112 98 102 97 93 88 90 80 74 63 59 60 56 59 61 65 63 61 59 54 55 54 53 54 54 61 65 65 67 64 62 63 64 64 65 64 65 64 65 61 59 68 71 67 65 64 63 64 64 68 65 65 67 70 67 69 67 63 63 61 60 56 58 56 63 64 59 59 65 65 63 60 63 63 60 58 60 63 61 59 64 60 60 59 56 60 60 59 60 60 61 63 64 64 60 63 64 65 64 63 64 65 63 64 65 63 67 67 64 65 64 61 61 60 61 63 65 61 61 58 58 59 55 52 56 56 56 58 58 59 61 58 54 54 56 54 54 55 55 58 64 74 65 63 59 53 60 67 64 61 65 74 84 95 97 95 97 98 97 97 100 102 102 102 100 104 104 102 100 100 100 102 102 102 104 104 98 95 97 97 95 97 95 95 95 95 96 98 100 100 97 98 97 95 100 99 102 97 93 85 82 82 77 79 91 97 93 95 98 96 98 98 97 100 98 100 100 98 100 107 109 109 104 107 111 105 105 107 102 104 109 114 117 116 120 112 90 80 68 82 60 47 40 59 61 77 79 71 58 61 65 77 93 125 73 100 140 122 144 136 131 140 125 120 109 116 116 112 114 105 127 127 125 102 120 112 114 105 88 109 111 118 129 112 86 109 111 71 123 118 129 120 71 71 93 74 29 90 116 101 143 118 104 119 136 80 54 70 68 122 70 133 73 118 162 105 120 93 118 73 59 75 90 55 107 171 80 46 65
63 64 63 60 60 63 63 61 61 63 63 60 61 67 68 64 66 64 63 63 63 63 63 61 61 63 64 62 64 66 65 65 68 68 65 71 69 68 68 67 70 70 68 67 60 55 63 68 68 79 104 135 183 214 228 236 233 234 234 233 232 231 230 233 234 236 238 240 238 235 221 191 149 95 52 32 18 18 19 24 32 40 58 77 91 112 116 118 116 116 111 107 105 104 102 105 114 112 114 114 120 122 120 114 116 122 120 116 118 120 115 114 109 93 118 123 135 112 104 111 107 105 90 93 109 97 105 105 111 111 109 107 112 114 114 111 109 107 112 113 116 107 88 105 112 94 94 102 105 112 107 112 109 107 111 112 109 107 104 98 91 77 82 70 68 65 65 59 58 55 56 56 60 60 58 56 64 60 64 59 58 61 63 61 60 60 59 58 61 64 64 63 70 71 65 65 67 64 68 74 74 73 71 64 61 59 60 66 65 61 60 64 61 64 61 60 60 61 64 61 64 64 61 60 60 61 60 58 56 58 60 65 63 61 63 60 60 61 58 60 60 58 59 59 60 58 60 60 58 63 67 65 65 65 63 60 59 63 66 67 64 64 64 63 63 64 68 70 65 66 61 60 61 59 60 64 61 59 54 56 58 61 56 56 56 53 47 45 51 53 51 50 48 47 51 56 63 63 63 61 61 61 65 70 75 77 79 75 77 83 93 93 85 95 100 104 104 102 105 102 102 104 104 102 100 104 105 104 107 100 97 97 97 97 97 95 95 100 100 100 100 95 97 95 93 100 100 98 91 88 92 92 93 93 95 97 97 97 97 102 102 102 97 98 95 89 93 98 100 100 104 100 98 100 102 104 104 98 104 98 97 97 105 107 112 120 122 125 127 127 127 123 124 116 107 98 97 102 71 70 83 83 54 73 111 65 93 107 115 140 125 159 112 122 123 126 107 80 82 116 151 175 136 133 127 127 138 135 149 138 123 112 97 131 102 83 86 111 73 100 109 105 131 71 97 116 125 116 80 98 73 129 133 136 105 107 102 90 52 43 84 56 114 120 80 56 58 85 104 155 139 120 125 118 46 38 64 104 98 107
61 63 63 61 64 63 63 61 61 64 63 63 61 64 64 61 67 65 63 63 63 64 64 61 60 59 63 63 63 63 61 65 70 71 74 76 71 70 65 65 69 70 71 71 68 71 73 68 65 63 61 61 56 61 68 97 127 169 201 223 232 236 235 235 235 231 229 228 227 234 236 234 238 238 227 225 194 151 104 55 32 22 21 23 21 29 38 51 71 86 104 109 114 118 111 109 108 102 97 105 107 114 114 112 112 114 114 114 116 118 112 112 109 100 118 114 112 109 104 104 114 112 114 116 114 112 100 112 114 114 112 109 112 114 109 100 114 119 125 120 111 105 114 112 112 111 97 77 90 91 102 91 104 104 105 107 110 111 107 111 112 114 105 104 104 97 93 79 74 74 74 67 70 71 64 61 64 63 60 56 56 58 56 55 58 61 61 60 60 61 60 59 63 65 61 58 60 63 67 68 65 66 68 63 59 59 58 56 57 54 53 58 56 56 58 58 63 65 67 63 64 65 67 63 58 61 61 63 60 59 60 64 64 61 61 60 63 68 68 68 67 64 61 59 61 60 61 62 58 61 62 61 67 68 68 68 67 64 64 63 60 58 60 59 61 65 67 67 68 60 61 63 67 63 67 68 68 68 64 64 60 65 68 67 63 60 58 56 59 61 64 63 65 60 54 52 53 52 53 59 63 65 63 59 59 58 59 59 60 65 79 77 71 83 83 90 93 93 95 93 93 95 97 107 102 100 98 102 98 98 97 100 98 98 97 95 98 100 102 102 100 100 98 98 98 100 100 99 100 107 102 100 112 114 107 107 104 97 96 98 102 105 102 104 102 98 102 107 103 98 104 102 102 106 105 100 97 97 105 104 100 98 97 95 95 98 107 111 112 114 114 118 120 129 135 131 133 134 129 127 127 123 109 97 107 101 102 111 114 111 111 151 129 109 140 123 133 80 93 131 125 148 135 125 83 123 158 133 155 171 142 146 138 122 110 95 112 88 85 80 88 75 122 51 97 114 114 102 131 102 90 77 120 157 114 118 118 130 90 131 127 109 90 103 89 67 64 95 114 48 85 90 148 97 148 131 114 85 90 118
59 60 61 63 66 63 61 61 61 64 61 65 64 65 67 67 74 68 64 64 67 65 65 61 63 64 65 65 63 70 63 61 64 64 61 63 67 65 61 64 67 68 67 70 71 71 71 70 67 67 68 67 70 61 63 60 60 55 58 64 83 112 155 194 219 230 234 232 234 242 241 233 233 234 230 234 236 236 236 238 225 199 155 104 60 35 23 17 20 23 26 32 40 51 70 88 107 118 118 122 120 118 112 111 111 107 107 105 107 109 112 118 116 116 113 114 116 117 117 114 112 114 118 118 118 118 109 112 116 114 111 121 120 120 128 105 118 118 112 109 118 123 114 98 95 100 91 101 104 105 107 107 107 103 105 104 100 102 107 100 93 91 95 100 107 107 111 109 102 98 97 91 93 94 82 74 71 67 67 55 59 64 64 61 61 61 56 55 61 63 59 59 55 56 55 58 56 60 64 64 63 58 63 60 78 74 60 60 65 66 60 58 58 57 55 55 60 61 61 64 65 71 73 68 67 67 70 75 73 63 60 60 60 61 64 61 63 63 61 65 65 65 64 63 65 65 65 65 68 65 63 63 61 63 63 65 64 64 67 61 60 60 60 60 61 63 64 65 68 65 64 65 65 63 65 64 63 63 63 65 63 61 65 68 75 70 61 64 63 60 61 60 59 60 60 59 59 58 52 55 61 55 47 50 51 50 53 55 55 56 59 64 61 65 65 73 77 74 75 74 74 74 71 70 68 71 79 90 95 102 100 102 103 102 100 100 100 98 102 100 102 102 107 114 107 109 111 109 109 111 114 112 111 112 109 105 104 98 100 104 95 95 102 104 104 102 104 98 100 104 104 102 102 105 102 105 98 93 98 100 101 100 101 102 100 97 93 98 100 110 111 112 120 111 120 125 133 129 129 125 127 129 128 122 115 112 114 114 112 107 105 111 112 111 105 116 116 104 104 133 122 125 114 102 131 140 127 123 123 118 111 116 140 129 109 116 149 127 98 166 149 100 142 127 133 109 125 95 135 111 142 93 135 127 119 150 131 87 77 116 107 116 97 114 90 109 116 102 114 79 79 91 80 77 100 112 135 90 85 136
58 59 60 61 61 59 60 59 60 60 58 60 64 64 63 64 61 65 68 73 70 67 65 64 67 73 70 68 65 67 63 65 68 65 66 66 65 64 64 64 65 64 64 64 67 70 70 70 67 67 67 65 65 64 65 68 67 70 70 66 64 58 58 67 77 86 109 153 204 221 226 233 232 233 230 226 225 225 227 228 228 236 240 240 242 238 218 183 138 88 52 31 21 18 17 18 23 34 53 60 74 98 110 114 120 118 114 112 109 104 101 105 105 105 109 111 111 111 114 114 114 116 118 114 118 116 114 118 118 110 100 111 104 95 108 90 120 118 105 84 85 90 93 98 104 104 112 121 112 114 112 111 109 102 107 109 93 95 94 100 111 85 118 74 105 86 93 105 98 102 104 109 109 107 109 107 104 91 83 79 82 83 80 73 63 63 64 67 64 64 59 60 60 55 54 55 58 55 55 56 59 61 60 60 60 59 58 58 58 58 60 59 67 70 71 67 67 68 65 64 64 60 62 63 63 65 71 70 70 65 63 65 67 65 65 65 64 58 54 56 59 63 61 61 64 64 63 63 68 70 68 71 71 69 67 68 68 68 70 65 65 65 64 63 56 57 64 63 63 62 63 63 60 61 61 61 63 61 61 63 68 69 70 67 64 63 63 67 68 64 64 65 64 64 64 64 64 67 65 65 60 57 56 60 60 61 57 55 46 51 46 51 53 58 65 68 71 74 73 65 61 63 64 60 60 59 59 58 61 73 73 77 82 90 93 100 100 98 100 99 102 105 111 114 112 114 109 109 109 105 107 112 107 109 112 106 104 107 111 107 105 109 112 111 107 109 100 98 104 102 98 97 98 97 100 102 100 98 98 97 97 97 104 105 104 105 98 100 98 98 97 100 109 102 107 107 110 112 114 112 118 121 120 116 120 125 122 118 119 116 116 117 120 122 122 125 123 123 116 114 116 114 114 116 109 112 91 104 129 114 122 155 139 127 138 149 136 146 112 135 120 111 133 136 123 114 140 116 153 151 149 129 133 137 115 181 125 90 97 100 59 74 127 111 102 61 98 129 112 102 88 116 160 96 71 47 73 125 94 98
55 55 56 55 55 56 56 55 59 59 58 59 63 60 61 67 71 80 70 68 64 63 61 62 63 64 66 64 64 64 65 70 71 65 64 65 65 65 65 65 65 65 65 65 64 67 67 65 63 64 63 65 67 67 67 67 67 67 68 71 74 79 80 74 73 65 61 58 60 65 79 114 157 191 214 228 232 232 231 229 233 236 236 230 235 236 238 238 240 241 240 227 199 160 114 55 33 22 17 15 13 19 33 35 48 68 85 101 117 116 117 109 108 104 104 103 105 105 104 107 107 107 112 114 120 120 118 112 111 114 111 112 107 107 111 102 102 105 109 97 105 105 109 109 104 107 111 111 109 109 91 98 114 107 109 77 127 131 122 125 123 118 127 98 104 100 90 98 91 95 98 102 105 105 107 111 111 109 105 104 104 100 91 88 71 70 68 71 65 67 68 73 68 64 65 65 63 64 64 61 59 64 61 63 61 61 60 59 54 55 59 59 59 59 64 64 68 71 68 65 63 63 64 65 63 63 64 61 61 63 63 63 64 68 62 63 66 67 64 63 65 65 65 65 65 65 63 63 65 65 64 66 66 67 67 65 64 68 70 67 67 67 70 70 67 65 68 70 67 64 65 63 63 61 60 61 63 61 60 62 64 62 61 64 67 67 71 73 76 75 73 71 64 61 64 65 65 63 63 67 64 60 63 64 65 71 83 83 67 63 60 59 55 53 60 60 56 64 70 68 70 65 64 64 65 59 59 61 58 56 58 61 64 60 59 70 80 82 95 99 102 104 100 102 102 107 108 109 110 105 105 104 107 110 116 107 100 107 109 109 109 107 109 111 109 112 107 112 114 111 105 97 105 105 107 100 96 97 91 91 91 91 93 93 93 97 100 102 100 98 97 104 105 104 105 97 97 100 98 101 105 99 109 112 111 112 109 109 112 114 112 116 116 118 120 122 122 122 120 116 118 118 116 112 109 107 107 98 95 95 97 104 109 111 105 131 109 109 114 104 105 114 137 131 105 102 109 100 95 111 114 123 105 109 98 153 135 122 138 122 111 54 90 86 117 88 88 123 136 120 70 63 212 168 83 73 53 109 112 112
58 59 58 56 59 60 58 56 59 61 63 63 65 67 63 64 68 65 54 54 59 63 59 61 70 66 64 67 67 65 65 67 67 64 63 64 65 61 63 64 65 65 67 65 63 64 63 60 60 64 65 67 67 67 67 67 66 67 65 68 70 67 73 74 77 75 73 73 74 71 70 60 59 56 64 83 114 159 183 213 228 234 235 232 230 227 225 226 227 227 230 234 236 238 238 237 233 213 183 138 76 39 29 19 18 18 23 26 35 43 51 68 91 107 116 118 118 114 107 104 104 100 105 108 105 107 107 103 105 111 111 118 122 120 114 118 116 108 107 109 107 111 102 98 102 111 111 90 100 112 88 98 105 111 100 122 122 118 111 98 95 114 86 91 92 95 102 107 105 105 112 112 107 104 102 105 105 107 108 97 100 100 97 109 102 91 86 75 74 73 73 74 74 73 73 77 80 77 74 74 67 65 60 60 59 61 64 63 60 59 59 61 63 64 65 64 63 63 64 68 68 68 65 64 64 67 68 73 65 65 67 63 61 61 59 60 64 65 60 62 65 61 61 61 64 65 65 68 70 68 65 63 60 60 60 60 61 64 65 65 68 68 70 70 74 80 79 77 77 74 68 67 68 67 68 68 64 60 60 61 63 60 59 60 63 63 61 63 69 70 70 68 68 71 71 73 73 71 70 71 74 73 71 74 71 63 65 65 61 60 61 61 67 70 68 79 73 65 68 60 58 62 63 73 70 68 67 64 63 62 63 61 59 53 54 53 59 73 91 93 95 95 95 99 97 98 95 98 107 104 100 98 105 112 104 107 105 107 109 110 109 111 109 111 109 109 111 111 110 112 111 107 107 109 112 114 112 111 103 93 95 93 88 86 95 100 95 93 88 92 95 98 98 102 104 98 98 98 98 105 109 104 107 114 114 112 109 107 109 112 112 113 114 109 109 107 105 105 105 105 105 107 107 105 105 105 105 100 93 102 97 97 93 93 90 95 104 103 102 91 86 90 88 104 114 105 105 114 111 110 122 103 120 129 123 138 127 131 131 116 100 118 109 99 118 100 75 88 135 80 144 107 83 164 162 123 114 145 120 106
59 60 59 58 60 63 60 59 61 62 58 56 59 61 60 60 60 59 59 59 59 59 58 60 65 65 60 63 65 65 64 64 67 68 65 65 65 59 59 61 65 63 64 63 64 65 67 64 60 68 68 67 67 67 67 67 70 69 71 73 67 60 68 68 65 70 71 68 68 70 71 70 70 68 68 63 60 66 66 70 85 109 136 175 208 222 233 234 233 233 228 229 231 228 228 231 230 232 238 241 238 235 234 221 171 104 60 37 26 22 21 20 24 29 42 47 60 80 97 109 114 116 116 109 100 98 102 102 102 100 105 105 111 109 111 112 117 116 116 118 116 109 100 105 111 115 116 102 105 86 104 127 93 109 112 120 104 95 104 95 95 98 97 100 107 112 114 116 116 114 111 107 107 104 109 116 100 98 107 112 111 86 90 77 88 91 88 90 80 75 74 74 77 75 73 73 74 73 68 70 68 74 71 68 64 61 60 58 58 59 56 55 55 60 67 65 63 63 65 68 67 64 61 60 61 64 61 63 67 64 65 67 64 61 59 59 61 61 55 58 63 64 62 58 61 66 64 67 67 67 68 65 64 64 59 61 67 63 60 61 64 63 65 71 73 74 73 70 73 70 62 68 73 71 71 73 67 67 73 70 71 70 67 64 70 63 59 59 63 63 64 64 67 65 64 65 63 65 65 70 74 67 68 74 74 71 70 73 70 67 61 60 63 63 63 64 64 65 65 60 53 51 51 52 55 63 65 64 63 63 67 68 68 67 63 60 60 60 63 61 61 61 64 71 67 73 74 80 88 93 93 97 105 109 102 102 102 104 105 109 109 107 109 112 112 111 109 109 109 109 111 112 112 111 111 112 114 114 111 111 111 112 112 105 102 98 90 90 91 95 90 90 95 98 98 99 93 93 95 95 95 91 95 104 104 107 112 107 112 116 114 111 109 105 104 100 98 100 100 100 98 100 100 98 98 102 107 102 102 104 100 100 102 98 98 100 102 100 104 100 95 93 97 94 88 93 85 95 93 95 93 88 111 118 123 120 109 97 101 140 95 142 138 120 138 123 116 136 135 118 122 95 102 133 144 61 74 98 123 133
59 61 60 61 67 61 59 58 54 53 56 56 55 58 59 54 54 56 59 59 59 58 59 59 59 60 60 63 63 65 64 61 63 67 67 67 65 65 67 67 66 64 63 65 64 63 65 70 68 68 70 67 68 67 68 68 68 67 67 68 68 68 70 65 65 67 68 64 65 70 67 71 71 71 73 71 70 69 74 73 68 64 61 60 60 71 104 138 175 207 222 230 233 234 233 231 230 230 227 232 234 235 236 238 236 236 235 229 213 178 127 74 53 29 17 20 17 19 24 36 45 54 70 86 104 112 113 109 111 108 104 102 102 102 105 111 105 105 109 111 111 111 110 114 111 111 111 112 114 109 95 107 100 97 102 90 86 91 104 107 112 105 102 106 105 98 120 114 112 111 112 110 102 103 112 90 86 127 149 155 140 131 133 109 136 105 93 82 79 86 83 82 77 73 73 71 73 68 64 70 70 70 73 70 67 71 65 60 71 70 61 64 54 58 63 61 58 60 63 61 61 60 58 55 55 52 54 59 62 61 60 63 61 60 57 59 61 61 60 60 64 65 64 60 60 60 63 61 60 60 61 62 67 67 64 68 70 65 65 63 65 68 70 71 75 74 67 63 63 65 63 61 68 65 70 73 71 74 74 75 74 73 73 75 77 65 64 61 64 64 65 67 70 61 60 63 61 65 64 61 65 65 63 65 67 69 70 74 77 82 83 80 77 76 68 63 58 58 58 56 59 59 58 59 59 55 56 60 55 54 56 59 64 65 74 75 75 71 68 64 61 58 56 56 56 59 58 55 58 63 67 77 86 88 90 102 102 105 111 109 109 104 104 105 109 111 111 110 107 107 110 111 112 112 109 116 112 105 107 116 111 109 112 109 104 98 98 98 98 95 90 91 91 90 91 88 90 90 95 90 88 90 86 93 91 95 95 97 100 105 109 105 100 105 100 97 97 98 100 100 97 98 100 97 95 93 97 97 102 104 100 102 100 98 98 97 93 93 98 97 95 95 97 98 95 97 95 90 86 86 86 83 82 93 104 105 109 105 102 118 112 122 133 133 125 114 114 105 125 122 116 117 131 123 116 106 95 94 118 109
58 67 63 55 63 64 56 58 59 56 55 58 59 60 61 56 58 59 58 59 59 57 56 58 59 60 64 63 63 65 64 60 61 65 64 64 64 64 67 68 67 65 71 75 68 70 70 64 68 67 64 75 71 70 70 68 67 68 67 68 70 68 67 68 68 67 67 74 73 71 68 70 71 71 70 70 67 68 68 65 68 70 75 75 70 67 63 51 26 29 50 85 120 153 191 217 228 234 233 234 232 230 232 227 227 230 231 229 228 234 234 234 234 220 197 135 75 44 27 21 19 20 24 24 32 37 41 50 73 95 109 109 112 113 107 107 102 95 98 100 102 106 105 111 112 111 109 111 114 118 118 109 100 105 111 105 98 88 85 86 83 79 77 82 78 74 80 97 109 105 107 94 129 131 109 82 74 95 77 94 82 107 107 79 97 107 103 102 100 107 91 90 82 75 74 70 70 65 67 70 70 71 71 67 64 63 71 64 60 68 69 74 74 73 71 70 66 63 63 63 63 58 55 58 63 58 60 59 59 59 56 59 58 59 60 61 61 61 60 61 64 65 63 64 67 67 67 64 61 61 64 63 62 63 60 64 65 63 73 73 71 74 75 68 71 70 67 70 70 73 67 69 71 66 63 68 70 68 68 67 68 70 71 75 80 77 77 77 70 70 73 74 77 70 65 71 70 74 73 65 67 67 71 68 65 65 63 65 73 75 74 75 72 71 71 75 75 74 68 67 63 60 60 64 63 58 60 59 59 58 56 52 53 56 64 63 65 65 63 67 71 77 80 83 77 75 83 80 71 74 71 65 61 59 60 65 65 77 86 93 102 104 102 102 97 86 88 88 91 97 92 100 102 105 102 109 109 110 112 107 107 107 109 105 102 98 97 98 98 98 98 98 98 91 86 88 93 95 93 90 97 88 86 93 95 95 90 90 90 90 90 95 93 90 95 98 97 96 98 100 97 97 97 95 95 91 90 92 98 100 98 98 98 97 98 95 96 100 100 96 95 95 95 93 93 95 95 95 93 75 93 93 98 105 103 104 105 104 111 115 112 105 104 102 107 109 114 105 104 107 109 107 136 149 100 129 146 120 114 114
58 56 61 56 60 61 61 61 61 56 56 56 59 60 60 59 61 58 58 58 58 60 60 53 54 58 60 56 59 58 56 59 61 61 61 61 64 67 64 63 65 65 65 67 67 68 71 74 73 70 73 71 70 70 65 65 68 68 70 68 65 68 67 67 67 65 68 67 64 65 67 67 70 70 67 67 70 70 71 70 70 71 71 74 74 70 67 71 68 63 64 65 60 58 60 67 80 109 146 185 212 229 234 237 237 234 229 228 227 225 227 228 232 236 241 236 231 231 218 189 149 93 52 33 22 20 21 20 22 26 32 38 46 61 78 95 104 116 112 114 112 102 100 104 104 102 101 100 102 108 109 105 105 111 114 120 107 93 97 93 90 90 90 100 97 83 79 85 83 93 77 86 85 93 91 90 74 88 85 88 95 85 93 105 109 112 109 101 104 102 97 91 88 82 79 71 75 73 70 71 53 48 55 55 55 62 63 61 63 64 67 71 70 70 74 74 68 71 67 65 67 63 61 63 63 59 59 60 59 56 59 59 59 58 60 63 60 59 58 63 63 63 63 61 64 67 65 65 64 63 65 65 64 65 65 67 68 68 74 71 70 65 61 61 60 61 65 71 70 74 71 74 77 83 80 74 73 71 71 67 70 73 74 73 80 82 78 80 76 78 80 74 75 77 78 80 80 81 79 75 77 71 71 67 65 67 64 61 68 71 65 61 65 65 65 65 67 71 67 71 79 79 74 71 71 73 71 65 66 65 60 54 52 53 55 55 53 52 52 58 58 55 58 63 73 79 93 100 102 98 91 88 86 82 78 77 75 67 61 58 56 56 58 67 71 73 65 63 65 65 71 70 72 73 71 80 90 95 91 97 104 100 95 98 98 100 104 100 97 98 100 98 100 93 91 93 97 98 98 98 101 100 95 97 98 90 86 83 79 85 93 92 91 90 88 95 93 88 88 90 89 91 93 93 95 95 98 97 97 95 95 96 97 93 93 93 95 97 97 98 98 98 95 93 91 90 93 86 79 83 85 88 93 102 105 104 104 103 102 100 100 105 111 109 109 111 109 105 105 114 114 109 107 108 109 107 116 112 125 98
58 58 58 56 59 60 61 70 73 60 55 56 64 63 60 59 59 58 59 57 58 58 58 53 56 59 60 56 56 53 52 55 56 56 60 59 60 66 61 63 65 65 65 64 64 67 69 68 65 64 68 72 71 70 67 67 64 65 64 63 64 71 71 65 64 65 68 65 64 64 65 67 64 63 65 67 68 70 71 69 70 68 65 67 67 68 65 70 71 73 71 70 70 70 67 64 63 61 60 58 64 76 100 148 178 207 228 234 234 231 229 226 229 227 224 234 241 236 230 235 237 236 233 227 212 181 133 82 47 30 22 21 21 22 22 24 33 47 60 70 91 109 114 105 107 104 102 100 95 93 98 105 100 104 107 107 104 105 111 118 122 118 116 114 112 100 120 104 91 78 79 95 64 73 77 73 70 73 77 82 85 88 95 105 100 97 104 102 98 88 85 83 85 85 90 60 61 48 52 53 63 54 43 32 28 38 42 46 59 70 66 71 67 67 67 67 68 74 77 76 74 70 71 74 65 63 63 70 74 71 64 63 58 61 64 63 60 59 62 63 63 64 61 59 55 53 54 54 58 61 65 65 70 67 68 68 70 68 68 71 70 65 67 65 67 64 63 67 67 61 61 59 58 68 75 73 73 74 79 80 74 74 75 74 73 82 82 80 75 74 75 77 75 71 74 77 75 79 80 80 79 79 77 72 75 75 71 67 67 70 67 63 64 64 64 64 64 63 60 61 60 60 64 64 61 63 63 65 67 68 70 68 65 64 60 58 56 55 53 56 54 47 54 47 53 53 61 74 80 88 104 105 106 105 97 98 98 98 95 92 86 85 75 67 61 67 60 52 61 64 50 55 54 61 64 65 70 69 71 75 74 80 75 82 89 98 90 95 97 95 107 95 93 97 100 99 97 95 93 95 95 98 100 99 98 95 98 90 90 91 93 93 91 88 85 88 86 86 85 83 86 90 91 91 93 95 98 97 91 93 95 91 94 91 92 90 93 93 93 95 98 100 97 95 95 92 90 86 82 90 91 95 97 95 97 101 102 102 100 98 98 105 111 111 111 111 107 107 111 113 114 116 112 105 112 114 111 107 102 98
63 63 63 65 65 60 59 59 56 60 67 64 63 61 60 58 56 59 61 59 59 59 58 56 58 55 51 52 55 55 55 58 58 58 60 59 56 52 54 58 63 65 65 67 67 68 65 65 63 67 65 68 71 70 67 69 65 67 67 61 64 70 67 61 61 67 67 70 70 65 64 65 63 63 64 63 63 65 68 65 68 70 67 68 70 70 70 70 68 70 70 68 68 64 65 64 67 70 68 65 65 64 61 58 59 61 74 100 142 178 207 224 231 234 233 232 228 221 223 223 223 232 235 233 232 232 236 235 234 225 212 166 107 59 38 25 19 19 20 19 23 27 38 44 55 70 93 109 107 111 105 112 107 102 98 98 98 102 100 104 111 111 111 109 114 112 112 111 111 104 102 100 100 97 79 75 75 77 79 74 77 81 82 83 86 85 97 98 93 91 105 90 82 105 74 59 67 56 56 65 79 70 59 68 83 79 86 77 82 79 77 82 73 68 64 72 75 74 71 77 74 67 68 67 63 64 63 63 65 70 67 68 64 70 68 64 61 63 65 67 67 65 63 64 58 55 55 54 60 61 65 61 64 65 65 65 65 65 65 70 67 67 68 67 67 67 67 67 71 68 64 63 61 59 59 59 59 63 70 73 68 70 73 70 73 82 82 79 79 74 71 74 80 77 75 77 77 74 70 67 70 74 73 74 82 80 77 74 77 75 73 70 70 70 68 67 65 68 67 67 67 65 64 65 64 61 63 58 61 64 65 67 68 65 64 64 65 64 61 64 63 56 55 58 57 55 54 58 58 61 68 74 79 79 82 90 100 109 107 104 105 104 105 100 88 88 91 91 82 70 60 64 58 60 64 44 48 61 61 63 64 67 71 75 71 65 64 80 88 91 100 93 86 86 91 82 83 87 88 90 97 98 98 98 97 95 99 97 98 104 102 100 95 97 97 95 88 90 90 91 93 93 91 91 91 86 93 95 88 91 93 90 88 91 91 95 102 93 86 90 90 93 91 90 91 98 93 88 102 98 97 100 97 95 93 98 98 98 102 100 102 105 109 109 111 112 114 109 109 112 114 115 114 114 112 114 111 109 109 109
60 60 63 70 67 63 61 59 58 63 73 65 58 58 60 59 55 60 60 59 60 53 55 58 59 48 56 56 58 55 56 58 57 58 56 55 55 55 56 54 58 60 59 60 68 64 58 63 60 60 63 64 64 67 63 64 63 61 67 65 61 67 67 68 68 67 67 68 68 67 65 64 63 63 63 59 62 65 67 61 62 63 65 68 67 67 70 71 70 68 70 71 70 67 65 63 65 65 63 64 64 67 70 71 68 65 64 61 56 58 68 73 90 131 160 204 221 232 233 230 227 227 226 225 220 224 227 227 228 231 231 232 234 234 227 210 180 135 82 44 26 22 20 18 22 23 26 30 41 55 65 83 95 105 107 107 105 102 97 97 91 97 100 97 104 107 109 109 111 116 114 114 112 116 111 105 102 105 107 107 109 109 109 109 107 116 118 111 116 111 120 104 107 105 90 82 88 97 104 100 83 74 77 80 91 91 97 102 97 100 98 98 102 97 93 92 80 86 90 59 50 55 61 60 67 70 71 71 66 65 63 64 67 64 61 63 63 63 64 70 71 65 63 66 63 63 63 67 65 61 60 60 65 65 63 64 65 63 63 65 65 65 68 68 65 68 68 68 71 70 67 67 65 65 63 61 61 61 61 65 64 65 60 63 65 67 68 71 77 74 70 70 80 79 80 77 79 77 70 73 74 73 70 71 74 74 69 68 73 73 71 74 70 70 70 68 70 73 73 68 65 64 65 65 64 63 60 61 63 63 61 63 61 60 63 67 67 64 64 63 63 64 61 61 63 65 61 64 67 64 61 56 54 53 60 65 74 74 73 84 90 100 98 93 98 98 98 98 98 97 95 101 83 74 64 63 55 53 52 61 70 65 65 68 67 80 91 79 83 90 97 95 93 98 98 91 83 85 90 90 91 86 91 91 90 90 90 97 98 98 105 105 101 104 105 105 100 95 95 98 95 88 88 88 86 77 77 80 80 85 88 85 85 84 86 86 79 79 82 83 85 82 86 85 83 95 98 100 102 98 100 99 95 97 99 100 98 97 102 98 100 102 105 107 111 109 107 107 109 112 112 114 114 116 116 116 112 109 111 111
56 57 60 58 61 59 65 74 67 60 60 59 58 59 60 54 54 64 59 58 64 63 59 56 55 52 71 60 58 55 55 59 59 52 50 55 59 59 58 58 56 58 59 60 60 59 59 61 60 59 60 61 59 59 67 73 64 58 61 68 67 68 70 67 67 67 67 70 67 67 64 63 64 64 63 64 65 67 66 63 63 64 63 63 63 63 61 61 65 67 67 67 67 64 66 67 65 64 65 61 67 65 68 65 64 67 68 67 65 66 68 71 70 59 53 59 70 85 114 149 189 211 226 231 232 229 228 228 225 222 220 222 224 226 226 228 231 232 235 232 227 209 155 102 59 30 21 20 24 23 23 24 29 36 50 68 82 96 109 107 105 108 109 104 102 102 102 102 100 100 102 104 98 105 112 111 111 111 111 110 111 109 107 110 116 123 114 112 131 102 102 83 90 107 95 95 97 94 88 95 90 75 68 63 58 59 63 64 73 74 86 89 102 112 97 88 83 83 61 80 59 63 44 36 38 38 40 47 54 64 68 68 71 71 71 73 74 70 63 67 65 64 64 65 60 61 67 67 64 61 60 59 57 60 60 60 61 61 64 61 61 67 70 68 60 63 67 67 68 68 67 67 67 68 66 63 63 63 67 67 65 63 65 67 65 70 73 67 64 64 63 61 63 63 63 67 71 71 71 71 73 71 75 75 68 68 68 70 71 73 67 68 69 71 70 68 68 68 68 66 64 67 67 67 67 67 65 64 67 65 64 64 61 61 65 68 71 68 66 65 63 63 59 58 58 58 61 64 65 64 63 59 59 59 58 58 54 52 52 59 68 71 74 79 83 73 74 77 83 90 93 95 105 111 102 100 98 86 79 80 80 77 74 79 83 97 99 77 73 40 45 64 100 83 61 86 93 90 90 90 90 86 88 85 83 81 83 91 88 86 89 95 97 104 104 104 104 104 105 104 105 98 91 90 95 101 93 86 86 85 85 86 86 85 86 86 82 83 83 82 83 80 79 80 79 82 86 87 82 83 90 93 91 93 98 98 98 100 104 104 102 100 104 105 104 104 104 105 109 106 104 114 112 111 111 111 111 107 106 105
56 59 64 56 63 64 61 60 64 64 61 60 59 61 60 64 60 64 60 59 59 52 53 54 59 55 59 58 56 58 70 61 56 51 56 60 64 59 55 58 57 63 64 60 56 55 56 58 59 58 59 60 60 60 70 73 65 67 64 59 61 70 67 65 65 64 64 68 71 70 68 68 68 68 67 68 69 65 65 64 63 61 61 61 61 61 59 58 70 68 56 59 61 60 59 61 64 63 65 68 68 67 70 67 64 67 69 64 67 63 64 73 67 65 68 71 67 65 63 55 53 61 73 93 136 183 203 223 229 229 230 227 227 224 225 228 231 223 222 228 225 232 241 242 241 234 213 153 116 67 46 26 18 19 21 23 26 29 38 44 59 82 104 109 114 112 109 105 104 100 98 98 102 109 103 101 100 104 105 107 107 109 109 107 105 107 109 111 120 111 105 100 105 100 107 109 104 104 95 96 109 98 86 95 90 91 91 83 90 90 80 90 68 82 83 79 62 67 83 74 74 85 75 61 55 90 70 55 55 64 73 77 75 71 82 81 82 85 85 77 73 65 68 67 63 64 70 60 61 60 61 61 61 61 61 61 64 59 60 60 61 64 67 67 69 68 65 65 67 67 64 63 65 65 67 64 64 65 65 68 65 68 74 73 72 71 73 70 65 64 64 63 62 60 59 61 61 64 65 61 68 70 75 73 68 69 70 71 73 71 71 70 73 74 71 70 68 70 70 73 70 70 68 67 68 68 67 67 71 71 70 68 69 70 71 70 71 70 67 67 65 63 63 63 59 61 63 60 63 63 63 61 60 61 61 58 56 54 55 55 60 60 61 56 56 61 59 55 56 61 63 61 71 79 90 93 93 104 102 97 97 95 102 104 102 105 98 93 100 93 88 90 98 86 61 67 90 86 91 93 88 88 88 86 86 83 80 83 86 86 80 82 80 77 83 85 82 88 97 97 98 98 100 101 97 95 91 91 98 102 102 95 91 85 88 89 82 80 83 80 82 82 77 78 82 80 80 83 83 83 86 90 88 86 90 88 90 90 88 95 97 95 93 92 93 93 98 104 102 100 98 97 92 99 100 100 107 105 102 102
59 58 63 60 56 64 60 62 63 58 56 56 61 65 60 68 60 61 59 59 60 58 63 61 61 60 60 60 58 64 64 58 55 56 61 61 61 58 56 59 56 58 56 56 60 54 56 59 59 56 58 59 56 59 58 57 59 60 60 59 64 68 63 64 64 63 61 63 70 68 65 65 68 65 61 61 63 64 63 60 57 60 61 63 63 60 63 65 67 63 61 65 61 61 61 61 60 61 61 67 61 59 71 73 64 67 65 63 63 63 64 67 65 59 63 65 63 64 65 67 61 70 63 60 53 56 59 64 90 129 171 193 212 224 229 227 227 225 226 226 223 223 222 223 227 223 228 239 245 238 236 224 180 122 71 45 25 26 21 20 21 22 25 33 45 58 75 90 102 109 114 109 109 109 101 100 100 99 100 99 98 102 102 104 104 102 104 107 111 112 115 114 112 109 111 112 112 111 109 109 112 111 111 123 112 109 114 118 104 92 104 153 92 77 79 83 90 82 86 77 102 107 100 107 90 114 111 112 117 114 114 112 107 91 91 97 91 88 86 85 83 64 64 73 79 77 79 73 67 63 61 60 60 60 60 61 64 60 60 59 61 61 64 67 68 70 64 61 63 60 63 63 64 68 67 67 67 65 64 65 61 60 60 56 64 63 61 65 65 65 64 67 65 61 61 61 61 65 64 63 61 61 67 68 65 65 70 68 68 67 68 67 68 71 74 74 71 70 67 67 70 71 67 64 64 64 64 64 67 70 70 73 71 71 71 68 68 68 70 70 70 68 64 62 63 64 64 61 63 63 62 64 67 64 63 64 65 64 60 60 59 59 58 58 60 61 56 52 54 60 61 55 56 59 60 65 71 79 93 88 90 98 101 107 105 107 104 105 105 98 97 104 95 98 100 104 102 91 91 90 91 93 86 85 88 85 77 74 79 83 75 74 78 73 73 77 82 82 83 86 87 86 88 88 87 90 93 91 97 100 98 97 93 93 97 95 91 90 86 82 84 86 83 85 95 95 88 90 93 93 91 91 91 91 95 97 95 104 107 102 104 100 97 97 95 98 102 101 104 104 104 100 86 94 100 104 107 105 105 105
66 61 61 61 60 61 63 61 64 60 61 60 58 63 56 59 60 60 64 61 60 63 61 60 60 61 61 63 55 61 55 58 60 63 61 64 62 61 63 58 53 58 56 60 60 56 59 58 59 60 60 58 58 60 56 55 55 56 57 58 60 59 59 60 64 63 61 60 60 61 60 60 60 60 55 56 58 59 59 63 63 63 63 64 63 60 61 64 60 58 62 61 63 61 63 64 61 61 60 63 62 58 71 68 56 55 61 63 61 65 68 67 67 63 63 64 63 65 65 65 64 65 65 67 65 67 71 61 60 60 64 58 60 77 123 148 189 214 224 235 233 227 226 223 223 223 224 224 225 226 227 231 232 235 238 230 220 193 127 86 59 36 28 18 18 21 20 23 27 33 50 64 83 88 100 109 114 112 105 104 95 95 93 91 97 98 96 98 97 95 100 102 105 105 107 111 111 107 107 109 109 107 107 108 112 118 114 105 95 70 79 77 88 112 90 88 80 79 86 81 74 56 68 74 86 98 104 112 107 107 111 105 109 107 104 110 104 100 100 93 92 63 58 39 64 67 64 73 71 79 79 73 71 68 65 63 65 65 64 65 68 63 61 68 70 70 64 63 64 60 65 67 64 67 68 67 63 63 65 64 59 62 63 55 59 60 58 61 65 68 67 65 65 64 63 63 60 62 66 64 63 64 64 68 65 61 66 64 63 64 63 64 63 65 68 68 70 65 67 71 63 70 73 71 70 64 63 68 67 65 67 71 70 71 70 68 70 68 68 68 68 67 67 67 67 65 64 60 63 63 63 67 68 65 63 61 63 63 61 63 63 63 61 60 58 63 63 60 63 56 55 54 54 58 63 60 52 58 60 60 60 63 65 83 88 105 111 112 107 98 102 107 98 98 98 97 97 95 88 77 75 70 68 67 70 68 67 70 67 68 70 71 77 74 73 67 67 70 74 75 77 78 77 77 88 90 90 82 83 86 88 95 91 88 93 97 93 95 95 95 95 95 96 95 95 97 95 91 91 91 88 93 100 102 102 104 107 111 114 112 112 107 104 107 107 109 109 105 107 111 111 110 105 107 107 107 107 105 105 107
66 63 64 65 65 63 64 64 61 60 61 63 59 64 61 61 59 61 68 61 58 59 58 59 59 60 63 68 58 56 68 63 56 51 63 62 60 60 54 55 82 82 61 60 61 61 59 59 56 58 59 58 59 59 58 58 57 58 55 55 54 55 58 59 55 52 56 58 58 57 59 59 59 59 58 59 58 56 58 63 63 63 63 62 61 61 61 63 59 55 59 59 61 60 60 63 63 60 61 62 63 63 63 61 63 60 64 64 61 65 68 67 61 64 64 64 62 65 66 65 65 65 65 65 64 62 65 66 68 73 73 70 59 63 54 52 54 58 55 98 153 186 214 227 233 234 226 221 220 222 224 226 226 225 224 228 239 239 234 232 234 227 225 197 136 79 46 32 23 21 21 21 24 28 33 42 55 79 91 98 107 111 109 107 104 100 97 98 97 88 97 96 91 93 98 102 97 91 104 109 107 111 111 111 111 112 112 104 108 105 100 123 120 100 75 100 93 93 97 98 91 85 87 85 73 84 100 104 104 95 104 102 112 105 90 102 109 70 44 79 76 112 108 100 88 61 41 45 35 46 50 55 69 71 71 72 74 75 75 73 68 67 61 65 68 68 74 73 71 66 68 73 68 67 70 65 60 60 63 61 58 63 64 63 61 61 60 61 63 67 67 63 61 58 55 59 55 51 55 58 61 62 61 63 67 65 65 63 61 64 63 64 63 61 60 61 63 65 65 62 61 63 64 65 63 63 68 74 67 64 65 68 70 70 73 71 61 59 60 64 64 63 65 67 67 72 68 67 63 63 65 70 71 71 67 71 70 67 64 65 65 61 63 60 63 67 64 67 63 61 60 58 56 54 60 55 52 56 58 59 59 60 63 60 63 65 75 80 79 88 92 93 93 95 97 95 95 93 91 88 93 90 86 82 71 70 68 66 61 59 63 63 68 73 70 65 70 70 65 60 58 56 58 59 59 61 64 68 74 79 77 79 73 70 74 80 85 86 86 85 85 90 95 95 98 98 95 93 93 98 104 100 100 100 100 105 109 111 111 114 112 109 109 107 111 111 109 111 114 111 111 111 111 112 111 109 109 105 107 111
67 65 64 65 61 65 64 65 63 61 61 61 60 60 58 61 59 55 63 60 58 58 56 55 58 61 63 65 61 56 61 61 67 65 59 56 52 59 65 68 77 73 70 65 55 58 60 59 58 58 58 58 59 59 59 58 55 55 55 55 55 55 58 58 56 56 58 58 56 55 56 59 60 59 59 59 58 54 57 67 63 58 61 60 59 59 60 63 60 58 59 59 58 56 59 59 51 56 63 61 61 60 60 59 64 61 61 61 63 60 65 63 61 61 60 61 64 64 65 65 67 67 67 67 67 65 67 65 73 75 67 65 67 67 67 63 65 65 52 61 55 54 65 85 111 148 181 210 223 228 228 226 221 217 219 223 222 225 224 228 227 233 239 233 234 237 229 226 207 163 102 55 40 31 26 25 26 24 27 29 32 39 53 67 79 101 112 111 107 104 107 100 97 97 93 97 97 98 97 102 102 104 105 111 111 111 114 114 114 111 112 112 111 111 114 104 100 102 107 109 109 107 107 112 104 102 102 99 105 105 102 107 111 107 80 79 111 90 64 79 64 98 73 75 67 58 56 59 75 82 75 82 86 80 82 86 75 77 74 68 70 70 67 68 66 71 73 68 70 68 68 74 71 68 69 64 63 65 60 58 61 63 63 62 60 61 61 60 60 63 63 60 61 59 55 59 65 64 61 58 60 61 59 58 62 67 64 61 64 65 64 61 61 63 63 61 60 61 67 64 64 64 63 63 61 60 65 64 61 64 71 71 67 68 73 71 67 67 63 64 64 61 61 64 64 67 70 70 64 61 70 70 70 68 67 64 64 67 71 68 65 67 67 70 70 64 63 65 61 61 64 63 59 59 60 55 56 56 58 60 60 59 58 54 52 53 58 59 62 60 61 67 71 71 75 82 83 86 90 91 93 93 93 92 88 88 88 88 75 67 73 74 75 74 70 65 67 69 70 64 63 64 61 61 60 60 60 61 63 64 66 64 58 64 61 64 67 70 75 75 80 86 85 85 86 88 91 88 90 97 100 104 105 107 104 105 108 109 104 109 111 111 112 110 108 111 111 111 109 111 111 111 111 109 111 111 112 112 111 111
67 68 70 73 74 70 70 67 63 55 58 60 59 58 65 71 61 58 56 56 55 58 56 55 58 58 60 58 58 58 56 60 59 59 59 58 55 58 61 55 54 59 60 60 59 56 59 58 59 56 56 57 59 59 59 59 58 56 55 55 60 59 59 56 56 55 59 56 56 55 55 55 54 59 59 59 58 54 59 58 58 58 59 60 59 59 59 59 59 58 59 59 59 58 59 59 58 58 59 59 64 61 60 55 63 61 59 59 63 61 64 61 63 63 61 63 61 63 64 64 68 71 70 74 70 68 67 63 65 68 68 64 68 68 63 60 66 63 61 68 64 68 71 64 59 53 53 60 75 104 142 168 196 217 226 229 229 232 231 224 217 223 227 224 220 227 224 227 235 234 232 241 240 218 155 114 74 42 29 24 21 20 24 26 24 26 32 40 54 73 93 109 111 114 109 105 100 97 95 93 91 90 90 95 96 98 100 102 109 111 108 111 111 112 111 108 107 109 114 115 112 109 112 112 104 102 98 97 102 102 114 107 103 90 91 71 95 91 83 90 79 70 63 73 88 86 91 83 100 111 116 111 107 102 104 109 99 85 80 75 75 73 70 74 75 78 79 75 77 79 75 75 73 67 67 70 70 65 68 68 64 61 61 60 60 61 61 61 60 61 60 59 60 58 59 60 61 62 61 64 63 64 61 60 59 60 56 53 51 58 60 56 55 58 58 60 60 58 60 61 63 63 62 63 60 57 60 59 59 58 61 61 60 63 60 62 63 61 63 65 67 63 62 67 64 65 70 70 71 73 73 67 63 61 61 62 63 61 59 61 64 67 64 65 70 65 64 62 63 61 63 63 63 65 64 65 65 65 65 61 59 59 50 49 51 51 54 55 59 60 59 58 61 64 67 61 61 71 83 87 93 97 93 92 93 93 95 95 91 88 91 90 82 79 82 79 75 71 70 68 67 67 68 68 67 67 70 68 68 60 60 70 64 67 65 64 63 64 63 60 64 67 64 67 74 74 82 83 83 90 91 93 95 99 105 104 105 107 105 105 109 109 107 108 112 110 111 109 109 111 112 112 111 112 112 111 112 112 112 111
67 68 65 65 60 67 63 65 67 65 68 62 61 59 68 71 64 66 58 59 58 56 58 56 57 58 54 53 59 59 55 60 60 61 63 58 54 59 59 61 62 63 60 60 63 54 59 63 55 56 58 55 58 59 54 58 63 60 58 54 56 59 59 55 56 55 55 56 56 59 56 55 54 55 58 56 55 59 59 56 54 56 58 59 60 59 59 58 58 58 59 59 60 61 59 58 58 60 60 58 58 58 60 55 56 58 58 59 58 57 59 60 60 61 64 68 64 65 62 73 68 73 60 60 61 65 65 65 64 64 67 64 68 71 67 65 63 64 68 65 64 67 67 67 70 68 64 64 64 60 59 44 56 68 90 127 160 189 210 225 225 233 233 223 220 221 222 224 227 234 230 232 223 223 224 227 234 232 217 200 159 97 52 33 19 18 20 22 21 23 28 37 41 52 69 93 107 111 112 105 100 98 97 98 95 95 97 99 100 100 104 108 110 107 112 111 109 112 118 118 116 113 112 111 107 104 105 100 111 105 120 128 100 111 100 111 90 83 90 95 83 88 95 98 86 85 91 100 102 111 111 109 112 112 105 107 112 111 104 95 80 85 74 74 74 65 53 65 50 41 52 58 64 63 66 59 65 68 68 65 61 63 63 67 61 63 60 61 60 58 59 60 59 63 56 59 58 58 60 60 59 61 63 59 59 59 59 60 56 56 59 58 58 56 56 59 61 60 60 60 61 63 63 64 63 63 61 59 56 54 59 56 56 56 56 58 59 58 60 63 64 64 61 64 64 64 65 67 70 73 70 68 66 67 65 63 63 64 64 63 61 61 62 65 67 68 67 64 62 61 63 65 71 74 68 67 65 68 68 65 64 64 63 61 61 59 61 61 55 55 61 61 61 64 65 70 68 65 63 67 83 91 86 85 85 90 91 95 89 88 88 91 95 88 88 86 83 83 80 73 71 74 68 67 71 70 64 65 67 65 64 67 68 70 68 65 65 65 67 67 68 66 66 67 65 63 64 67 69 83 86 90 93 98 102 98 105 102 104 105 102 104 104 102 107 107 107 107 107 107 112 111 109 111 111 112 112 111 107 109
65 67 61 63 60 63 68 68 68 67 64 63 67 75 74 69 65 64 59 62 63 58 57 61 58 56 61 61 60 61 60 58 59 61 64 61 61 61 61 61 59 61 61 65 67 58 60 61 55 43 54 55 55 56 60 60 54 56 58 57 54 55 55 58 60 56 54 54 59 60 56 53 56 55 55 54 59 59 56 58 59 59 56 56 58 59 59 58 58 58 59 59 60 60 59 59 58 59 60 58 58 58 59 58 56 58 60 60 58 58 58 58 59 59 60 67 65 70 63 61 60 59 58 60 62 64 58 59 66 65 64 64 64 67 67 65 56 60 67 65 67 68 68 63 68 68 67 67 67 73 71 67 65 63 62 55 54 54 63 79 107 159 183 208 219 232 234 231 217 217 219 224 216 221 220 221 221 222 224 229 232 233 229 224 204 175 122 82 42 24 22 19 22 21 21 25 31 36 46 59 79 94 115 114 115 107 105 104 100 97 96 98 98 97 100 98 97 102 105 109 111 114 112 111 111 108 107 107 111 105 120 123 104 107 116 95 74 77 83 97 82 83 97 88 98 107 104 95 100 109 107 111 111 109 105 107 111 109 111 107 111 98 82 85 85 68 54 61 67 48 46 54 70 65 38 51 54 61 64 67 73 75 70 73 67 64 62 61 60 56 60 61 63 65 62 61 59 54 59 62 58 58 61 59 55 59 60 61 60 64 60 60 58 58 59 60 60 61 61 61 63 63 61 60 61 63 61 58 56 55 59 59 59 59 59 59 60 60 64 63 60 61 60 58 60 61 61 60 64 68 67 65 65 59 61 63 65 70 68 67 63 61 63 65 65 65 63 64 63 64 63 64 67 65 69 68 67 68 69 65 65 65 65 67 68 68 68 67 65 63 63 64 60 58 60 59 58 60 60 60 63 66 65 67 68 71 71 75 81 83 83 86 81 83 86 84 83 88 90 86 83 80 85 86 80 77 74 68 67 65 65 64 64 65 65 64 65 65 64 67 70 67 65 65 64 64 65 68 67 68 74 80 83 88 98 104 104 104 104 99 95 100 104 102 104 102 100 98 98 100 104 102 104 102 100 107 112 111 106 109
67 63 64 70 64 67 75 70 68 70 63 63 61 64 68 65 63 67 68 67 63 58 64 67 71 75 61 67 64 63 64 60 58 58 61 63 61 60 59 58 58 63 59 58 60 58 56 56 60 60 59 58 56 60 63 63 60 59 59 58 53 56 58 53 58 58 58 60 58 54 55 53 53 56 58 56 58 56 55 52 53 58 56 52 52 54 53 56 58 58 58 58 58 56 58 61 59 60 59 56 58 58 58 59 63 61 59 59 64 67 68 75 67 64 67 71 65 65 65 64 65 57 64 65 65 63 64 67 65 65 65 68 63 63 64 65 56 59 67 64 64 65 64 63 70 70 70 70 68 67 68 66 64 65 65 63 68 67 62 55 58 56 51 60 81 102 143 178 206 217 227 228 224 222 223 220 220 216 222 225 226 223 224 227 229 238 240 242 234 213 180 122 80 41 25 17 19 21 23 24 26 32 42 48 59 79 95 105 112 112 107 104 102 95 93 95 97 98 95 93 97 104 103 107 109 109 109 109 109 107 102 102 106 107 109 105 105 111 98 102 107 109 105 103 105 102 97 100 100 105 104 104 99 98 111 104 108 105 111 107 100 114 80 70 80 102 90 73 77 67 60 80 71 54 57 60 63 64 67 68 70 68 64 65 71 71 75 77 74 68 70 71 68 67 68 68 68 64 60 60 58 60 60 59 56 58 58 55 58 63 61 56 56 60 59 59 59 61 60 59 64 61 59 63 61 61 60 58 56 58 56 59 61 63 63 63 61 60 65 68 67 63 63 63 63 60 60 60 61 63 63 64 63 60 58 61 65 65 65 68 67 67 65 65 65 64 63 63 63 63 59 60 64 62 65 64 67 67 65 64 65 64 63 65 67 71 71 65 72 68 65 67 60 63 68 64 60 56 56 58 56 55 53 52 54 55 55 55 58 60 65 68 67 70 77 75 74 77 79 80 81 75 83 85 79 74 79 79 73 67 68 64 64 60 59 60 65 63 63 63 64 64 61 64 65 66 67 70 70 68 68 68 71 73 82 95 93 97 104 107 105 98 101 104 104 102 97 95 95 98 100 99 102 98 98 104 105 100 102 105
68 67 74 73 65 65 72 68 67 67 64 65 67 65 65 68 67 68 77 71 71 79 67 71 77 70 67 68 65 64 61 59 60 60 63 63 59 57 58 59 56 60 54 55 56 58 58 56 59 58 61 62 60 65 61 58 61 59 60 55 50 54 59 54 56 57 61 64 52 51 53 54 55 52 51 55 58 60 64 54 55 59 56 54 56 56 56 55 54 56 54 55 58 58 56 58 60 60 58 55 56 58 59 63 64 61 56 59 67 73 95 60 56 67 71 68 63 61 63 68 63 58 61 61 60 58 62 67 65 63 59 65 63 60 64 63 61 63 64 61 61 63 61 59 65 68 65 66 65 63 63 65 68 68 67 64 64 63 55 59 73 65 64 63 63 53 51 50 53 67 82 116 159 189 206 227 229 230 230 230 227 225 226 223 220 219 221 227 230 232 234 232 237 230 222 203 149 88 51 35 21 18 18 23 24 26 26 33 36 46 68 85 100 111 114 114 112 109 102 97 93 100 98 95 98 100 97 95 105 105 100 104 107 107 105 105 104 106 111 114 114 115 116 108 109 109 109 111 107 105 102 98 91 93 102 91 102 95 93 93 93 116 123 97 98 85 77 100 77 73 79 61 71 85 82 85 83 79 71 71 68 61 58 60 68 74 75 74 82 74 71 73 75 73 77 75 77 70 68 65 64 65 61 55 58 53 55 60 55 59 63 59 59 61 63 59 56 59 59 56 59 54 61 64 62 61 61 60 58 56 55 58 59 63 63 65 67 64 65 65 65 63 63 60 60 61 64 61 60 60 60 61 61 61 60 59 59 63 61 61 63 64 63 64 64 61 63 63 63 59 58 63 60 64 65 60 64 64 65 65 65 64 63 65 68 70 70 67 65 64 64 64 63 65 63 61 64 65 64 65 63 59 59 56 52 53 50 51 47 47 51 51 48 50 54 58 58 59 61 65 71 70 77 71 73 73 79 82 79 74 71 74 73 77 77 71 63 60 60 59 58 56 61 61 61 63 65 68 68 71 71 68 73 74 73 75 77 80 85 91 95 95 98 97 104 102 98 97 97 97 100 98 100 100 100 98 99 97 95 97
58 67 71 68 67 67 71 71 73 67 65 67 68 70 68 71 67 67 70 71 62 65 65 70 74 67 70 68 65 65 64 61 58 61 63 63 61 60 60 71 65 65 59 56 55 55 53 52 56 58 60 55 53 59 63 59 56 54 64 60 58 58 59 60 44 50 58 56 56 55 55 52 61 55 53 51 60 56 54 55 55 58 55 58 55 56 53 55 60 63 53 54 59 58 56 55 59 53 56 54 58 59 60 64 61 54 58 70 63 56 64 56 55 61 60 61 65 64 63 62 63 67 67 65 63 55 60 63 64 59 58 63 61 61 64 61 63 64 60 59 59 60 59 55 65 64 64 63 63 64 67 65 67 67 67 64 63 67 70 69 71 65 64 64 65 65 64 61 61 67 64 59 55 59 64 70 102 151 191 214 223 227 232 231 226 222 222 223 225 221 218 220 224 225 225 227 233 234 228 227 210 169 100 61 40 29 25 22 22 22 22 28 32 43 48 59 74 88 102 114 112 104 98 93 93 93 91 91 91 91 95 102 105 105 105 104 104 111 112 114 112 111 111 107 112 114 112 111 111 111 105 109 107 109 107 91 105 100 105 125 129 123 123 132 131 86 65 77 97 88 97 98 104 105 102 95 100 102 98 91 86 86 79 73 71 71 64 73 82 67 70 46 59 77 54 58 56 68 71 73 73 71 65 65 64 64 63 65 59 59 59 62 66 67 66 65 61 58 60 61 61 58 60 60 63 63 63 63 63 60 60 59 61 61 61 64 64 74 70 67 65 67 67 64 65 65 65 64 61 60 61 61 60 60 61 61 60 61 59 59 59 56 58 63 61 60 60 61 62 61 64 65 61 64 64 61 64 63 64 65 63 63 63 63 67 67 67 67 67 65 65 63 63 65 63 60 60 60 61 63 61 60 63 61 64 64 56 61 59 55 56 53 53 50 46 47 46 45 47 48 55 60 60 63 65 64 64 72 75 73 74 80 82 86 86 85 79 80 80 73 68 74 71 60 59 61 64 67 63 67 70 74 86 97 98 100 104 102 95 95 95 98 96 73 83 102 100 100 100 98 102 98 98 100 100 100 104 100 97 98
70 73 70 65 68 71 71 61 61 61 67 67 65 68 71 65 63 65 65 71 63 58 67 70 74 70 67 69 68 60 67 65 65 64 65 65 60 63 61 54 57 60 60 64 61 54 55 55 53 50 55 51 48 58 60 56 53 55 53 45 64 60 58 59 56 61 59 59 52 51 53 54 61 54 51 52 59 54 55 59 58 58 58 58 54 61 55 58 59 55 50 54 53 54 56 59 60 54 65 68 67 61 55 56 58 58 58 58 58 55 55 59 58 59 58 60 64 65 61 59 63 61 61 60 60 64 64 64 63 61 63 68 63 61 64 64 61 65 64 61 63 63 61 63 62 61 64 65 63 61 60 65 68 70 65 64 64 65 69 65 61 65 68 65 67 66 68 68 61 56 71 73 66 65 59 54 54 52 57 67 61 92 160 189 218 227 230 230 229 221 217 217 220 223 224 223 228 234 228 229 227 231 236 238 231 222 196 151 98 58 36 26 19 21 24 25 23 26 29 36 55 65 83 102 107 108 107 102 97 98 100 95 95 102 104 105 102 105 99 98 102 104 105 105 107 109 109 110 111 109 109 109 107 109 105 97 86 118 115 88 74 80 102 93 82 82 80 75 82 86 90 86 85 104 100 95 98 102 102 102 97 95 87 83 77 80 79 80 67 82 104 67 54 86 68 47 41 46 59 39 47 58 67 73 71 71 69 68 65 65 67 61 61 60 59 60 60 58 61 63 66 70 65 60 60 64 64 63 63 58 61 60 65 67 70 68 69 68 68 67 64 64 68 67 67 59 63 67 64 65 64 63 60 63 61 64 67 63 63 64 65 65 65 67 63 63 63 64 65 64 64 65 65 65 67 68 68 64 63 65 64 64 64 65 68 68 67 65 67 67 68 67 63 63 64 63 62 59 63 61 60 60 60 63 63 61 59 60 60 58 56 58 59 58 55 51 45 45 47 49 48 44 48 50 52 54 55 61 62 65 75 75 74 80 80 83 83 88 88 86 86 85 74 73 75 73 73 73 70 64 60 58 56 60 61 64 75 85 86 91 95 103 111 107 109 106 107 105 105 104 100 99 95 97 104 101 100 98 105 102
61 58 60 64 67 71 68 63 73 61 65 65 64 68 67 65 65 67 67 70 67 63 68 65 70 74 67 68 70 65 67 63 59 64 70 65 60 61 73 60 63 61 52 58 58 58 59 63 56 54 59 55 54 58 55 57 63 64 60 56 61 58 56 53 53 58 60 60 55 55 56 56 54 43 46 52 56 58 61 59 52 56 58 59 52 55 61 56 61 56 45 52 63 58 50 55 56 56 55 52 51 52 54 55 55 58 58 56 58 59 58 55 55 58 59 59 56 58 61 61 61 59 58 58 60 70 68 71 75 67 63 70 65 63 65 65 63 62 64 65 70 71 66 63 63 61 60 64 63 61 59 60 74 64 60 64 67 63 61 61 61 66 67 67 67 64 68 66 65 60 60 63 67 65 59 63 63 67 67 70 55 52 59 51 60 69 109 133 175 219 226 229 227 227 227 224 227 222 223 224 220 216 220 222 223 225 227 232 236 230 220 204 159 123 71 44 33 26 19 20 24 24 26 31 33 37 55 79 90 104 111 109 109 105 105 102 98 97 95 90 92 97 98 97 97 97 102 107 109 107 104 100 102 109 107 107 91 104 107 107 98 88 98 99 100 105 109 102 102 102 100 98 98 95 94 98 102 93 97 97 97 104 100 90 79 80 73 74 80 88 90 91 59 44 58 68 82 60 60 48 56 55 59 54 65 68 71 73 71 69 64 68 71 70 68 65 64 56 60 61 61 59 60 61 58 62 59 63 61 63 61 56 61 64 61 63 65 67 67 63 65 68 65 63 63 59 59 68 63 64 61 61 60 60 64 63 63 56 58 61 63 61 64 64 63 63 64 67 67 65 63 67 68 67 70 70 70 67 64 61 64 65 65 70 65 67 71 67 66 68 65 65 74 75 79 71 67 65 67 63 63 64 63 65 64 61 63 63 63 58 55 60 61 64 59 61 60 55 55 59 56 45 47 45 46 51 50 51 50 48 52 60 59 63 65 68 70 73 77 77 74 73 75 78 95 96 83 82 80 77 71 70 68 59 53 50 52 55 56 50 51 59 73 77 88 93 91 93 88 85 98 102 98 98 98 100 103 99 107 105
70 64 61 63 63 67 67 67 71 75 80 71 70 67 65 67 65 65 69 70 68 70 70 70 68 68 64 65 68 65 64 61 60 67 70 64 60 61 83 67 63 62 55 56 61 61 59 59 59 59 56 55 56 56 56 56 60 53 59 60 56 55 55 55 55 56 58 56 55 56 64 64 65 65 64 60 52 52 55 59 52 53 53 57 53 52 60 56 56 58 73 95 90 60 50 58 56 59 60 52 58 59 54 55 58 58 57 56 56 56 58 56 52 55 59 58 61 55 53 56 59 58 58 59 61 61 64 63 64 63 64 67 68 68 64 64 67 68 63 59 64 64 59 63 64 63 67 59 63 66 58 58 63 55 58 60 59 59 59 63 63 61 65 64 64 65 63 55 70 67 59 61 65 64 60 63 63 63 70 68 64 56 64 68 60 55 56 55 47 53 79 114 144 185 214 225 235 235 228 227 219 218 214 217 220 221 221 222 227 235 234 236 231 232 231 227 213 185 144 95 54 37 28 18 22 28 23 24 26 30 38 44 56 80 98 107 112 109 105 93 91 97 98 91 98 93 95 90 87 90 102 93 98 107 105 107 88 98 104 102 108 116 112 112 112 112 111 111 109 107 109 109 109 102 97 98 105 97 83 95 83 86 75 74 74 104 98 53 59 114 91 52 47 73 67 60 65 51 40 58 65 60 67 65 68 64 61 65 77 68 65 63 63 64 73 79 75 70 75 70 65 63 63 65 61 62 59 60 65 64 61 58 54 56 61 63 63 59 64 63 63 64 59 59 61 61 55 56 60 63 63 64 63 65 69 63 61 61 61 63 61 63 61 58 58 58 60 59 60 61 59 59 64 64 58 61 68 67 60 61 61 61 60 60 59 61 64 60 61 61 63 65 70 67 68 71 68 70 70 64 63 68 67 68 67 70 67 64 64 61 60 67 68 67 63 64 61 59 59 60 60 55 58 58 52 53 54 54 54 53 51 52 52 52 54 58 58 58 63 67 67 63 65 74 73 69 70 73 70 79 88 82 93 90 75 71 68 68 70 65 60 56 53 50 45 50 58 58 55 53 68 70 73 82 74 70 80 80 88 99
68 72 71 70 71 71 68 67 65 70 65 68 68 68 72 71 68 70 65 67 65 70 68 71 68 64 56 61 67 64 54 56 64 71 71 70 63 64 75 68 67 64 55 59 66 63 60 59 59 58 59 58 59 58 58 61 59 54 56 58 56 56 56 55 55 56 56 54 58 58 59 59 63 65 70 65 52 53 59 63 58 54 52 46 50 47 43 60 72 59 63 51 52 52 44 56 58 58 59 56 60 58 58 54 59 59 54 51 53 54 56 58 59 55 48 46 56 53 52 53 58 58 58 56 58 58 59 53 60 63 59 61 59 61 63 60 61 64 70 70 67 60 67 65 68 58 65 60 63 63 61 51 53 58 60 60 59 60 60 60 65 56 58 61 63 64 64 60 61 63 60 63 64 68 65 65 61 59 71 73 68 63 60 65 61 61 64 61 69 63 53 52 51 48 52 74 95 118 160 194 220 226 228 227 225 223 221 216 217 224 233 232 221 218 221 223 226 228 231 233 228 219 199 173 111 73 40 29 26 25 21 21 20 22 27 31 43 59 75 88 105 105 98 112 100 91 88 90 93 95 97 91 91 92 98 98 97 96 100 104 105 107 109 109 111 111 111 111 106 107 107 107 109 105 102 104 104 103 93 100 97 98 112 105 90 90 105 112 100 91 74 75 75 73 75 71 61 59 55 59 67 65 65 67 67 67 60 61 73 71 68 64 64 65 80 92 85 70 63 40 75 74 74 70 68 68 73 73 77 73 70 67 63 63 67 67 64 65 65 62 61 63 58 58 58 58 65 60 60 63 65 61 58 64 59 63 58 59 61 63 64 63 59 56 56 58 59 59 55 53 54 56 61 61 59 58 59 60 59 61 61 61 63 63 59 58 55 58 59 56 56 61 61 63 64 69 68 70 71 68 64 67 67 64 64 67 67 65 65 63 61 65 64 60 64 63 60 59 59 63 65 63 61 62 56 58 59 55 56 58 53 52 52 53 52 52 52 53 56 56 55 58 58 61 59 60 61 64 63 63 68 71 71 75 73 70 71 71 70 70 70 68 68 65 59 56 53 54 54 53 50 50 46 46 55 60 60 60 60 63
71 74 71 67 63 70 68 63 64 68 71 70 67 65 68 73 74 75 73 67 67 56 59 66 67 68 64 67 67 67 70 63 63 65 53 63 71 65 60 64 68 64 59 65 78 68 64 64 61 59 60 60 61 59 59 68 61 58 59 55 56 59 56 56 58 58 58 58 56 54 56 59 55 63 61 57 58 60 58 58 55 56 55 65 67 79 58 48 61 55 53 53 59 54 46 51 56 58 59 56 58 58 50 45 58 54 46 50 55 56 54 47 56 55 53 54 56 56 56 56 58 54 58 56 53 54 55 59 63 61 61 60 56 63 61 56 56 53 59 63 59 62 63 68 68 61 61 65 71 63 60 61 59 60 61 61 62 64 60 56 63 60 59 59 60 61 61 61 58 60 64 66 65 64 63 64 63 61 67 65 63 63 65 64 64 65 68 64 68 65 61 57 59 65 61 58 50 55 56 74 71 93 131 161 194 216 223 227 226 218 229 227 225 223 222 218 219 222 219 219 224 236 236 239 240 234 223 212 184 131 90 51 28 21 20 21 19 18 21 24 28 38 60 71 80 93 102 104 107 105 98 95 97 85 91 95 95 95 98 95 98 98 95 91 98 105 107 109 111 104 104 107 107 109 111 109 109 111 107 114 105 92 65 90 100 88 91 102 98 90 79 91 79 73 79 70 64 71 73 74 74 64 61 58 60 60 68 67 70 73 78 80 65 60 53 64 86 67 74 65 77 74 78 47 74 67 56 59 71 73 73 70 67 68 65 65 65 67 65 64 64 63 60 60 60 60 60 61 59 61 61 60 59 60 58 60 59 54 56 59 61 65 61 59 58 60 56 60 60 59 61 59 58 61 60 59 59 58 56 60 61 61 61 61 61 59 59 61 63 60 58 59 62 60 60 63 64 64 63 67 60 63 61 61 60 60 61 63 64 61 60 61 61 55 58 59 56 59 64 67 65 65 61 59 58 58 55 60 56 56 56 61 61 54 59 58 58 52 52 50 51 54 51 51 51 50 55 60 64 60 60 67 64 64 64 68 67 63 63 63 64 64 65 65 67 65 68 74 67 63 64 63 58 54 58 61 56 59 58 56
55 75 73 68 67 71 75 75 74 74 74 70 68 68 70 73 61 64 65 64 65 74 70 74 74 68 67 66 70 71 75 70 71 59 59 71 72 64 61 64 67 60 63 65 70 69 63 63 64 68 65 61 64 63 61 60 55 56 59 56 60 59 58 60 58 58 58 55 54 55 55 56 60 56 58 60 60 58 56 60 68 65 75 104 70 54 54 60 64 56 43 50 55 53 60 61 60 60 59 58 59 59 58 58 58 54 53 58 60 59 59 47 54 52 53 55 74 59 53 56 56 54 54 54 57 56 53 53 53 56 58 59 56 55 59 63 63 59 59 59 56 56 54 55 63 63 67 73 71 67 61 63 63 61 60 60 60 59 60 59 63 72 55 59 60 61 61 59 58 59 64 63 59 58 58 61 63 61 61 64 63 62 64 65 64 63 65 64 63 70 64 65 63 64 63 60 65 67 62 65 58 56 53 54 55 59 65 104 148 183 216 226 231 232 226 234 226 218 220 219 227 229 230 227 221 226 222 229 230 232 233 230 217 185 133 86 51 25 19 21 19 21 22 21 23 26 36 38 46 68 81 98 111 107 103 109 102 97 100 102 97 97 88 91 91 88 91 97 105 102 107 105 104 107 105 105 104 105 107 112 114 116 111 109 100 86 104 98 83 75 95 85 77 85 93 92 88 79 79 80 51 64 74 67 63 63 67 67 71 73 71 73 80 104 73 70 74 53 63 133 103 64 64 68 63 59 55 38 55 64 53 63 68 70 68 67 67 68 68 67 67 61 63 65 68 63 60 61 56 61 55 61 61 60 56 52 58 59 59 56 59 64 60 56 58 59 68 60 57 56 61 59 59 56 58 59 59 56 56 58 59 59 56 56 56 61 63 63 61 61 58 60 60 63 64 63 60 59 54 61 58 59 60 60 61 61 61 60 62 58 59 60 61 61 58 54 59 63 68 61 58 59 60 58 56 56 54 63 58 58 58 60 59 59 58 64 67 63 60 57 56 56 55 55 54 52 51 52 55 55 59 61 61 64 65 64 68 68 68 68 67 67 65 63 65 65 70 75 73 71 68 69 68 70 68 65 65 65 66 67
68 75 75 68 66 67 77 80 75 74 74 71 71 71 68 71 72 73 70 67 68 74 74 65 65 67 70 65 71 65 61 65 66 67 74 77 68 58 61 70 64 58 61 67 54 67 61 59 70 65 64 64 64 64 64 64 64 65 58 56 67 64 59 59 58 58 60 56 55 56 54 58 63 55 58 59 56 56 53 58 58 52 53 52 53 56 58 60 61 67 59 52 52 53 60 64 63 56 55 56 58 53 55 54 55 55 55 56 55 55 54 54 55 52 53 52 53 53 54 55 54 54 53 60 63 58 54 52 52 52 53 55 53 53 58 60 59 60 60 58 58 58 56 58 64 59 58 61 56 59 59 59 60 59 59 58 58 56 58 59 59 58 60 59 59 59 61 58 58 59 60 59 64 58 53 63 59 56 53 63 61 60 61 61 61 63 61 60 61 63 64 58 61 60 59 61 63 63 63 60 61 60 63 65 67 60 56 45 52 54 63 82 93 122 166 203 226 228 232 227 228 221 214 216 219 220 219 219 220 220 227 227 224 227 229 237 236 221 196 155 97 53 33 22 21 19 20 20 20 22 24 32 36 47 71 88 90 104 111 113 107 104 98 97 93 95 93 97 97 97 93 95 97 97 98 97 103 104 100 98 105 107 109 112 112 105 104 100 102 104 107 107 105 105 105 107 108 109 107 95 86 93 83 73 71 71 65 75 68 79 79 70 89 131 86 62 65 65 70 56 64 68 57 55 74 65 56 60 74 73 64 65 70 67 65 63 59 61 70 70 71 70 64 65 68 70 68 64 65 64 62 63 60 61 62 65 56 58 60 59 61 71 66 60 57 59 61 59 56 55 59 59 59 56 53 57 56 56 58 59 58 56 55 55 56 56 59 58 50 58 59 58 56 61 65 68 70 68 68 64 61 61 63 58 63 62 61 61 61 60 60 60 59 64 64 58 54 61 65 64 64 64 61 61 63 61 59 60 61 61 63 63 60 60 61 58 61 61 59 59 61 64 63 61 60 59 53 52 53 50 48 51 52 50 50 48 52 55 61 70 70 67 67 68 71 67 68 70 70 71 71 73 75 79 79 77 77 79 77 75
75 67 65 65 68 75 80 77 75 74 73 68 68 63 63 63 73 71 68 68 68 71 70 71 71 68 70 73 77 63 63 71 73 68 67 68 60 59 61 67 65 65 64 70 65 70 71 63 60 63 54 63 61 60 63 70 68 60 64 68 73 70 63 53 52 59 60 60 59 53 54 59 59 56 52 54 59 60 54 52 53 56 55 55 56 56 56 52 52 58 56 51 60 61 63 59 54 55 56 56 55 57 58 55 54 54 55 56 54 55 55 53 53 54 53 56 56 47 45 50 54 54 52 54 54 48 54 53 51 51 53 55 58 58 53 55 58 56 52 55 56 58 56 55 58 56 58 60 59 61 55 53 54 58 58 57 59 59 60 60 58 54 58 60 60 59 61 58 63 65 60 59 64 60 56 61 55 60 60 64 61 59 58 60 63 63 59 59 64 63 61 60 61 61 60 63 64 65 63 64 60 58 71 67 64 60 63 54 63 58 55 58 60 53 53 61 56 80 133 169 194 212 224 225 221 221 219 218 218 220 220 219 220 222 221 228 226 226 235 234 232 230 235 222 169 111 58 31 19 15 15 20 21 19 19 23 22 27 37 48 63 85 109 105 107 108 105 102 98 97 91 91 88 83 90 91 98 91 97 98 93 97 97 98 106 107 104 98 105 107 107 112 118 112 111 107 95 103 105 116 111 111 114 98 97 95 90 71 61 50 54 91 75 102 112 77 60 79 71 74 54 50 65 74 71 72 65 68 75 79 76 74 68 67 67 61 58 55 60 67 74 80 71 70 65 61 59 65 63 67 65 65 64 64 67 60 58 52 36 44 50 43 59 64 58 63 58 59 61 61 60 61 59 56 58 58 59 61 59 60 59 59 56 56 58 56 58 59 56 59 57 59 58 61 64 63 63 63 63 63 64 66 67 65 64 64 61 60 60 64 60 56 58 60 63 59 58 55 56 60 58 60 60 61 63 61 65 61 58 61 67 65 68 68 69 68 64 64 63 61 59 64 63 61 60 59 61 63 65 63 58 52 50 47 50 51 51 51 48 53 60 58 67 73 67 63 65 64 67 70 71 74 75 77 75 75 77 80 79 74
